P3
256 256
255
128 128 128
128 128 128
128 129 128
128 129 128
129 130 128
129 130 128
129 131 128
129 131 128
130 132 128
130 132 128
130 133 128
130 133 128
131 134 128
131 134 128
131 135 128
131 135 128
132 136 128
132 136 128
132 137 128
132 137 128
133 138 128
133 138 128
133 139 128
133 139 128
134 140 128
134 140 128
134 141 128
134 141 128
135 142 128
135 142 128
135 143 128
135 143 128
72 80 64
72 80 64
72 81 64
72 81 64
73 82 64
73 82 64
73 83 64
73 83 64
74 84 64
74 84 64
74 85 64
74 85 64
75 86 64
75 86 64
75 87 64
75 87 64
76 88 64
76 88 64
76 89 64
76 89 64
77 90 64
77 90 64
77 91 64
77 91 64
78 92 64
78 92 64
78 93 64
78 93 64
79 94 64
79 94 64
79 95 64
79 95 64
144 160 128
144 160 128
144 161 128
144 161 128
145 162 128
145 162 128
145 163 128
145 163 128
146 164 128
146 164 128
146 165 128
146 165 128
147 166 128
147 166 128
147 167 128
147 167 128
148 168 128
148 168 128
148 169 128
148 169 128
149 170 128
149 170 128
149 171 128
149 171 128
150 172 128
150 172 128
150 173 128
150 173 128
151 174 128
151 174 128
151 175 128
151 175 128
88 112 64
88 112 64
88 113 64
88 113 64
89 114 64
89 114 64
89 115 64
89 115 64
90 116 64
90 116 64
90 117 64
90 117 64
91 118 64
91 118 64
91 119 64
91 119 64
92 120 64
92 120 64
92 121 64
92 121 64
93 122 64
93 122 64
93 123 64
93 123 64
94 124 64
94 124 64
94 125 64
94 125 64
95 126 64
95 126 64
95 127 64
95 127 64
160 192 128
160 192 128
160 193 128
160 193 128
161 194 128
161 194 128
161 195 128
161 195 128
162 196 128
162 196 128
162 197 128
162 197 128
163 198 128
163 198 128
163 199 128
163 199 128
164 200 128
164 200 128
164 201 128
164 201 128
165 202 128
165 202 128
165 203 128
165 203 128
166 204 128
166 204 128
166 205 128
166 205 128
167 206 128
167 206 128
167 207 128
167 207 128
104 144 64
104 144 64
104 145 64
104 145 64
105 146 64
105 146 64
105 147 64
105 147 64
106 148 64
106 148 64
106 149 64
106 149 64
107 150 64
107 150 64
107 151 64
107 151 64
108 152 64
108 152 64
108 153 64
108 153 64
109 154 64
109 154 64
109 155 64
109 155 64
110 156 64
110 156 64
110 157 64
110 157 64
111 158 64
111 158 64
111 159 64
111 159 64
176 224 128
176 224 128
176 225 128
176 225 128
177 226 128
177 226 128
177 227 128
177 227 128
178 228 128
178 228 128
178 229 128
178 229 128
179 230 128
179 230 128
179 231 128
179 231 128
180 232 128
180 232 128
180 233 128
180 233 128
181 234 128
181 234 128
181 235 128
181 235 128
182 236 128
182 236 128
182 237 128
182 237 128
183 238 128
183 238 128
183 239 128
183 239 128
120 176 64
120 176 64
120 177 64
120 177 64
121 178 64
121 178 64
121 179 64
121 179 64
122 180 64
122 180 64
122 181 64
122 181 64
123 182 64
123 182 64
123 183 64
123 183 64
124 184 64
124 184 64
124 185 64
124 185 64
125 186 64
125 186 64
125 187 64
125 187 64
126 188 64
126 188 64
126 189 64
126 189 64
127 190 64
127 190 64
127 191 64
127 191 64
128 128 128
128 128 128
128 129 128
129 129 128
129 130 128
129 130 128
129 131 128
130 131 128
130 132 128
130 132 128
130 133 128
131 133 128
131 134 128
131 134 128
131 135 128
132 135 128
132 136 128
132 136 128
132 137 128
133 137 128
133 138 128
133 138 128
133 139 128
134 139 128
134 140 128
134 140 128
134 141 128
135 141 128
135 142 128
135 142 128
135 143 128
136 143 128
72 80 64
72 80 64
72 81 64
73 81 64
73 82 64
73 82 64
73 83 64
74 83 64
74 84 64
74 84 64
74 85 64
75 85 64
75 86 64
75 86 64
75 87 64
76 87 64
76 88 64
76 88 64
76 89 64
77 89 64
77 90 64
77 90 64
77 91 64
78 91 64
78 92 64
78 92 64
78 93 64
79 93 64
79 94 64
79 94 64
79 95 64
80 95 64
144 160 128
144 160 128
144 161 128
145 161 128
145 162 128
145 162 128
145 163 128
146 163 128
146 164 128
146 164 128
146 165 128
147 165 128
147 166 128
147 166 128
147 167 128
148 167 128
148 168 128
148 168 128
148 169 128
149 169 128
149 170 128
149 170 128
149 171 128
150 171 128
150 172 128
150 172 128
150 173 128
151 173 128
151 174 128
151 174 128
151 175 128
152 175 128
88 112 64
88 112 64
88 113 64
89 113 64
89 114 64
89 114 64
89 115 64
90 115 64
90 116 64
90 116 64
90 117 64
91 117 64
91 118 64
91 118 64
91 119 64
92 119 64
92 120 64
92 120 64
92 121 64
93 121 64
93 122 64
93 122 64
93 123 64
94 123 64
94 124 64
94 124 64
94 125 64
95 125 64
95 126 64
95 126 64
95 127 64
96 127 64
160 192 128
160 192 128
160 193 128
161 193 128
161 194 128
161 194 128
161 195 128
162 195 128
162 196 128
162 196 128
162 197 128
163 197 128
163 198 128
163 198 128
163 199 128
164 199 128
164 200 128
164 200 128
164 201 128
165 201 128
165 202 128
165 202 128
165 203 128
166 203 128
166 204 128
166 204 128
166 205 128
167 205 128
167 206 128
167 206 128
167 207 128
168 207 128
104 144 64
104 144 64
104 145 64
105 145 64
105 146 64
105 146 64
105 147 64
106 147 64
106 148 64
106 148 64
106 149 64
107 149 64
107 150 64
107 150 64
107 151 64
108 151 64
108 152 64
108 152 64
108 153 64
109 153 64
109 154 64
109 154 64
109 155 64
110 155 64
110 156 64
110 156 64
110 157 64
111 157 64
111 158 64
111 158 64
111 159 64
112 159 64
176 224 128
176 224 128
176 225 128
177 225 128
177 226 128
177 226 128
177 227 128
178 227 128
178 228 128
178 228 128
178 229 128
179 229 128
179 230 128
179 230 128
179 231 128
180 231 128
180 232 128
180 232 128
180 233 128
181 233 128
181 234 128
181 234 128
181 235 128
182 235 128
182 236 128
182 236 128
182 237 128
183 237 128
183 238 128
183 238 128
183 239 128
184 239 128
120 176 64
120 176 64
120 177 64
121 177 64
121 178 64
121 178 64
121 179 64
122 179 64
122 180 64
122 180 64
122 181 64
123 181 64
123 182 64
123 182 64
123 183 64
124 183 64
124 184 64
124 184 64
124 185 64
125 185 64
125 186 64
125 186 64
125 187 64
126 187 64
126 188 64
126 188 64
126 189 64
127 189 64
127 190 64
127 190 64
127 191 64
128 191 64
128 128 129
128 128 129
129 129 129
129 129 129
129 130 129
129 130 129
130 131 129
130 131 129
130 132 129
130 132 129
131 133 129
131 133 129
131 134 129
131 134 129
132 135 129
132 135 129
132 136 129
132 136 129
133 137 129
133 137 129
133 138 129
133 138 129
134 139 129
134 139 129
134 140 129
134 140 129
135 141 129
135 141 129
135 142 129
135 142 129
136 143 129
136 143 129
72 80 65
72 80 65
73 81 65
73 81 65
73 82 65
73 82 65
74 83 65
74 83 65
74 84 65
74 84 65
75 85 65
75 85 65
75 86 65
75 86 65
76 87 65
76 87 65
76 88 65
76 88 65
77 89 65
77 89 65
77 90 65
77 90 65
78 91 65
78 91 65
78 92 65
78 92 65
79 93 65
79 93 65
79 94 65
79 94 65
80 95 65
80 95 65
144 160 129
144 160 129
145 161 129
145 161 129
145 162 129
145 162 129
146 163 129
146 163 129
146 164 129
146 164 129
147 165 129
147 165 129
147 166 129
147 166 129
148 167 129
148 167 129
148 168 129
148 168 129
149 169 129
149 169 129
149 170 129
149 170 129
150 171 129
150 171 129
150 172 129
150 172 129
151 173 129
151 173 129
151 174 129
151 174 129
152 175 129
152 175 129
88 112 65
88 112 65
89 113 65
89 113 65
89 114 65
89 114 65
90 115 65
90 115 65
90 116 65
90 116 65
91 117 65
91 117 65
91 118 65
91 118 65
92 119 65
92 119 65
92 120 65
92 120 65
93 121 65
93 121 65
93 122 65
93 122 65
94 123 65
94 123 65
94 124 65
94 124 65
95 125 65
95 125 65
95 126 65
95 126 65
96 127 65
96 127 65
160 192 129
160 192 129
161 193 129
161 193 129
161 194 129
161 194 129
162 195 129
162 195 129
162 196 129
162 196 129
163 197 129
163 197 129
163 198 129
163 198 129
164 199 129
164 199 129
164 200 129
164 200 129
165 201 129
165 201 129
165 202 129
165 202 129
166 203 129
166 203 129
166 204 129
166 204 129
167 205 129
167 205 129
167 206 129
167 206 129
168 207 129
168 207 129
104 144 65
104 144 65
105 145 65
105 145 65
105 146 65
105 146 65
106 147 65
106 147 65
106 148 65
106 148 65
107 149 65
107 149 65
107 150 65
107 150 65
108 151 65
108 151 65
108 152 65
108 152 65
109 153 65
109 153 65
109 154 65
109 154 65
110 155 65
110 155 65
110 156 65
110 156 65
111 157 65
111 157 65
111 158 65
111 158 65
112 159 65
112 159 65
176 224 129
176 224 129
177 225 129
177 225 129
177 226 129
177 226 129
178 227 129
178 227 129
178 228 129
178 228 129
179 229 129
179 229 129
179 230 129
179 230 129
180 231 129
180 231 129
180 232 129
180 232 129
181 233 129
181 233 129
181 234 129
181 234 129
182 235 129
182 235 129
182 236 129
182 236 129
183 237 129
183 237 129
183 238 129
183 238 129
184 239 129
184 239 129
120 176 65
120 176 65
121 177 65
121 177 65
121 178 65
121 178 65
122 179 65
122 179 65
122 180 65
122 180 65
123 181 65
123 181 65
123 182 65
123 182 65
124 183 65
124 183 65
124 184 65
124 184 65
125 185 65
125 185 65
125 186 65
125 186 65
126 187 65
126 187 65
126 188 65
126 188 65
127 189 65
127 189 65
127 190 65
127 190 65
128 191 65
128 191 65
128 128 129
129 128 129
129 129 129
129 129 129
129 130 129
130 130 129
130 131 129
130 131 129
130 132 129
131 132 129
131 133 129
131 133 129
131 134 129
132 134 129
132 135 129
132 135 129
132 136 129
133 136 129
133 137 129
133 137 129
133 138 129
134 138 129
134 139 129
134 139 129
134 140 129
135 140 129
135 141 129
135 141 129
135 142 129
136 142 129
136 143 129
136 143 129
72 80 65
73 80 65
73 81 65
73 81 65
73 82 65
74 82 65
74 83 65
74 83 65
74 84 65
75 84 65
75 85 65
75 85 65
75 86 65
76 86 65
76 87 65
76 87 65
76 88 65
77 88 65
77 89 65
77 89 65
77 90 65
78 90 65
78 91 65
78 91 65
78 92 65
79 92 65
79 93 65
79 93 65
79 94 65
80 94 65
80 95 65
80 95 65
144 160 129
145 160 129
145 161 129
145 161 129
145 162 129
146 162 129
146 163 129
146 163 129
146 164 129
147 164 129
147 165 129
147 165 129
147 166 129
148 166 129
148 167 129
148 167 129
148 168 129
149 168 129
149 169 129
149 169 129
149 170 129
150 170 129
150 171 129
150 171 129
150 172 129
151 172 129
151 173 129
151 173 129
151 174 129
152 174 129
152 175 129
152 175 129
88 112 65
89 112 65
89 113 65
89 113 65
89 114 65
90 114 65
90 115 65
90 115 65
90 116 65
91 116 65
91 117 65
91 117 65
91 118 65
92 118 65
92 119 65
92 119 65
92 120 65
93 120 65
93 121 65
93 121 65
93 122 65
94 122 65
94 123 65
94 123 65
94 124 65
95 124 65
95 125 65
95 125 65
95 126 65
96 126 65
96 127 65
96 127 65
160 192 129
161 192 129
161 193 129
161 193 129
161 194 129
162 194 129
162 195 129
162 195 129
162 196 129
163 196 129
163 197 129
163 197 129
163 198 129
164 198 129
164 199 129
164 199 129
164 200 129
165 200 129
165 201 129
165 201 129
165 202 129
166 202 129
166 203 129
166 203 129
166 204 129
167 204 129
167 205 129
167 205 129
167 206 129
168 206 129
168 207 129
168 207 129
104 144 65
105 144 65
105 145 65
105 145 65
105 146 65
106 146 65
106 147 65
106 147 65
106 148 65
107 148 65
107 149 65
107 149 65
107 150 65
108 150 65
108 151 65
108 151 65
108 152 65
109 152 65
109 153 65
109 153 65
109 154 65
110 154 65
110 155 65
110 155 65
110 156 65
111 156 65
111 157 65
111 157 65
111 158 65
112 158 65
112 159 65
112 159 65
176 224 129
177 224 129
177 225 129
177 225 129
177 226 129
178 226 129
178 227 129
178 227 129
178 228 129
179 228 129
179 229 129
179 229 129
179 230 129
180 230 129
180 231 129
180 231 129
180 232 129
181 232 129
181 233 129
181 233 129
181 234 129
182 234 129
182 235 129
182 235 129
182 236 129
183 236 129
183 237 129
183 237 129
183 238 129
184 238 129
184 239 129
184 239 129
120 176 65
121 176 65
121 177 65
121 177 65
121 178 65
122 178 65
122 179 65
122 179 65
122 180 65
123 180 65
123 181 65
123 181 65
123 182 65
124 182 65
124 183 65
124 183 65
124 184 65
125 184 65
125 185 65
125 185 65
125 186 65
126 186 65
126 187 65
126 187 65
126 188 65
127 188 65
127 189 65
127 189 65
127 190 65
128 190 65
128 191 65
128 191 65
129 128 130
129 128 130
129 129 130
129 129 130
130 130 130
130 130 130
130 131 130
130 131 130
131 132 130
131 132 130
131 133 130
131 133 130
132 134 130
132 134 130
132 135 130
132 135 130
133 136 130
133 136 130
133 137 130
133 137 130
134 138 130
134 138 130
134 139 130
134 139 130
135 140 130
135 140 130
135 141 130
135 141 130
136 142 130
136 142 130
136 143 130
136 143 130
73 80 66
73 80 66
73 81 66
73 81 66
74 82 66
74 82 66
74 83 66
74 83 66
75 84 66
75 84 66
75 85 66
75 85 66
76 86 66
76 86 66
76 87 66
76 87 66
77 88 66
77 88 66
77 89 66
77 89 66
78 90 66
78 90 66
78 91 66
78 91 66
79 92 66
79 92 66
79 93 66
79 93 66
80 94 66
80 94 66
80 95 66
80 95 66
145 160 130
145 160 130
145 161 130
145 161 130
146 162 130
146 162 130
146 163 130
146 163 130
147 164 130
147 164 130
147 165 130
147 165 130
148 166 130
148 166 130
148 167 130
148 167 130
149 168 130
149 168 130
149 169 130
149 169 130
150 170 130
150 170 130
150 171 130
150 171 130
151 172 130
151 172 130
151 173 130
151 173 130
152 174 130
152 174 130
152 175 130
152 175 130
89 112 66
89 112 66
89 113 66
89 113 66
90 114 66
90 114 66
90 115 66
90 115 66
91 116 66
91 116 66
91 117 66
91 117 66
92 118 66
92 118 66
92 119 66
92 119 66
93 120 66
93 120 66
93 121 66
93 121 66
94 122 66
94 122 66
94 123 66
94 123 66
95 124 66
95 124 66
95 125 66
95 125 66
96 126 66
96 126 66
96 127 66
96 127 66
161 192 130
161 192 130
161 193 130
161 193 130
162 194 130
162 194 130
162 195 130
162 195 130
163 196 130
163 196 130
163 197 130
163 197 130
164 198 130
164 198 130
164 199 130
164 199 130
165 200 130
165 200 130
165 201 130
165 201 130
166 202 130
166 202 130
166 203 130
166 203 130
167 204 130
167 204 130
167 205 130
167 205 130
168 206 130
168 206 130
168 207 130
168 207 130
105 144 66
105 144 66
105 145 66
105 145 66
106 146 66
106 146 66
106 147 66
106 147 66
107 148 66
107 148 66
107 149 66
107 149 66
108 150 66
108 150 66
108 151 66
108 151 66
109 152 66
109 152 66
109 153 66
109 153 66
110 154 66
110 154 66
110 155 66
110 155 66
111 156 66
111 156 66
111 157 66
111 157 66
112 158 66
112 158 66
112 159 66
112 159 66
177 224 130
177 224 130
177 225 130
177 225 130
178 226 130
178 226 130
178 227 130
178 227 130
179 228 130
179 228 130
179 229 130
179 229 130
180 230 130
180 230 130
180 231 130
180 231 130
181 232 130
181 232 130
181 233 130
181 233 130
182 234 130
182 234 130
182 235 130
182 235 130
183 236 130
183 236 130
183 237 130
183 237 130
184 238 130
184 238 130
184 239 130
184 239 130
121 176 66
121 176 66
121 177 66
121 177 66
122 178 66
122 178 66
122 179 66
122 179 66
123 180 66
123 180 66
123 181 66
123 181 66
124 182 66
124 182 66
124 183 66
124 183 66
125 184 66
125 184 66
125 185 66
125 185 66
126 186 66
126 186 66
126 187 66
126 187 66
127 188 66
127 188 66
127 189 66
127 189 66
128 190 66
128 190 66
128 191 66
128 191 66
129 128 130
129 128 130
129 129 130
130 129 130
130 130 130
130 130 130
130 131 130
131 131 130
131 132 130
131 132 130
131 133 130
132 133 130
132 134 130
132 134 130
132 135 130
133 135 130
133 136 130
133 136 130
133 137 130
134 137 130
134 138 130
134 138 130
134 139 130
135 139 130
135 140 130
135 140 130
135 141 130
136 141 130
136 142 130
136 142 130
136 143 130
137 143 130
73 80 66
73 80 66
73 81 66
74 81 66
74 82 66
74 82 66
74 83 66
75 83 66
75 84 66
75 84 66
75 85 66
76 85 66
76 86 66
76 86 66
76 87 66
77 87 66
77 88 66
77 88 66
77 89 66
78 89 66
78 90 66
78 90 66
78 91 66
79 91 66
79 92 66
79 92 66
79 93 66
80 93 66
80 94 66
80 94 66
80 95 66
81 95 66
145 160 130
145 160 130
145 161 130
146 161 130
146 162 130
146 162 130
146 163 130
147 163 130
147 164 130
147 164 130
147 165 130
148 165 130
148 166 130
148 166 130
148 167 130
149 167 130
149 168 130
149 168 130
149 169 130
150 169 130
150 170 130
150 170 130
150 171 130
151 171 130
151 172 130
151 172 130
151 173 130
152 173 130
152 174 130
152 174 130
152 175 130
153 175 130
89 112 66
89 112 66
89 113 66
90 113 66
90 114 66
90 114 66
90 115 66
91 115 66
91 116 66
91 116 66
91 117 66
92 117 66
92 118 66
92 118 66
92 119 66
93 119 66
93 120 66
93 120 66
93 121 66
94 121 66
94 122 66
94 122 66
94 123 66
95 123 66
95 124 66
95 124 66
95 125 66
96 125 66
96 126 66
96 126 66
96 127 66
97 127 66
161 192 130
161 192 130
161 193 130
162 193 130
162 194 130
162 194 130
162 195 130
163 195 130
163 196 130
163 196 130
163 197 130
164 197 130
164 198 130
164 198 130
164 199 130
165 199 130
165 200 130
165 200 130
165 201 130
166 201 130
166 202 130
166 202 130
166 203 130
167 203 130
167 204 130
167 204 130
167 205 130
168 205 130
168 206 130
168 206 130
168 207 130
169 207 130
105 144 66
105 144 66
105 145 66
106 145 66
106 146 66
106 146 66
106 147 66
107 147 66
107 148 66
107 148 66
107 149 66
108 149 66
108 150 66
108 150 66
108 151 66
109 151 66
109 152 66
109 152 66
109 153 66
110 153 66
110 154 66
110 154 66
110 155 66
111 155 66
111 156 66
111 156 66
111 157 66
112 157 66
112 158 66
112 158 66
112 159 66
113 159 66
177 224 130
177 224 130
177 225 130
178 225 130
178 226 130
178 226 130
178 227 130
179 227 130
179 228 130
179 228 130
179 229 130
180 229 130
180 230 130
180 230 130
180 231 130
181 231 130
181 232 130
181 232 130
181 233 130
182 233 130
182 234 130
182 234 130
182 235 130
183 235 130
183 236 130
183 236 130
183 237 130
184 237 130
184 238 130
184 238 130
184 239 130
185 239 130
121 176 66
121 176 66
121 177 66
122 177 66
122 178 66
122 178 66
122 179 66
123 179 66
123 180 66
123 180 66
123 181 66
124 181 66
124 182 66
124 182 66
124 183 66
125 183 66
125 184 66
125 184 66
125 185 66
126 185 66
126 186 66
126 186 66
126 187 66
127 187 66
127 188 66
127 188 66
127 189 66
128 189 66
128 190 66
128 190 66
128 191 66
129 191 66
129 128 131
129 128 131
130 129 131
130 129 131
130 130 131
130 130 131
131 131 131
131 131 131
131 132 131
131 132 131
132 133 131
132 133 131
132 134 131
132 134 131
133 135 131
133 135 131
133 136 131
133 136 131
134 137 131
134 137 131
134 138 131
134 138 131
135 139 131
135 139 131
135 140 131
135 140 131
136 141 131
136 141 131
136 142 131
136 142 131
137 143 131
137 143 131
73 80 67
73 80 67
74 81 67
74 81 67
74 82 67
74 82 67
75 83 67
75 83 67
75 84 67
75 84 67
76 85 67
76 85 67
76 86 67
76 86 67
77 87 67
77 87 67
77 88 67
77 88 67
78 89 67
78 89 67
78 90 67
78 90 67
79 91 67
79 91 67
79 92 67
79 92 67
80 93 67
80 93 67
80 94 67
80 94 67
81 95 67
81 95 67
145 160 131
145 160 131
146 161 131
146 161 131
146 162 131
146 162 131
147 163 131
147 163 131
147 164 131
147 164 131
148 165 131
148 165 131
148 166 131
148 166 131
149 167 131
149 167 131
149 168 131
149 168 131
150 169 131
150 169 131
150 170 131
150 170 131
151 171 131
151 171 131
151 172 131
151 172 131
152 173 131
152 173 131
152 174 131
152 174 131
153 175 131
153 175 131
89 112 67
89 112 67
90 113 67
90 113 67
90 114 67
90 114 67
91 115 67
91 115 67
91 116 67
91 116 67
92 117 67
92 117 67
92 118 67
92 118 67
93 119 67
93 119 67
93 120 67
93 120 67
94 121 67
94 121 67
94 122 67
94 122 67
95 123 67
95 123 67
95 124 67
95 124 67
96 125 67
96 125 67
96 126 67
96 126 67
97 127 67
97 127 67
161 192 131
161 192 131
162 193 131
162 193 131
162 194 131
162 194 131
163 195 131
163 195 131
163 196 131
163 196 131
164 197 131
164 197 131
164 198 131
164 198 131
165 199 131
165 199 131
165 200 131
165 200 131
166 201 131
166 201 131
166 202 131
166 202 131
167 203 131
167 203 131
167 204 131
167 204 131
168 205 131
168 205 131
168 206 131
168 206 131
169 207 131
169 207 131
105 144 67
105 144 67
106 145 67
106 145 67
106 146 67
106 146 67
107 147 67
107 147 67
107 148 67
107 148 67
108 149 67
108 149 67
108 150 67
108 150 67
109 151 67
109 151 67
109 152 67
109 152 67
110 153 67
110 153 67
110 154 67
110 154 67
111 155 67
111 155 67
111 156 67
111 156 67
112 157 67
112 157 67
112 158 67
112 158 67
113 159 67
113 159 67
177 224 131
177 224 131
178 225 131
178 225 131
178 226 131
178 226 131
179 227 131
179 227 131
179 228 131
179 228 131
180 229 131
180 229 131
180 230 131
180 230 131
181 231 131
181 231 131
181 232 131
181 232 131
182 233 131
182 233 131
182 234 131
182 234 131
183 235 131
183 235 131
183 236 131
183 236 131
184 237 131
184 237 131
184 238 131
184 238 131
185 239 131
185 239 131
121 176 67
121 176 67
122 177 67
122 177 67
122 178 67
122 178 67
123 179 67
123 179 67
123 180 67
123 180 67
124 181 67
124 181 67
124 182 67
124 182 67
125 183 67
125 183 67
125 184 67
125 184 67
126 185 67
126 185 67
126 186 67
126 186 67
127 187 67
127 187 67
127 188 67
127 188 67
128 189 67
128 189 67
128 190 67
128 190 67
129 191 67
129 191 67
129 128 131
130 128 131
130 129 131
130 129 131
130 130 131
131 130 131
131 131 131
131 131 131
131 132 131
132 132 131
132 133 131
132 133 131
132 134 131
133 134 131
133 135 131
133 135 131
133 136 131
134 136 131
134 137 131
134 137 131
134 138 131
135 138 131
135 139 131
135 139 131
135 140 131
136 140 131
136 141 131
136 141 131
136 142 131
137 142 131
137 143 131
137 143 131
73 80 67
74 80 67
74 81 67
74 81 67
74 82 67
75 82 67
75 83 67
75 83 67
75 84 67
76 84 67
76 85 67
76 85 67
76 86 67
77 86 67
77 87 67
77 87 67
77 88 67
78 88 67
78 89 67
78 89 67
78 90 67
79 90 67
79 91 67
79 91 67
79 92 67
80 92 67
80 93 67
80 93 67
80 94 67
81 94 67
81 95 67
81 95 67
145 160 131
146 160 131
146 161 131
146 161 131
146 162 131
147 162 131
147 163 131
147 163 131
147 164 131
148 164 131
148 165 131
148 165 131
148 166 131
149 166 131
149 167 131
149 167 131
149 168 131
150 168 131
150 169 131
150 169 131
150 170 131
151 170 131
151 171 131
151 171 131
151 172 131
152 172 131
152 173 131
152 173 131
152 174 131
153 174 131
153 175 131
153 175 131
89 112 67
90 112 67
90 113 67
90 113 67
90 114 67
91 114 67
91 115 67
91 115 67
91 116 67
92 116 67
92 117 67
92 117 67
92 118 67
93 118 67
93 119 67
93 119 67
93 120 67
94 120 67
94 121 67
94 121 67
94 122 67
95 122 67
95 123 67
95 123 67
95 124 67
96 124 67
96 125 67
96 125 67
96 126 67
97 126 67
97 127 67
97 127 67
161 192 131
162 192 131
162 193 131
162 193 131
162 194 131
163 194 131
163 195 131
163 195 131
163 196 131
164 196 131
164 197 131
164 197 131
164 198 131
165 198 131
165 199 131
165 199 131
165 200 131
166 200 131
166 201 131
166 201 131
166 202 131
167 202 131
167 203 131
167 203 131
167 204 131
168 204 131
168 205 131
168 205 131
168 206 131
169 206 131
169 207 131
169 207 131
105 144 67
106 144 67
106 145 67
106 145 67
106 146 67
107 146 67
107 147 67
107 147 67
107 148 67
108 148 67
108 149 67
108 149 67
108 150 67
109 150 67
109 151 67
109 151 67
109 152 67
110 152 67
110 153 67
110 153 67
110 154 67
111 154 67
111 155 67
111 155 67
111 156 67
112 156 67
112 157 67
112 157 67
112 158 67
113 158 67
113 159 67
113 159 67
177 224 131
178 224 131
178 225 131
178 225 131
178 226 131
179 226 131
179 227 131
179 227 131
179 228 131
180 228 131
180 229 131
180 229 131
180 230 131
181 230 131
181 231 131
181 231 131
181 232 131
182 232 131
182 233 131
182 233 131
182 234 131
183 234 131
183 235 131
183 235 131
183 236 131
184 236 131
184 237 131
184 237 131
184 238 131
185 238 131
185 239 131
185 239 131
121 176 67
122 176 67
122 177 67
122 177 67
122 178 67
123 178 67
123 179 67
123 179 67
123 180 67
124 180 67
124 181 67
124 181 67
124 182 67
125 182 67
125 183 67
125 183 67
125 184 67
126 184 67
126 185 67
126 185 67
126 186 67
127 186 67
127 187 67
127 187 67
127 188 67
128 188 67
128 189 67
128 189 67
128 190 67
129 190 67
129 191 67
129 191 67
130 128 132
130 128 132
130 129 132
130 129 132
131 130 132
131 130 132
131 131 132
131 131 132
132 132 132
132 132 132
132 133 132
132 133 132
133 134 132
133 134 132
133 135 132
133 135 132
134 136 132
134 136 132
134 137 132
134 137 132
135 138 132
135 138 132
135 139 132
135 139 132
136 140 132
136 140 132
136 141 132
136 141 132
137 142 132
137 142 132
137 143 132
137 143 132
74 80 68
74 80 68
74 81 68
74 81 68
75 82 68
75 82 68
75 83 68
75 83 68
76 84 68
76 84 68
76 85 68
76 85 68
77 86 68
77 86 68
77 87 68
77 87 68
78 88 68
78 88 68
78 89 68
78 89 68
79 90 68
79 90 68
79 91 68
79 91 68
80 92 68
80 92 68
80 93 68
80 93 68
81 94 68
81 94 68
81 95 68
81 95 68
146 160 132
146 160 132
146 161 132
146 161 132
147 162 132
147 162 132
147 163 132
147 163 132
148 164 132
148 164 132
148 165 132
148 165 132
149 166 132
149 166 132
149 167 132
149 167 132
150 168 132
150 168 132
150 169 132
150 169 132
151 170 132
151 170 132
151 171 132
151 171 132
152 172 132
152 172 132
152 173 132
152 173 132
153 174 132
153 174 132
153 175 132
153 175 132
90 112 68
90 112 68
90 113 68
90 113 68
91 114 68
91 114 68
91 115 68
91 115 68
92 116 68
92 116 68
92 117 68
92 117 68
93 118 68
93 118 68
93 119 68
93 119 68
94 120 68
94 120 68
94 121 68
94 121 68
95 122 68
95 122 68
95 123 68
95 123 68
96 124 68
96 124 68
96 125 68
96 125 68
97 126 68
97 126 68
97 127 68
97 127 68
162 192 132
162 192 132
162 193 132
162 193 132
163 194 132
163 194 132
163 195 132
163 195 132
164 196 132
164 196 132
164 197 132
164 197 132
165 198 132
165 198 132
165 199 132
165 199 132
166 200 132
166 200 132
166 201 132
166 201 132
167 202 132
167 202 132
167 203 132
167 203 132
168 204 132
168 204 132
168 205 132
168 205 132
169 206 132
169 206 132
169 207 132
169 207 132
106 144 68
106 144 68
106 145 68
106 145 68
107 146 68
107 146 68
107 147 68
107 147 68
108 148 68
108 148 68
108 149 68
108 149 68
109 150 68
109 150 68
109 151 68
109 151 68
110 152 68
110 152 68
110 153 68
110 153 68
111 154 68
111 154 68
111 155 68
111 155 68
112 156 68
112 156 68
112 157 68
112 157 68
113 158 68
113 158 68
113 159 68
113 159 68
178 224 132
178 224 132
178 225 132
178 225 132
179 226 132
179 226 132
179 227 132
179 227 132
180 228 132
180 228 132
180 229 132
180 229 132
181 230 132
181 230 132
181 231 132
181 231 132
182 232 132
182 232 132
182 233 132
182 233 132
183 234 132
183 234 132
183 235 132
183 235 132
184 236 132
184 236 132
184 237 132
184 237 132
185 238 132
185 238 132
185 239 132
185 239 132
122 176 68
122 176 68
122 177 68
122 177 68
123 178 68
123 178 68
123 179 68
123 179 68
124 180 68
124 180 68
124 181 68
124 181 68
125 182 68
125 182 68
125 183 68
125 183 68
126 184 68
126 184 68
126 185 68
126 185 68
127 186 68
127 186 68
127 187 68
127 187 68
128 188 68
128 188 68
128 189 68
128 189 68
129 190 68
129 190 68
129 191 68
129 191 68
130 128 132
130 128 132
130 129 132
131 129 132
131 130 132
131 130 132
131 131 132
132 131 132
132 132 132
132 132 132
132 133 132
133 133 132
133 134 132
133 134 132
133 135 132
134 135 132
134 136 132
134 136 132
134 137 132
135 137 132
135 138 132
135 138 132
135 139 132
136 139 132
136 140 132
136 140 132
136 141 132
137 141 132
137 142 132
137 142 132
137 143 132
138 143 132
74 80 68
74 80 68
74 81 68
75 81 68
75 82 68
75 82 68
75 83 68
76 83 68
76 84 68
76 84 68
76 85 68
77 85 68
77 86 68
77 86 68
77 87 68
78 87 68
78 88 68
78 88 68
78 89 68
79 89 68
79 90 68
79 90 68
79 91 68
80 91 68
80 92 68
80 92 68
80 93 68
81 93 68
81 94 68
81 94 68
81 95 68
82 95 68
146 160 132
146 160 132
146 161 132
147 161 132
147 162 132
147 162 132
147 163 132
148 163 132
148 164 132
148 164 132
148 165 132
149 165 132
149 166 132
149 166 132
149 167 132
150 167 132
150 168 132
150 168 132
150 169 132
151 169 132
151 170 132
151 170 132
151 171 132
152 171 132
152 172 132
152 172 132
152 173 132
153 173 132
153 174 132
153 174 132
153 175 132
154 175 132
90 112 68
90 112 68
90 113 68
91 113 68
91 114 68
91 114 68
91 115 68
92 115 68
92 116 68
92 116 68
92 117 68
93 117 68
93 118 68
93 118 68
93 119 68
94 119 68
94 120 68
94 120 68
94 121 68
95 121 68
95 122 68
95 122 68
95 123 68
96 123 68
96 124 68
96 124 68
96 125 68
97 125 68
97 126 68
97 126 68
97 127 68
98 127 68
162 192 132
162 192 132
162 193 132
163 193 132
163 194 132
163 194 132
163 195 132
164 195 132
164 196 132
164 196 132
164 197 132
165 197 132
165 198 132
165 198 132
165 199 132
166 199 132
166 200 132
166 200 132
166 201 132
167 201 132
167 202 132
167 202 132
167 203 132
168 203 132
168 204 132
168 204 132
168 205 132
169 205 132
169 206 132
169 206 132
169 207 132
170 207 132
106 144 68
106 144 68
106 145 68
107 145 68
107 146 68
107 146 68
107 147 68
108 147 68
108 148 68
108 148 68
108 149 68
109 149 68
109 150 68
109 150 68
109 151 68
110 151 68
110 152 68
110 152 68
110 153 68
111 153 68
111 154 68
111 154 68
111 155 68
112 155 68
112 156 68
112 156 68
112 157 68
113 157 68
113 158 68
113 158 68
113 159 68
114 159 68
178 224 132
178 224 132
178 225 132
179 225 132
179 226 132
179 226 132
179 227 132
180 227 132
180 228 132
180 228 132
180 229 132
181 229 132
181 230 132
181 230 132
181 231 132
182 231 132
182 232 132
182 232 132
182 233 132
183 233 132
183 234 132
183 234 132
183 235 132
184 235 132
184 236 132
184 236 132
184 237 132
185 237 132
185 238 132
185 238 132
185 239 132
186 239 132
122 176 68
122 176 68
122 177 68
123 177 68
123 178 68
123 178 68
123 179 68
124 179 68
124 180 68
124 180 68
124 181 68
125 181 68
125 182 68
125 182 68
125 183 68
126 183 68
126 184 68
126 184 68
126 185 68
127 185 68
127 186 68
127 186 68
127 187 68
128 187 68
128 188 68
128 188 68
128 189 68
129 189 68
129 190 68
129 190 68
129 191 68
130 191 68
130 128 133
130 128 133
131 129 133
131 129 133
131 130 133
131 130 133
132 131 133
132 131 133
132 132 133
132 132 133
133 133 133
133 133 133
133 134 133
133 134 133
134 135 133
134 135 133
134 136 133
134 136 133
135 137 133
135 137 133
135 138 133
135 138 133
136 139 133
136 139 133
136 140 133
136 140 133
137 141 133
137 141 133
137 142 133
137 142 133
138 143 133
138 143 133
74 80 69
74 80 69
75 81 69
75 81 69
75 82 69
75 82 69
76 83 69
76 83 69
76 84 69
76 84 69
77 85 69
77 85 69
77 86 69
77 86 69
78 87 69
78 87 69
78 88 69
78 88 69
79 89 69
79 89 69
79 90 69
79 90 69
80 91 69
80 91 69
80 92 69
80 92 69
81 93 69
81 93 69
81 94 69
81 94 69
82 95 69
82 95 69
146 160 133
146 160 133
147 161 133
147 161 133
147 162 133
147 162 133
148 163 133
148 163 133
148 164 133
148 164 133
149 165 133
149 165 133
149 166 133
149 166 133
150 167 133
150 167 133
150 168 133
150 168 133
151 169 133
151 169 133
151 170 133
151 170 133
152 171 133
152 171 133
152 172 133
152 172 133
153 173 133
153 173 133
153 174 133
153 174 133
154 175 133
154 175 133
90 112 69
90 112 69
91 113 69
91 113 69
91 114 69
91 114 69
92 115 69
92 115 69
92 116 69
92 116 69
93 117 69
93 117 69
93 118 69
93 118 69
94 119 69
94 119 69
94 120 69
94 120 69
95 121 69
95 121 69
95 122 69
95 122 69
96 123 69
96 123 69
96 124 69
96 124 69
97 125 69
97 125 69
97 126 69
97 126 69
98 127 69
98 127 69
162 192 133
162 192 133
163 193 133
163 193 133
163 194 133
163 194 133
164 195 133
164 195 133
164 196 133
164 196 133
165 197 133
165 197 133
165 198 133
165 198 133
166 199 133
166 199 133
166 200 133
166 200 133
167 201 133
167 201 133
167 202 133
167 202 133
168 203 133
168 203 133
168 204 133
168 204 133
169 205 133
169 205 133
169 206 133
169 206 133
170 207 133
170 207 133
106 144 69
106 144 69
107 145 69
107 145 69
107 146 69
107 146 69
108 147 69
108 147 69
108 148 69
108 148 69
109 149 69
109 149 69
109 150 69
109 150 69
110 151 69
110 151 69
110 152 69
110 152 69
111 153 69
111 153 69
111 154 69
111 154 69
112 155 69
112 155 69
112 156 69
112 156 69
113 157 69
113 157 69
113 158 69
113 158 69
114 159 69
114 159 69
178 224 133
178 224 133
179 225 133
179 225 133
179 226 133
179 226 133
180 227 133
180 227 133
180 228 133
180 228 133
181 229 133
181 229 133
181 230 133
181 230 133
182 231 133
182 231 133
182 232 133
182 232 133
183 233 133
183 233 133
183 234 133
183 234 133
184 235 133
184 235 133
184 236 133
184 236 133
185 237 133
185 237 133
185 238 133
185 238 133
186 239 133
186 239 133
122 176 69
122 176 69
123 177 69
123 177 69
123 178 69
123 178 69
124 179 69
124 179 69
124 180 69
124 180 69
125 181 69
125 181 69
125 182 69
125 182 69
126 183 69
126 183 69
126 184 69
126 184 69
127 185 69
127 185 69
127 186 69
127 186 69
128 187 69
128 187 69
128 188 69
128 188 69
129 189 69
129 189 69
129 190 69
129 190 69
130 191 69
130 191 69
130 128 133
131 128 133
131 129 133
131 129 133
131 130 133
132 130 133
132 131 133
132 131 133
132 132 133
133 132 133
133 133 133
133 133 133
133 134 133
134 134 133
134 135 133
134 135 133
134 136 133
135 136 133
135 137 133
135 137 133
135 138 133
136 138 133
136 139 133
136 139 133
136 140 133
137 140 133
137 141 133
137 141 133
137 142 133
138 142 133
138 143 133
138 143 133
74 80 69
75 80 69
75 81 69
75 81 69
75 82 69
76 82 69
76 83 69
76 83 69
76 84 69
77 84 69
77 85 69
77 85 69
77 86 69
78 86 69
78 87 69
78 87 69
78 88 69
79 88 69
79 89 69
79 89 69
79 90 69
80 90 69
80 91 69
80 91 69
80 92 69
81 92 69
81 93 69
81 93 69
81 94 69
82 94 69
82 95 69
82 95 69
146 160 133
147 160 133
147 161 133
147 161 133
147 162 133
148 162 133
148 163 133
148 163 133
148 164 133
149 164 133
149 165 133
149 165 133
149 166 133
150 166 133
150 167 133
150 167 133
150 168 133
151 168 133
151 169 133
151 169 133
151 170 133
152 170 133
152 171 133
152 171 133
152 172 133
153 172 133
153 173 133
153 173 133
153 174 133
154 174 133
154 175 133
154 175 133
90 112 69
91 112 69
91 113 69
91 113 69
91 114 69
92 114 69
92 115 69
92 115 69
92 116 69
93 116 69
93 117 69
93 117 69
93 118 69
94 118 69
94 119 69
94 119 69
94 120 69
95 120 69
95 121 69
95 121 69
95 122 69
96 122 69
96 123 69
96 123 69
96 124 69
97 124 69
97 125 69
97 125 69
97 126 69
98 126 69
98 127 69
98 127 69
162 192 133
163 192 133
163 193 133
163 193 133
163 194 133
164 194 133
164 195 133
164 195 133
164 196 133
165 196 133
165 197 133
165 197 133
165 198 133
166 198 133
166 199 133
166 199 133
166 200 133
167 200 133
167 201 133
167 201 133
167 202 133
168 202 133
168 203 133
168 203 133
168 204 133
169 204 133
169 205 133
169 205 133
169 206 133
170 206 133
170 207 133
170 207 133
106 144 69
107 144 69
107 145 69
107 145 69
107 146 69
108 146 69
108 147 69
108 147 69
108 148 69
109 148 69
109 149 69
109 149 69
109 150 69
110 150 69
110 151 69
110 151 69
110 152 69
111 152 69
111 153 69
111 153 69
111 154 69
112 154 69
112 155 69
112 155 69
112 156 69
113 156 69
113 157 69
113 157 69
113 158 69
114 158 69
114 159 69
114 159 69
178 224 133
179 224 133
179 225 133
179 225 133
179 226 133
180 226 133
180 227 133
180 227 133
180 228 133
181 228 133
181 229 133
181 229 133
181 230 133
182 230 133
182 231 133
182 231 133
182 232 133
183 232 133
183 233 133
183 233 133
183 234 133
184 234 133
184 235 133
184 235 133
184 236 133
185 236 133
185 237 133
185 237 133
185 238 133
186 238 133
186 239 133
186 239 133
122 176 69
123 176 69
123 177 69
123 177 69
123 178 69
124 178 69
124 179 69
124 179 69
124 180 69
125 180 69
125 181 69
125 181 69
125 182 69
126 182 69
126 183 69
126 183 69
126 184 69
127 184 69
127 185 69
127 185 69
127 186 69
128 186 69
128 187 69
128 187 69
128 188 69
129 188 69
129 189 69
129 189 69
129 190 69
130 190 69
130 191 69
130 191 69
131 128 134
131 128 134
131 129 134
131 129 134
132 130 134
132 130 134
132 131 134
132 131 134
133 132 134
133 132 134
133 133 134
133 133 134
134 134 134
134 134 134
134 135 134
134 135 134
135 136 134
135 136 134
135 137 134
135 137 134
136 138 134
136 138 134
136 139 134
136 139 134
137 140 134
137 140 134
137 141 134
137 141 134
138 142 134
138 142 134
138 143 134
138 143 134
75 80 70
75 80 70
75 81 70
75 81 70
76 82 70
76 82 70
76 83 70
76 83 70
77 84 70
77 84 70
77 85 70
77 85 70
78 86 70
78 86 70
78 87 70
78 87 70
79 88 70
79 88 70
79 89 70
79 89 70
80 90 70
80 90 70
80 91 70
80 91 70
81 92 70
81 92 70
81 93 70
81 93 70
82 94 70
82 94 70
82 95 70
82 95 70
147 160 134
147 160 134
147 161 134
147 161 134
148 162 134
148 162 134
148 163 134
148 163 134
149 164 134
149 164 134
149 165 134
149 165 134
150 166 134
150 166 134
150 167 134
150 167 134
151 168 134
151 168 134
151 169 134
151 169 134
152 170 134
152 170 134
152 171 134
152 171 134
153 172 134
153 172 134
153 173 134
153 173 134
154 174 134
154 174 134
154 175 134
154 175 134
91 112 70
91 112 70
91 113 70
91 113 70
92 114 70
92 114 70
92 115 70
92 115 70
93 116 70
93 116 70
93 117 70
93 117 70
94 118 70
94 118 70
94 119 70
94 119 70
95 120 70
95 120 70
95 121 70
95 121 70
96 122 70
96 122 70
96 123 70
96 123 70
97 124 70
97 124 70
97 125 70
97 125 70
98 126 70
98 126 70
98 127 70
98 127 70
163 192 134
163 192 134
163 193 134
163 193 134
164 194 134
164 194 134
164 195 134
164 195 134
165 196 134
165 196 134
165 197 134
165 197 134
166 198 134
166 198 134
166 199 134
166 199 134
167 200 134
167 200 134
167 201 134
167 201 134
168 202 134
168 202 134
168 203 134
168 203 134
169 204 134
169 204 134
169 205 134
169 205 134
170 206 134
170 206 134
170 207 134
170 207 134
107 144 70
107 144 70
107 145 70
107 145 70
108 146 70
108 146 70
108 147 70
108 147 70
109 148 70
109 148 70
109 149 70
109 149 70
110 150 70
110 150 70
110 151 70
110 151 70
111 152 70
111 152 70
111 153 70
111 153 70
112 154 70
112 154 70
112 155 70
112 155 70
113 156 70
113 156 70
113 157 70
113 157 70
114 158 70
114 158 70
114 159 70
114 159 70
179 224 134
179 224 134
179 225 134
179 225 134
180 226 134
180 226 134
180 227 134
180 227 134
181 228 134
181 228 134
181 229 134
181 229 134
182 230 134
182 230 134
182 231 134
182 231 134
183 232 134
183 232 134
183 233 134
183 233 134
184 234 134
184 234 134
184 235 134
184 235 134
185 236 134
185 236 134
185 237 134
185 237 134
186 238 134
186 238 134
186 239 134
186 239 134
123 176 70
123 176 70
123 177 70
123 177 70
124 178 70
124 178 70
124 179 70
124 179 70
125 180 70
125 180 70
125 181 70
125 181 70
126 182 70
126 182 70
126 183 70
126 183 70
127 184 70
127 184 70
127 185 70
127 185 70
128 186 70
128 186 70
128 187 70
128 187 70
129 188 70
129 188 70
129 189 70
129 189 70
130 190 70
130 190 70
130 191 70
130 191 70
131 128 134
131 128 134
131 129 134
132 129 134
132 130 134
132 130 134
132 131 134
133 131 134
133 132 134
133 132 134
133 133 134
134 133 134
134 134 134
134 134 134
134 135 134
135 135 134
135 136 134
135 136 134
135 137 134
136 137 134
136 138 134
136 138 134
136 139 134
137 139 134
137 140 134
137 140 134
137 141 134
138 141 134
138 142 134
138 142 134
138 143 134
139 143 134
75 80 70
75 80 70
75 81 70
76 81 70
76 82 70
76 82 70
76 83 70
77 83 70
77 84 70
77 84 70
77 85 70
78 85 70
78 86 70
78 86 70
78 87 70
79 87 70
79 88 70
79 88 70
79 89 70
80 89 70
80 90 70
80 90 70
80 91 70
81 91 70
81 92 70
81 92 70
81 93 70
82 93 70
82 94 70
82 94 70
82 95 70
83 95 70
147 160 134
147 160 134
147 161 134
148 161 134
148 162 134
148 162 134
148 163 134
149 163 134
149 164 134
149 164 134
149 165 134
150 165 134
150 166 134
150 166 134
150 167 134
151 167 134
151 168 134
151 168 134
151 169 134
152 169 134
152 170 134
152 170 134
152 171 134
153 171 134
153 172 134
153 172 134
153 173 134
154 173 134
154 174 134
154 174 134
154 175 134
155 175 134
91 112 70
91 112 70
91 113 70
92 113 70
92 114 70
92 114 70
92 115 70
93 115 70
93 116 70
93 116 70
93 117 70
94 117 70
94 118 70
94 118 70
94 119 70
95 119 70
95 120 70
95 120 70
95 121 70
96 121 70
96 122 70
96 122 70
96 123 70
97 123 70
97 124 70
97 124 70
97 125 70
98 125 70
98 126 70
98 126 70
98 127 70
99 127 70
163 192 134
163 192 134
163 193 134
164 193 134
164 194 134
164 194 134
164 195 134
165 195 134
165 196 134
165 196 134
165 197 134
166 197 134
166 198 134
166 198 134
166 199 134
167 199 134
167 200 134
167 200 134
167 201 134
168 201 134
168 202 134
168 202 134
168 203 134
169 203 134
169 204 134
169 204 134
169 205 134
170 205 134
170 206 134
170 206 134
170 207 134
171 207 134
107 144 70
107 144 70
107 145 70
108 145 70
108 146 70
108 146 70
108 147 70
109 147 70
109 148 70
109 148 70
109 149 70
110 149 70
110 150 70
110 150 70
110 151 70
111 151 70
111 152 70
111 152 70
111 153 70
112 153 70
112 154 70
112 154 70
112 155 70
113 155 70
113 156 70
113 156 70
113 157 70
114 157 70
114 158 70
114 158 70
114 159 70
115 159 70
179 224 134
179 224 134
179 225 134
180 225 134
180 226 134
180 226 134
180 227 134
181 227 134
181 228 134
181 228 134
181 229 134
182 229 134
182 230 134
182 230 134
182 231 134
183 231 134
183 232 134
183 232 134
183 233 134
184 233 134
184 234 134
184 234 134
184 235 134
185 235 134
185 236 134
185 236 134
185 237 134
186 237 134
186 238 134
186 238 134
186 239 134
187 239 134
123 176 70
123 176 70
123 177 70
124 177 70
124 178 70
124 178 70
124 179 70
125 179 70
125 180 70
125 180 70
125 181 70
126 181 70
126 182 70
126 182 70
126 183 70
127 183 70
127 184 70
127 184 70
127 185 70
128 185 70
128 186 70
128 186 70
128 187 70
129 187 70
129 188 70
129 188 70
129 189 70
130 189 70
130 190 70
130 190 70
130 191 70
131 191 70
131 128 135
131 128 135
132 129 135
132 129 135
132 130 135
132 130 135
133 131 135
133 131 135
133 132 135
133 132 135
134 133 135
134 133 135
134 134 135
134 134 135
135 135 135
135 135 135
135 136 135
135 136 135
136 137 135
136 137 135
136 138 135
136 138 135
137 139 135
137 139 135
137 140 135
137 140 135
138 141 135
138 141 135
138 142 135
138 142 135
139 143 135
139 143 135
75 80 71
75 80 71
76 81 71
76 81 71
76 82 71
76 82 71
77 83 71
77 83 71
77 84 71
77 84 71
78 85 71
78 85 71
78 86 71
78 86 71
79 87 71
79 87 71
79 88 71
79 88 71
80 89 71
80 89 71
80 90 71
80 90 71
81 91 71
81 91 71
81 92 71
81 92 71
82 93 71
82 93 71
82 94 71
82 94 71
83 95 71
83 95 71
147 160 135
147 160 135
148 161 135
148 161 135
148 162 135
148 162 135
149 163 135
149 163 135
149 164 135
149 164 135
150 165 135
150 165 135
150 166 135
150 166 135
151 167 135
151 167 135
151 168 135
151 168 135
152 169 135
152 169 135
152 170 135
152 170 135
153 171 135
153 171 135
153 172 135
153 172 135
154 173 135
154 173 135
154 174 135
154 174 135
155 175 135
155 175 135
91 112 71
91 112 71
92 113 71
92 113 71
92 114 71
92 114 71
93 115 71
93 115 71
93 116 71
93 116 71
94 117 71
94 117 71
94 118 71
94 118 71
95 119 71
95 119 71
95 120 71
95 120 71
96 121 71
96 121 71
96 122 71
96 122 71
97 123 71
97 123 71
97 124 71
97 124 71
98 125 71
98 125 71
98 126 71
98 126 71
99 127 71
99 127 71
163 192 135
163 192 135
164 193 135
164 193 135
164 194 135
164 194 135
165 195 135
165 195 135
165 196 135
165 196 135
166 197 135
166 197 135
166 198 135
166 198 135
167 199 135
167 199 135
167 200 135
167 200 135
168 201 135
168 201 135
168 202 135
168 202 135
169 203 135
169 203 135
169 204 135
169 204 135
170 205 135
170 205 135
170 206 135
170 206 135
171 207 135
171 207 135
107 144 71
107 144 71
108 145 71
108 145 71
108 146 71
108 146 71
109 147 71
109 147 71
109 148 71
109 148 71
110 149 71
110 149 71
110 150 71
110 150 71
111 151 71
111 151 71
111 152 71
111 152 71
112 153 71
112 153 71
112 154 71
112 154 71
113 155 71
113 155 71
113 156 71
113 156 71
114 157 71
114 157 71
114 158 71
114 158 71
115 159 71
115 159 71
179 224 135
179 224 135
180 225 135
180 225 135
180 226 135
180 226 135
181 227 135
181 227 135
181 228 135
181 228 135
182 229 135
182 229 135
182 230 135
182 230 135
183 231 135
183 231 135
183 232 135
183 232 135
184 233 135
184 233 135
184 234 135
184 234 135
185 235 135
185 235 135
185 236 135
185 236 135
186 237 135
186 237 135
186 238 135
186 238 135
187 239 135
187 239 135
123 176 71
123 176 71
124 177 71
124 177 71
124 178 71
124 178 71
125 179 71
125 179 71
125 180 71
125 180 71
126 181 71
126 181 71
126 182 71
126 182 71
127 183 71
127 183 71
127 184 71
127 184 71
128 185 71
128 185 71
128 186 71
128 186 71
129 187 71
129 187 71
129 188 71
129 188 71
130 189 71
130 189 71
130 190 71
130 190 71
131 191 71
131 191 71
131 128 135
132 128 135
132 129 135
132 129 135
132 130 135
133 130 135
133 131 135
133 131 135
133 132 135
134 132 135
134 133 135
134 133 135
134 134 135
135 134 135
135 135 135
135 135 135
135 136 135
136 136 135
136 137 135
136 137 135
136 138 135
137 138 135
137 139 135
137 139 135
137 140 135
138 140 135
138 141 135
138 141 135
138 142 135
139 142 135
139 143 135
139 143 135
75 80 71
76 80 71
76 81 71
76 81 71
76 82 71
77 82 71
77 83 71
77 83 71
77 84 71
78 84 71
78 85 71
78 85 71
78 86 71
79 86 71
79 87 71
79 87 71
79 88 71
80 88 71
80 89 71
80 89 71
80 90 71
81 90 71
81 91 71
81 91 71
81 92 71
82 92 71
82 93 71
82 93 71
82 94 71
83 94 71
83 95 71
83 95 71
147 160 135
148 160 135
148 161 135
148 161 135
148 162 135
149 162 135
149 163 135
149 163 135
149 164 135
150 164 135
150 165 135
150 165 135
150 166 135
151 166 135
151 167 135
151 167 135
151 168 135
152 168 135
152 169 135
152 169 135
152 170 135
153 170 135
153 171 135
153 171 135
153 172 135
154 172 135
154 173 135
154 173 135
154 174 135
155 174 135
155 175 135
155 175 135
91 112 71
92 112 71
92 113 71
92 113 71
92 114 71
93 114 71
93 115 71
93 115 71
93 116 71
94 116 71
94 117 71
94 117 71
94 118 71
95 118 71
95 119 71
95 119 71
95 120 71
96 120 71
96 121 71
96 121 71
96 122 71
97 122 71
97 123 71
97 123 71
97 124 71
98 124 71
98 125 71
98 125 71
98 126 71
99 126 71
99 127 71
99 127 71
163 192 135
164 192 135
164 193 135
164 193 135
164 194 135
165 194 135
165 195 135
165 195 135
165 196 135
166 196 135
166 197 135
166 197 135
166 198 135
167 198 135
167 199 135
167 199 135
167 200 135
168 200 135
168 201 135
168 201 135
168 202 135
169 202 135
169 203 135
169 203 135
169 204 135
170 204 135
170 205 135
170 205 135
170 206 135
171 206 135
171 207 135
171 207 135
107 144 71
108 144 71
108 145 71
108 145 71
108 146 71
109 146 71
109 147 71
109 147 71
109 148 71
110 148 71
110 149 71
110 149 71
110 150 71
111 150 71
111 151 71
111 151 71
111 152 71
112 152 71
112 153 71
112 153 71
112 154 71
113 154 71
113 155 71
113 155 71
113 156 71
114 156 71
114 157 71
114 157 71
114 158 71
115 158 71
115 159 71
115 159 71
179 224 135
180 224 135
180 225 135
180 225 135
180 226 135
181 226 135
181 227 135
181 227 135
181 228 135
182 228 135
182 229 135
182 229 135
182 230 135
183 230 135
183 231 135
183 231 135
183 232 135
184 232 135
184 233 135
184 233 135
184 234 135
185 234 135
185 235 135
185 235 135
185 236 135
186 236 135
186 237 135
186 237 135
186 238 135
187 238 135
187 239 135
187 239 135
123 176 71
124 176 71
124 177 71
124 177 71
124 178 71
125 178 71
125 179 71
125 179 71
125 180 71
126 180 71
126 181 71
126 181 71
126 182 71
127 182 71
127 183 71
127 183 71
127 184 71
128 184 71
128 185 71
128 185 71
128 186 71
129 186 71
129 187 71
129 187 71
129 188 71
130 188 71
130 189 71
130 189 71
130 190 71
131 190 71
131 191 71
131 191 71
132 128 136
132 128 136
132 129 136
132 129 136
133 130 136
133 130 136
133 131 136
133 131 136
134 132 136
134 132 136
134 133 136
134 133 136
135 134 136
135 134 136
135 135 136
135 135 136
136 136 136
136 136 136
136 137 136
136 137 136
137 138 136
137 138 136
137 139 136
137 139 136
138 140 136
138 140 136
138 141 136
138 141 136
139 142 136
139 142 136
139 143 136
139 143 136
76 80 72
76 80 72
76 81 72
76 81 72
77 82 72
77 82 72
77 83 72
77 83 72
78 84 72
78 84 72
78 85 72
78 85 72
79 86 72
79 86 72
79 87 72
79 87 72
80 88 72
80 88 72
80 89 72
80 89 72
81 90 72
81 90 72
81 91 72
81 91 72
82 92 72
82 92 72
82 93 72
82 93 72
83 94 72
83 94 72
83 95 72
83 95 72
148 160 136
148 160 136
148 161 136
148 161 136
149 162 136
149 162 136
149 163 136
149 163 136
150 164 136
150 164 136
150 165 136
150 165 136
151 166 136
151 166 136
151 167 136
151 167 136
152 168 136
152 168 136
152 169 136
152 169 136
153 170 136
153 170 136
153 171 136
153 171 136
154 172 136
154 172 136
154 173 136
154 173 136
155 174 136
155 174 136
155 175 136
155 175 136
92 112 72
92 112 72
92 113 72
92 113 72
93 114 72
93 114 72
93 115 72
93 115 72
94 116 72
94 116 72
94 117 72
94 117 72
95 118 72
95 118 72
95 119 72
95 119 72
96 120 72
96 120 72
96 121 72
96 121 72
97 122 72
97 122 72
97 123 72
97 123 72
98 124 72
98 124 72
98 125 72
98 125 72
99 126 72
99 126 72
99 127 72
99 127 72
164 192 136
164 192 136
164 193 136
164 193 136
165 194 136
165 194 136
165 195 136
165 195 136
166 196 136
166 196 136
166 197 136
166 197 136
167 198 136
167 198 136
167 199 136
167 199 136
168 200 136
168 200 136
168 201 136
168 201 136
169 202 136
169 202 136
169 203 136
169 203 136
170 204 136
170 204 136
170 205 136
170 205 136
171 206 136
171 206 136
171 207 136
171 207 136
108 144 72
108 144 72
108 145 72
108 145 72
109 146 72
109 146 72
109 147 72
109 147 72
110 148 72
110 148 72
110 149 72
110 149 72
111 150 72
111 150 72
111 151 72
111 151 72
112 152 72
112 152 72
112 153 72
112 153 72
113 154 72
113 154 72
113 155 72
113 155 72
114 156 72
114 156 72
114 157 72
114 157 72
115 158 72
115 158 72
115 159 72
115 159 72
180 224 136
180 224 136
180 225 136
180 225 136
181 226 136
181 226 136
181 227 136
181 227 136
182 228 136
182 228 136
182 229 136
182 229 136
183 230 136
183 230 136
183 231 136
183 231 136
184 232 136
184 232 136
184 233 136
184 233 136
185 234 136
185 234 136
185 235 136
185 235 136
186 236 136
186 236 136
186 237 136
186 237 136
187 238 136
187 238 136
187 239 136
187 239 136
124 176 72
124 176 72
124 177 72
124 177 72
125 178 72
125 178 72
125 179 72
125 179 72
126 180 72
126 180 72
126 181 72
126 181 72
127 182 72
127 182 72
127 183 72
127 183 72
128 184 72
128 184 72
128 185 72
128 185 72
129 186 72
129 186 72
129 187 72
129 187 72
130 188 72
130 188 72
130 189 72
130 189 72
131 190 72
131 190 72
131 191 72
131 191 72
132 128 136
132 128 136
132 129 136
133 129 136
133 130 136
133 130 136
133 131 136
134 131 136
134 132 136
134 132 136
134 133 136
135 133 136
135 134 136
135 134 136
135 135 136
136 135 136
136 136 136
136 136 136
136 137 136
137 137 136
137 138 136
137 138 136
137 139 136
138 139 136
138 140 136
138 140 136
138 141 136
139 141 136
139 142 136
139 142 136
139 143 136
140 143 136
76 80 72
76 80 72
76 81 72
77 81 72
77 82 72
77 82 72
77 83 72
78 83 72
78 84 72
78 84 72
78 85 72
79 85 72
79 86 72
79 86 72
79 87 72
80 87 72
80 88 72
80 88 72
80 89 72
81 89 72
81 90 72
81 90 72
81 91 72
82 91 72
82 92 72
82 92 72
82 93 72
83 93 72
83 94 72
83 94 72
83 95 72
84 95 72
148 160 136
148 160 136
148 161 136
149 161 136
149 162 136
149 162 136
149 163 136
150 163 136
150 164 136
150 164 136
150 165 136
151 165 136
151 166 136
151 166 136
151 167 136
152 167 136
152 168 136
152 168 136
152 169 136
153 169 136
153 170 136
153 170 136
153 171 136
154 171 136
154 172 136
154 172 136
154 173 136
155 173 136
155 174 136
155 174 136
155 175 136
156 175 136
92 112 72
92 112 72
92 113 72
93 113 72
93 114 72
93 114 72
93 115 72
94 115 72
94 116 72
94 116 72
94 117 72
95 117 72
95 118 72
95 118 72
95 119 72
96 119 72
96 120 72
96 120 72
96 121 72
97 121 72
97 122 72
97 122 72
97 123 72
98 123 72
98 124 72
98 124 72
98 125 72
99 125 72
99 126 72
99 126 72
99 127 72
100 127 72
164 192 136
164 192 136
164 193 136
165 193 136
165 194 136
165 194 136
165 195 136
166 195 136
166 196 136
166 196 136
166 197 136
167 197 136
167 198 136
167 198 136
167 199 136
168 199 136
168 200 136
168 200 136
168 201 136
169 201 136
169 202 136
169 202 136
169 203 136
170 203 136
170 204 136
170 204 136
170 205 136
171 205 136
171 206 136
171 206 136
171 207 136
172 207 136
108 144 72
108 144 72
108 145 72
109 145 72
109 146 72
109 146 72
109 147 72
110 147 72
110 148 72
110 148 72
110 149 72
111 149 72
111 150 72
111 150 72
111 151 72
112 151 72
112 152 72
112 152 72
112 153 72
113 153 72
113 154 72
113 154 72
113 155 72
114 155 72
114 156 72
114 156 72
114 157 72
115 157 72
115 158 72
115 158 72
115 159 72
116 159 72
180 224 136
180 224 136
180 225 136
181 225 136
181 226 136
181 226 136
181 227 136
182 227 136
182 228 136
182 228 136
182 229 136
183 229 136
183 230 136
183 230 136
183 231 136
184 231 136
184 232 136
184 232 136
184 233 136
185 233 136
185 234 136
185 234 136
185 235 136
186 235 136
186 236 136
186 236 136
186 237 136
187 237 136
187 238 136
187 238 136
187 239 136
188 239 136
124 176 72
124 176 72
124 177 72
125 177 72
125 178 72
125 178 72
125 179 72
126 179 72
126 180 72
126 180 72
126 181 72
127 181 72
127 182 72
127 182 72
127 183 72
128 183 72
128 184 72
128 184 72
128 185 72
129 185 72
129 186 72
129 186 72
129 187 72
130 187 72
130 188 72
130 188 72
130 189 72
131 189 72
131 190 72
131 190 72
131 191 72
132 191 72
132 128 137
132 128 137
133 129 137
133 129 137
133 130 137
133 130 137
134 131 137
134 131 137
134 132 137
134 132 137
135 133 137
135 133 137
135 134 137
135 134 137
136 135 137
136 135 137
136 136 137
136 136 137
137 137 137
137 137 137
137 138 137
137 138 137
138 139 137
138 139 137
138 140 137
138 140 137
139 141 137
139 141 137
139 142 137
139 142 137
140 143 137
140 143 137
76 80 73
76 80 73
77 81 73
77 81 73
77 82 73
77 82 73
78 83 73
78 83 73
78 84 73
78 84 73
79 85 73
79 85 73
79 86 73
79 86 73
80 87 73
80 87 73
80 88 73
80 88 73
81 89 73
81 89 73
81 90 73
81 90 73
82 91 73
82 91 73
82 92 73
82 92 73
83 93 73
83 93 73
83 94 73
83 94 73
84 95 73
84 95 73
148 160 137
148 160 137
149 161 137
149 161 137
149 162 137
149 162 137
150 163 137
150 163 137
150 164 137
150 164 137
151 165 137
151 165 137
151 166 137
151 166 137
152 167 137
152 167 137
152 168 137
152 168 137
153 169 137
153 169 137
153 170 137
153 170 137
154 171 137
154 171 137
154 172 137
154 172 137
155 173 137
155 173 137
155 174 137
155 174 137
156 175 137
156 175 137
92 112 73
92 112 73
93 113 73
93 113 73
93 114 73
93 114 73
94 115 73
94 115 73
94 116 73
94 116 73
95 117 73
95 117 73
95 118 73
95 118 73
96 119 73
96 119 73
96 120 73
96 120 73
97 121 73
97 121 73
97 122 73
97 122 73
98 123 73
98 123 73
98 124 73
98 124 73
99 125 73
99 125 73
99 126 73
99 126 73
100 127 73
100 127 73
164 192 137
164 192 137
165 193 137
165 193 137
165 194 137
165 194 137
166 195 137
166 195 137
166 196 137
166 196 137
167 197 137
167 197 137
167 198 137
167 198 137
168 199 137
168 199 137
168 200 137
168 200 137
169 201 137
169 201 137
169 202 137
169 202 137
170 203 137
170 203 137
170 204 137
170 204 137
171 205 137
171 205 137
171 206 137
171 206 137
172 207 137
172 207 137
108 144 73
108 144 73
109 145 73
109 145 73
109 146 73
109 146 73
110 147 73
110 147 73
110 148 73
110 148 73
111 149 73
111 149 73
111 150 73
111 150 73
112 151 73
112 151 73
112 152 73
112 152 73
113 153 73
113 153 73
113 154 73
113 154 73
114 155 73
114 155 73
114 156 73
114 156 73
115 157 73
115 157 73
115 158 73
115 158 73
116 159 73
116 159 73
180 224 137
180 224 137
181 225 137
181 225 137
181 226 137
181 226 137
182 227 137
182 227 137
182 228 137
182 228 137
183 229 137
183 229 137
183 230 137
183 230 137
184 231 137
184 231 137
184 232 137
184 232 137
185 233 137
185 233 137
185 234 137
185 234 137
186 235 137
186 235 137
186 236 137
186 236 137
187 237 137
187 237 137
187 238 137
187 238 137
188 239 137
188 239 137
124 176 73
124 176 73
125 177 73
125 177 73
125 178 73
125 178 73
126 179 73
126 179 73
126 180 73
126 180 73
127 181 73
127 181 73
127 182 73
127 182 73
128 183 73
128 183 73
128 184 73
128 184 73
129 185 73
129 185 73
129 186 73
129 186 73
130 187 73
130 187 73
130 188 73
130 188 73
131 189 73
131 189 73
131 190 73
131 190 73
132 191 73
132 191 73
132 128 137
133 128 137
133 129 137
133 129 137
133 130 137
134 130 137
134 131 137
134 131 137
134 132 137
135 132 137
135 133 137
135 133 137
135 134 137
136 134 137
136 135 137
136 135 137
136 136 137
137 136 137
137 137 137
137 137 137
137 138 137
138 138 137
138 139 137
138 139 137
138 140 137
139 140 137
139 141 137
139 141 137
139 142 137
140 142 137
140 143 137
140 143 137
76 80 73
77 80 73
77 81 73
77 81 73
77 82 73
78 82 73
78 83 73
78 83 73
78 84 73
79 84 73
79 85 73
79 85 73
79 86 73
80 86 73
80 87 73
80 87 73
80 88 73
81 88 73
81 89 73
81 89 73
81 90 73
82 90 73
82 91 73
82 91 73
82 92 73
83 92 73
83 93 73
83 93 73
83 94 73
84 94 73
84 95 73
84 95 73
148 160 137
149 160 137
149 161 137
149 161 137
149 162 137
150 162 137
150 163 137
150 163 137
150 164 137
151 164 137
151 165 137
151 165 137
151 166 137
152 166 137
152 167 137
152 167 137
152 168 137
153 168 137
153 169 137
153 169 137
153 170 137
154 170 137
154 171 137
154 171 137
154 172 137
155 172 137
155 173 137
155 173 137
155 174 137
156 174 137
156 175 137
156 175 137
92 112 73
93 112 73
93 113 73
93 113 73
93 114 73
94 114 73
94 115 73
94 115 73
94 116 73
95 116 73
95 117 73
95 117 73
95 118 73
96 118 73
96 119 73
96 119 73
96 120 73
97 120 73
97 121 73
97 121 73
97 122 73
98 122 73
98 123 73
98 123 73
98 124 73
99 124 73
99 125 73
99 125 73
99 126 73
100 126 73
100 127 73
100 127 73
164 192 137
165 192 137
165 193 137
165 193 137
165 194 137
166 194 137
166 195 137
166 195 137
166 196 137
167 196 137
167 197 137
167 197 137
167 198 137
168 198 137
168 199 137
168 199 137
168 200 137
169 200 137
169 201 137
169 201 137
169 202 137
170 202 137
170 203 137
170 203 137
170 204 137
171 204 137
171 205 137
171 205 137
171 206 137
172 206 137
172 207 137
172 207 137
108 144 73
109 144 73
109 145 73
109 145 73
109 146 73
110 146 73
110 147 73
110 147 73
110 148 73
111 148 73
111 149 73
111 149 73
111 150 73
112 150 73
112 151 73
112 151 73
112 152 73
113 152 73
113 153 73
113 153 73
113 154 73
114 154 73
114 155 73
114 155 73
114 156 73
115 156 73
115 157 73
115 157 73
115 158 73
116 158 73
116 159 73
116 159 73
180 224 137
181 224 137
181 225 137
181 225 137
181 226 137
182 226 137
182 227 137
182 227 137
182 228 137
183 228 137
183 229 137
183 229 137
183 230 137
184 230 137
184 231 137
184 231 137
184 232 137
185 232 137
185 233 137
185 233 137
185 234 137
186 234 137
186 235 137
186 235 137
186 236 137
187 236 137
187 237 137
187 237 137
187 238 137
188 238 137
188 239 137
188 239 137
124 176 73
125 176 73
125 177 73
125 177 73
125 178 73
126 178 73
126 179 73
126 179 73
126 180 73
127 180 73
127 181 73
127 181 73
127 182 73
128 182 73
128 183 73
128 183 73
128 184 73
129 184 73
129 185 73
129 185 73
129 186 73
130 186 73
130 187 73
130 187 73
130 188 73
131 188 73
131 189 73
131 189 73
131 190 73
132 190 73
132 191 73
132 191 73
133 128 138
133 128 138
133 129 138
133 129 138
134 130 138
134 130 138
134 131 138
134 131 138
135 132 138
135 132 138
135 133 138
135 133 138
136 134 138
136 134 138
136 135 138
136 135 138
137 136 138
137 136 138
137 137 138
137 137 138
138 138 138
138 138 138
138 139 138
138 139 138
139 140 138
139 140 138
139 141 138
139 141 138
140 142 138
140 142 138
140 143 138
140 143 138
77 80 74
77 80 74
77 81 74
77 81 74
78 82 74
78 82 74
78 83 74
78 83 74
79 84 74
79 84 74
79 85 74
79 85 74
80 86 74
80 86 74
80 87 74
80 87 74
81 88 74
81 88 74
81 89 74
81 89 74
82 90 74
82 90 74
82 91 74
82 91 74
83 92 74
83 92 74
83 93 74
83 93 74
84 94 74
84 94 74
84 95 74
84 95 74
149 160 138
149 160 138
149 161 138
149 161 138
150 162 138
150 162 138
150 163 138
150 163 138
151 164 138
151 164 138
151 165 138
151 165 138
152 166 138
152 166 138
152 167 138
152 167 138
153 168 138
153 168 138
153 169 138
153 169 138
154 170 138
154 170 138
154 171 138
154 171 138
155 172 138
155 172 138
155 173 138
155 173 138
156 174 138
156 174 138
156 175 138
156 175 138
93 112 74
93 112 74
93 113 74
93 113 74
94 114 74
94 114 74
94 115 74
94 115 74
95 116 74
95 116 74
95 117 74
95 117 74
96 118 74
96 118 74
96 119 74
96 119 74
97 120 74
97 120 74
97 121 74
97 121 74
98 122 74
98 122 74
98 123 74
98 123 74
99 124 74
99 124 74
99 125 74
99 125 74
100 126 74
100 126 74
100 127 74
100 127 74
165 192 138
165 192 138
165 193 138
165 193 138
166 194 138
166 194 138
166 195 138
166 195 138
167 196 138
167 196 138
167 197 138
167 197 138
168 198 138
168 198 138
168 199 138
168 199 138
169 200 138
169 200 138
169 201 138
169 201 138
170 202 138
170 202 138
170 203 138
170 203 138
171 204 138
171 204 138
171 205 138
171 205 138
172 206 138
172 206 138
172 207 138
172 207 138
109 144 74
109 144 74
109 145 74
109 145 74
110 146 74
110 146 74
110 147 74
110 147 74
111 148 74
111 148 74
111 149 74
111 149 74
112 150 74
112 150 74
112 151 74
112 151 74
113 152 74
113 152 74
113 153 74
113 153 74
114 154 74
114 154 74
114 155 74
114 155 74
115 156 74
115 156 74
115 157 74
115 157 74
116 158 74
116 158 74
116 159 74
116 159 74
181 224 138
181 224 138
181 225 138
181 225 138
182 226 138
182 226 138
182 227 138
182 227 138
183 228 138
183 228 138
183 229 138
183 229 138
184 230 138
184 230 138
184 231 138
184 231 138
185 232 138
185 232 138
185 233 138
185 233 138
186 234 138
186 234 138
186 235 138
186 235 138
187 236 138
187 236 138
187 237 138
187 237 138
188 238 138
188 238 138
188 239 138
188 239 138
125 176 74
125 176 74
125 177 74
125 177 74
126 178 74
126 178 74
126 179 74
126 179 74
127 180 74
127 180 74
127 181 74
127 181 74
128 182 74
128 182 74
128 183 74
128 183 74
129 184 74
129 184 74
129 185 74
129 185 74
130 186 74
130 186 74
130 187 74
130 187 74
131 188 74
131 188 74
131 189 74
131 189 74
132 190 74
132 190 74
132 191 74
132 191 74
133 128 138
133 128 138
133 129 138
134 129 138
134 130 138
134 130 138
134 131 138
135 131 138
135 132 138
135 132 138
135 133 138
136 133 138
136 134 138
136 134 138
136 135 138
137 135 138
137 136 138
137 136 138
137 137 138
138 137 138
138 138 138
138 138 138
138 139 138
139 139 138
139 140 138
139 140 138
139 141 138
140 141 138
140 142 138
140 142 138
140 143 138
141 143 138
77 80 74
77 80 74
77 81 74
78 81 74
78 82 74
78 82 74
78 83 74
79 83 74
79 84 74
79 84 74
79 85 74
80 85 74
80 86 74
80 86 74
80 87 74
81 87 74
81 88 74
81 88 74
81 89 74
82 89 74
82 90 74
82 90 74
82 91 74
83 91 74
83 92 74
83 92 74
83 93 74
84 93 74
84 94 74
84 94 74
84 95 74
85 95 74
149 160 138
149 160 138
149 161 138
150 161 138
150 162 138
150 162 138
150 163 138
151 163 138
151 164 138
151 164 138
151 165 138
152 165 138
152 166 138
152 166 138
152 167 138
153 167 138
153 168 138
153 168 138
153 169 138
154 169 138
154 170 138
154 170 138
154 171 138
155 171 138
155 172 138
155 172 138
155 173 138
156 173 138
156 174 138
156 174 138
156 175 138
157 175 138
93 112 74
93 112 74
93 113 74
94 113 74
94 114 74
94 114 74
94 115 74
95 115 74
95 116 74
95 116 74
95 117 74
96 117 74
96 118 74
96 118 74
96 119 74
97 119 74
97 120 74
97 120 74
97 121 74
98 121 74
98 122 74
98 122 74
98 123 74
99 123 74
99 124 74
99 124 74
99 125 74
100 125 74
100 126 74
100 126 74
100 127 74
101 127 74
165 192 138
165 192 138
165 193 138
166 193 138
166 194 138
166 194 138
166 195 138
167 195 138
167 196 138
167 196 138
167 197 138
168 197 138
168 198 138
168 198 138
168 199 138
169 199 138
169 200 138
169 200 138
169 201 138
170 201 138
170 202 138
170 202 138
170 203 138
171 203 138
171 204 138
171 204 138
171 205 138
172 205 138
172 206 138
172 206 138
172 207 138
173 207 138
109 144 74
109 144 74
109 145 74
110 145 74
110 146 74
110 146 74
110 147 74
111 147 74
111 148 74
111 148 74
111 149 74
112 149 74
112 150 74
112 150 74
112 151 74
113 151 74
113 152 74
113 152 74
113 153 74
114 153 74
114 154 74
114 154 74
114 155 74
115 155 74
115 156 74
115 156 74
115 157 74
116 157 74
116 158 74
116 158 74
116 159 74
117 159 74
181 224 138
181 224 138
181 225 138
182 225 138
182 226 138
182 226 138
182 227 138
183 227 138
183 228 138
183 228 138
183 229 138
184 229 138
184 230 138
184 230 138
184 231 138
185 231 138
185 232 138
185 232 138
185 233 138
186 233 138
186 234 138
186 234 138
186 235 138
187 235 138
187 236 138
187 236 138
187 237 138
188 237 138
188 238 138
188 238 138
188 239 138
189 239 138
125 176 74
125 176 74
125 177 74
126 177 74
126 178 74
126 178 74
126 179 74
127 179 74
127 180 74
127 180 74
127 181 74
128 181 74
128 182 74
128 182 74
128 183 74
129 183 74
129 184 74
129 184 74
129 185 74
130 185 74
130 186 74
130 186 74
130 187 74
131 187 74
131 188 74
131 188 74
131 189 74
132 189 74
132 190 74
132 190 74
132 191 74
133 191 74
133 128 139
133 128 139
134 129 139
134 129 139
134 130 139
134 130 139
135 131 139
135 131 139
135 132 139
135 132 139
136 133 139
136 133 139
136 134 139
136 134 139
137 135 139
137 135 139
137 136 139
137 136 139
138 137 139
138 137 139
138 138 139
138 138 139
139 139 139
139 139 139
139 140 139
139 140 139
140 141 139
140 141 139
140 142 139
140 142 139
141 143 139
141 143 139
77 80 75
77 80 75
78 81 75
78 81 75
78 82 75
78 82 75
79 83 75
79 83 75
79 84 75
79 84 75
80 85 75
80 85 75
80 86 75
80 86 75
81 87 75
81 87 75
81 88 75
81 88 75
82 89 75
82 89 75
82 90 75
82 90 75
83 91 75
83 91 75
83 92 75
83 92 75
84 93 75
84 93 75
84 94 75
84 94 75
85 95 75
85 95 75
149 160 139
149 160 139
150 161 139
150 161 139
150 162 139
150 162 139
151 163 139
151 163 139
151 164 139
151 164 139
152 165 139
152 165 139
152 166 139
152 166 139
153 167 139
153 167 139
153 168 139
153 168 139
154 169 139
154 169 139
154 170 139
154 170 139
155 171 139
155 171 139
155 172 139
155 172 139
156 173 139
156 173 139
156 174 139
156 174 139
157 175 139
157 175 139
93 112 75
93 112 75
94 113 75
94 113 75
94 114 75
94 114 75
95 115 75
95 115 75
95 116 75
95 116 75
96 117 75
96 117 75
96 118 75
96 118 75
97 119 75
97 119 75
97 120 75
97 120 75
98 121 75
98 121 75
98 122 75
98 122 75
99 123 75
99 123 75
99 124 75
99 124 75
100 125 75
100 125 75
100 126 75
100 126 75
101 127 75
101 127 75
165 192 139
165 192 139
166 193 139
166 193 139
166 194 139
166 194 139
167 195 139
167 195 139
167 196 139
167 196 139
168 197 139
168 197 139
168 198 139
168 198 139
169 199 139
169 199 139
169 200 139
169 200 139
170 201 139
170 201 139
170 202 139
170 202 139
171 203 139
171 203 139
171 204 139
171 204 139
172 205 139
172 205 139
172 206 139
172 206 139
173 207 139
173 207 139
109 144 75
109 144 75
110 145 75
110 145 75
110 146 75
110 146 75
111 147 75
111 147 75
111 148 75
111 148 75
112 149 75
112 149 75
112 150 75
112 150 75
113 151 75
113 151 75
113 152 75
113 152 75
114 153 75
114 153 75
114 154 75
114 154 75
115 155 75
115 155 75
115 156 75
115 156 75
116 157 75
116 157 75
116 158 75
116 158 75
117 159 75
117 159 75
181 224 139
181 224 139
182 225 139
182 225 139
182 226 139
182 226 139
183 227 139
183 227 139
183 228 139
183 228 139
184 229 139
184 229 139
184 230 139
184 230 139
185 231 139
185 231 139
185 232 139
185 232 139
186 233 139
186 233 139
186 234 139
186 234 139
187 235 139
187 235 139
187 236 139
187 236 139
188 237 139
188 237 139
188 238 139
188 238 139
189 239 139
189 239 139
125 176 75
125 176 75
126 177 75
126 177 75
126 178 75
126 178 75
127 179 75
127 179 75
127 180 75
127 180 75
128 181 75
128 181 75
128 182 75
128 182 75
129 183 75
129 183 75
129 184 75
129 184 75
130 185 75
130 185 75
130 186 75
130 186 75
131 187 75
131 187 75
131 188 75
131 188 75
132 189 75
132 189 75
132 190 75
132 190 75
133 191 75
133 191 75
133 128 139
134 128 139
134 129 139
134 129 139
134 130 139
135 130 139
135 131 139
135 131 139
135 132 139
136 132 139
136 133 139
136 133 139
136 134 139
137 134 139
137 135 139
137 135 139
137 136 139
138 136 139
138 137 139
138 137 139
138 138 139
139 138 139
139 139 139
139 139 139
139 140 139
140 140 139
140 141 139
140 141 139
140 142 139
141 142 139
141 143 139
141 143 139
77 80 75
78 80 75
78 81 75
78 81 75
78 82 75
79 82 75
79 83 75
79 83 75
79 84 75
80 84 75
80 85 75
80 85 75
80 86 75
81 86 75
81 87 75
81 87 75
81 88 75
82 88 75
82 89 75
82 89 75
82 90 75
83 90 75
83 91 75
83 91 75
83 92 75
84 92 75
84 93 75
84 93 75
84 94 75
85 94 75
85 95 75
85 95 75
149 160 139
150 160 139
150 161 139
150 161 139
150 162 139
151 162 139
151 163 139
151 163 139
151 164 139
152 164 139
152 165 139
152 165 139
152 166 139
153 166 139
153 167 139
153 167 139
153 168 139
154 168 139
154 169 139
154 169 139
154 170 139
155 170 139
155 171 139
155 171 139
155 172 139
156 172 139
156 173 139
156 173 139
156 174 139
157 174 139
157 175 139
157 175 139
93 112 75
94 112 75
94 113 75
94 113 75
94 114 75
95 114 75
95 115 75
95 115 75
95 116 75
96 116 75
96 117 75
96 117 75
96 118 75
97 118 75
97 119 75
97 119 75
97 120 75
98 120 75
98 121 75
98 121 75
98 122 75
99 122 75
99 123 75
99 123 75
99 124 75
100 124 75
100 125 75
100 125 75
100 126 75
101 126 75
101 127 75
101 127 75
165 192 139
166 192 139
166 193 139
166 193 139
166 194 139
167 194 139
167 195 139
167 195 139
167 196 139
168 196 139
168 197 139
168 197 139
168 198 139
169 198 139
169 199 139
169 199 139
169 200 139
170 200 139
170 201 139
170 201 139
170 202 139
171 202 139
171 203 139
171 203 139
171 204 139
172 204 139
172 205 139
172 205 139
172 206 139
173 206 139
173 207 139
173 207 139
109 144 75
110 144 75
110 145 75
110 145 75
110 146 75
111 146 75
111 147 75
111 147 75
111 148 75
112 148 75
112 149 75
112 149 75
112 150 75
113 150 75
113 151 75
113 151 75
113 152 75
114 152 75
114 153 75
114 153 75
114 154 75
115 154 75
115 155 75
115 155 75
115 156 75
116 156 75
116 157 75
116 157 75
116 158 75
117 158 75
117 159 75
117 159 75
181 224 139
182 224 139
182 225 139
182 225 139
182 226 139
183 226 139
183 227 139
183 227 139
183 228 139
184 228 139
184 229 139
184 229 139
184 230 139
185 230 139
185 231 139
185 231 139
185 232 139
186 232 139
186 233 139
186 233 139
186 234 139
187 234 139
187 235 139
187 235 139
187 236 139
188 236 139
188 237 139
188 237 139
188 238 139
189 238 139
189 239 139
189 239 139
125 176 75
126 176 75
126 177 75
126 177 75
126 178 75
127 178 75
127 179 75
127 179 75
127 180 75
128 180 75
128 181 75
128 181 75
128 182 75
129 182 75
129 183 75
129 183 75
129 184 75
130 184 75
130 185 75
130 185 75
130 186 75
131 186 75
131 187 75
131 187 75
131 188 75
132 188 75
132 189 75
132 189 75
132 190 75
133 190 75
133 191 75
133 191 75
134 128 140
134 128 140
134 129 140
134 129 140
135 130 140
135 130 140
135 131 140
135 131 140
136 132 140
136 132 140
136 133 140
136 133 140
137 134 140
137 134 140
137 135 140
137 135 140
138 136 140
138 136 140
138 137 140
138 137 140
139 138 140
139 138 140
139 139 140
139 139 140
140 140 140
140 140 140
140 141 140
140 141 140
141 142 140
141 142 140
141 143 140
141 143 140
78 80 76
78 80 76
78 81 76
78 81 76
79 82 76
79 82 76
79 83 76
79 83 76
80 84 76
80 84 76
80 85 76
80 85 76
81 86 76
81 86 76
81 87 76
81 87 76
82 88 76
82 88 76
82 89 76
82 89 76
83 90 76
83 90 76
83 91 76
83 91 76
84 92 76
84 92 76
84 93 76
84 93 76
85 94 76
85 94 76
85 95 76
85 95 76
150 160 140
150 160 140
150 161 140
150 161 140
151 162 140
151 162 140
151 163 140
151 163 140
152 164 140
152 164 140
152 165 140
152 165 140
153 166 140
153 166 140
153 167 140
153 167 140
154 168 140
154 168 140
154 169 140
154 169 140
155 170 140
155 170 140
155 171 140
155 171 140
156 172 140
156 172 140
156 173 140
156 173 140
157 174 140
157 174 140
157 175 140
157 175 140
94 112 76
94 112 76
94 113 76
94 113 76
95 114 76
95 114 76
95 115 76
95 115 76
96 116 76
96 116 76
96 117 76
96 117 76
97 118 76
97 118 76
97 119 76
97 119 76
98 120 76
98 120 76
98 121 76
98 121 76
99 122 76
99 122 76
99 123 76
99 123 76
100 124 76
100 124 76
100 125 76
100 125 76
101 126 76
101 126 76
101 127 76
101 127 76
166 192 140
166 192 140
166 193 140
166 193 140
167 194 140
167 194 140
167 195 140
167 195 140
168 196 140
168 196 140
168 197 140
168 197 140
169 198 140
169 198 140
169 199 140
169 199 140
170 200 140
170 200 140
170 201 140
170 201 140
171 202 140
171 202 140
171 203 140
171 203 140
172 204 140
172 204 140
172 205 140
172 205 140
173 206 140
173 206 140
173 207 140
173 207 140
110 144 76
110 144 76
110 145 76
110 145 76
111 146 76
111 146 76
111 147 76
111 147 76
112 148 76
112 148 76
112 149 76
112 149 76
113 150 76
113 150 76
113 151 76
113 151 76
114 152 76
114 152 76
114 153 76
114 153 76
115 154 76
115 154 76
115 155 76
115 155 76
116 156 76
116 156 76
116 157 76
116 157 76
117 158 76
117 158 76
117 159 76
117 159 76
182 224 140
182 224 140
182 225 140
182 225 140
183 226 140
183 226 140
183 227 140
183 227 140
184 228 140
184 228 140
184 229 140
184 229 140
185 230 140
185 230 140
185 231 140
185 231 140
186 232 140
186 232 140
186 233 140
186 233 140
187 234 140
187 234 140
187 235 140
187 235 140
188 236 140
188 236 140
188 237 140
188 237 140
189 238 140
189 238 140
189 239 140
189 239 140
126 176 76
126 176 76
126 177 76
126 177 76
127 178 76
127 178 76
127 179 76
127 179 76
128 180 76
128 180 76
128 181 76
128 181 76
129 182 76
129 182 76
129 183 76
129 183 76
130 184 76
130 184 76
130 185 76
130 185 76
131 186 76
131 186 76
131 187 76
131 187 76
132 188 76
132 188 76
132 189 76
132 189 76
133 190 76
133 190 76
133 191 76
133 191 76
134 128 140
134 128 140
134 129 140
135 129 140
135 130 140
135 130 140
135 131 140
136 131 140
136 132 140
136 132 140
136 133 140
137 133 140
137 134 140
137 134 140
137 135 140
138 135 140
138 136 140
138 136 140
138 137 140
139 137 140
139 138 140
139 138 140
139 139 140
140 139 140
140 140 140
140 140 140
140 141 140
141 141 140
141 142 140
141 142 140
141 143 140
142 143 140
78 80 76
78 80 76
78 81 76
79 81 76
79 82 76
79 82 76
79 83 76
80 83 76
80 84 76
80 84 76
80 85 76
81 85 76
81 86 76
81 86 76
81 87 76
82 87 76
82 88 76
82 88 76
82 89 76
83 89 76
83 90 76
83 90 76
83 91 76
84 91 76
84 92 76
84 92 76
84 93 76
85 93 76
85 94 76
85 94 76
85 95 76
86 95 76
150 160 140
150 160 140
150 161 140
151 161 140
151 162 140
151 162 140
151 163 140
152 163 140
152 164 140
152 164 140
152 165 140
153 165 140
153 166 140
153 166 140
153 167 140
154 167 140
154 168 140
154 168 140
154 169 140
155 169 140
155 170 140
155 170 140
155 171 140
156 171 140
156 172 140
156 172 140
156 173 140
157 173 140
157 174 140
157 174 140
157 175 140
158 175 140
94 112 76
94 112 76
94 113 76
95 113 76
95 114 76
95 114 76
95 115 76
96 115 76
96 116 76
96 116 76
96 117 76
97 117 76
97 118 76
97 118 76
97 119 76
98 119 76
98 120 76
98 120 76
98 121 76
99 121 76
99 122 76
99 122 76
99 123 76
100 123 76
100 124 76
100 124 76
100 125 76
101 125 76
101 126 76
101 126 76
101 127 76
102 127 76
166 192 140
166 192 140
166 193 140
167 193 140
167 194 140
167 194 140
167 195 140
168 195 140
168 196 140
168 196 140
168 197 140
169 197 140
169 198 140
169 198 140
169 199 140
170 199 140
170 200 140
170 200 140
170 201 140
171 201 140
171 202 140
171 202 140
171 203 140
172 203 140
172 204 140
172 204 140
172 205 140
173 205 140
173 206 140
173 206 140
173 207 140
174 207 140
110 144 76
110 144 76
110 145 76
111 145 76
111 146 76
111 146 76
111 147 76
112 147 76
112 148 76
112 148 76
112 149 76
113 149 76
113 150 76
113 150 76
113 151 76
114 151 76
114 152 76
114 152 76
114 153 76
115 153 76
115 154 76
115 154 76
115 155 76
116 155 76
116 156 76
116 156 76
116 157 76
117 157 76
117 158 76
117 158 76
117 159 76
118 159 76
182 224 140
182 224 140
182 225 140
183 225 140
183 226 140
183 226 140
183 227 140
184 227 140
184 228 140
184 228 140
184 229 140
185 229 140
185 230 140
185 230 140
185 231 140
186 231 140
186 232 140
186 232 140
186 233 140
187 233 140
187 234 140
187 234 140
187 235 140
188 235 140
188 236 140
188 236 140
188 237 140
189 237 140
189 238 140
189 238 140
189 239 140
190 239 140
126 176 76
126 176 76
126 177 76
127 177 76
127 178 76
127 178 76
127 179 76
128 179 76
128 180 76
128 180 76
128 181 76
129 181 76
129 182 76
129 182 76
129 183 76
130 183 76
130 184 76
130 184 76
130 185 76
131 185 76
131 186 76
131 186 76
131 187 76
132 187 76
132 188 76
132 188 76
132 189 76
133 189 76
133 190 76
133 190 76
133 191 76
134 191 76
134 128 141
134 128 141
135 129 141
135 129 141
135 130 141
135 130 141
136 131 141
136 131 141
136 132 141
136 132 141
137 133 141
137 133 141
137 134 141
137 134 141
138 135 141
138 135 141
138 136 141
138 136 141
139 137 141
139 137 141
139 138 141
139 138 141
140 139 141
140 139 141
140 140 141
140 140 141
141 141 141
141 141 141
141 142 141
141 142 141
142 143 141
142 143 141
78 80 77
78 80 77
79 81 77
79 81 77
79 82 77
79 82 77
80 83 77
80 83 77
80 84 77
80 84 77
81 85 77
81 85 77
81 86 77
81 86 77
82 87 77
82 87 77
82 88 77
82 88 77
83 89 77
83 89 77
83 90 77
83 90 77
84 91 77
84 91 77
84 92 77
84 92 77
85 93 77
85 93 77
85 94 77
85 94 77
86 95 77
86 95 77
150 160 141
150 160 141
151 161 141
151 161 141
151 162 141
151 162 141
152 163 141
152 163 141
152 164 141
152 164 141
153 165 141
153 165 141
153 166 141
153 166 141
154 167 141
154 167 141
154 168 141
154 168 141
155 169 141
155 169 141
155 170 141
155 170 141
156 171 141
156 171 141
156 172 141
156 172 141
157 173 141
157 173 141
157 174 141
157 174 141
158 175 141
158 175 141
94 112 77
94 112 77
95 113 77
95 113 77
95 114 77
95 114 77
96 115 77
96 115 77
96 116 77
96 116 77
97 117 77
97 117 77
97 118 77
97 118 77
98 119 77
98 119 77
98 120 77
98 120 77
99 121 77
99 121 77
99 122 77
99 122 77
100 123 77
100 123 77
100 124 77
100 124 77
101 125 77
101 125 77
101 126 77
101 126 77
102 127 77
102 127 77
166 192 141
166 192 141
167 193 141
167 193 141
167 194 141
167 194 141
168 195 141
168 195 141
168 196 141
168 196 141
169 197 141
169 197 141
169 198 141
169 198 141
170 199 141
170 199 141
170 200 141
170 200 141
171 201 141
171 201 141
171 202 141
171 202 141
172 203 141
172 203 141
172 204 141
172 204 141
173 205 141
173 205 141
173 206 141
173 206 141
174 207 141
174 207 141
110 144 77
110 144 77
111 145 77
111 145 77
111 146 77
111 146 77
112 147 77
112 147 77
112 148 77
112 148 77
113 149 77
113 149 77
113 150 77
113 150 77
114 151 77
114 151 77
114 152 77
114 152 77
115 153 77
115 153 77
115 154 77
115 154 77
116 155 77
116 155 77
116 156 77
116 156 77
117 157 77
117 157 77
117 158 77
117 158 77
118 159 77
118 159 77
182 224 141
182 224 141
183 225 141
183 225 141
183 226 141
183 226 141
184 227 141
184 227 141
184 228 141
184 228 141
185 229 141
185 229 141
185 230 141
185 230 141
186 231 141
186 231 141
186 232 141
186 232 141
187 233 141
187 233 141
187 234 141
187 234 141
188 235 141
188 235 141
188 236 141
188 236 141
189 237 141
189 237 141
189 238 141
189 238 141
190 239 141
190 239 141
126 176 77
126 176 77
127 177 77
127 177 77
127 178 77
127 178 77
128 179 77
128 179 77
128 180 77
128 180 77
129 181 77
129 181 77
129 182 77
129 182 77
130 183 77
130 183 77
130 184 77
130 184 77
131 185 77
131 185 77
131 186 77
131 186 77
132 187 77
132 187 77
132 188 77
132 188 77
133 189 77
133 189 77
133 190 77
133 190 77
134 191 77
134 191 77
134 128 141
135 128 141
135 129 141
135 129 141
135 130 141
136 130 141
136 131 141
136 131 141
136 132 141
137 132 141
137 133 141
137 133 141
137 134 141
138 134 141
138 135 141
138 135 141
138 136 141
139 136 141
139 137 141
139 137 141
139 138 141
140 138 141
140 139 141
140 139 141
140 140 141
141 140 141
141 141 141
141 141 141
141 142 141
142 142 141
142 143 141
142 143 141
78 80 77
79 80 77
79 81 77
79 81 77
79 82 77
80 82 77
80 83 77
80 83 77
80 84 77
81 84 77
81 85 77
81 85 77
81 86 77
82 86 77
82 87 77
82 87 77
82 88 77
83 88 77
83 89 77
83 89 77
83 90 77
84 90 77
84 91 77
84 91 77
84 92 77
85 92 77
85 93 77
85 93 77
85 94 77
86 94 77
86 95 77
86 95 77
150 160 141
151 160 141
151 161 141
151 161 141
151 162 141
152 162 141
152 163 141
152 163 141
152 164 141
153 164 141
153 165 141
153 165 141
153 166 141
154 166 141
154 167 141
154 167 141
154 168 141
155 168 141
155 169 141
155 169 141
155 170 141
156 170 141
156 171 141
156 171 141
156 172 141
157 172 141
157 173 141
157 173 141
157 174 141
158 174 141
158 175 141
158 175 141
94 112 77
95 112 77
95 113 77
95 113 77
95 114 77
96 114 77
96 115 77
96 115 77
96 116 77
97 116 77
97 117 77
97 117 77
97 118 77
98 118 77
98 119 77
98 119 77
98 120 77
99 120 77
99 121 77
99 121 77
99 122 77
100 122 77
100 123 77
100 123 77
100 124 77
101 124 77
101 125 77
101 125 77
101 126 77
102 126 77
102 127 77
102 127 77
166 192 141
167 192 141
167 193 141
167 193 141
167 194 141
168 194 141
168 195 141
168 195 141
168 196 141
169 196 141
169 197 141
169 197 141
169 198 141
170 198 141
170 199 141
170 199 141
170 200 141
171 200 141
171 201 141
171 201 141
171 202 141
172 202 141
172 203 141
172 203 141
172 204 141
173 204 141
173 205 141
173 205 141
173 206 141
174 206 141
174 207 141
174 207 141
110 144 77
111 144 77
111 145 77
111 145 77
111 146 77
112 146 77
112 147 77
112 147 77
112 148 77
113 148 77
113 149 77
113 149 77
113 150 77
114 150 77
114 151 77
114 151 77
114 152 77
115 152 77
115 153 77
115 153 77
115 154 77
116 154 77
116 155 77
116 155 77
116 156 77
117 156 77
117 157 77
117 157 77
117 158 77
118 158 77
118 159 77
118 159 77
182 224 141
183 224 141
183 225 141
183 225 141
183 226 141
184 226 141
184 227 141
184 227 141
184 228 141
185 228 141
185 229 141
185 229 141
185 230 141
186 230 141
186 231 141
186 231 141
186 232 141
187 232 141
187 233 141
187 233 141
187 234 141
188 234 141
188 235 141
188 235 141
188 236 141
189 236 141
189 237 141
189 237 141
189 238 141
190 238 141
190 239 141
190 239 141
126 176 77
127 176 77
127 177 77
127 177 77
127 178 77
128 178 77
128 179 77
128 179 77
128 180 77
129 180 77
129 181 77
129 181 77
129 182 77
130 182 77
130 183 77
130 183 77
130 184 77
131 184 77
131 185 77
131 185 77
131 186 77
132 186 77
132 187 77
132 187 77
132 188 77
133 188 77
133 189 77
133 189 77
133 190 77
134 190 77
134 191 77
134 191 77
135 128 142
135 128 142
135 129 142
135 129 142
136 130 142
136 130 142
136 131 142
136 131 142
137 132 142
137 132 142
137 133 142
137 133 142
138 134 142
138 134 142
138 135 142
138 135 142
139 136 142
139 136 142
139 137 142
139 137 142
140 138 142
140 138 142
140 139 142
140 139 142
141 140 142
141 140 142
141 141 142
141 141 142
142 142 142
142 142 142
142 143 142
142 143 142
79 80 78
79 80 78
79 81 78
79 81 78
80 82 78
80 82 78
80 83 78
80 83 78
81 84 78
81 84 78
81 85 78
81 85 78
82 86 78
82 86 78
82 87 78
82 87 78
83 88 78
83 88 78
83 89 78
83 89 78
84 90 78
84 90 78
84 91 78
84 91 78
85 92 78
85 92 78
85 93 78
85 93 78
86 94 78
86 94 78
86 95 78
86 95 78
151 160 142
151 160 142
151 161 142
151 161 142
152 162 142
152 162 142
152 163 142
152 163 142
153 164 142
153 164 142
153 165 142
153 165 142
154 166 142
154 166 142
154 167 142
154 167 142
155 168 142
155 168 142
155 169 142
155 169 142
156 170 142
156 170 142
156 171 142
156 171 142
157 172 142
157 172 142
157 173 142
157 173 142
158 174 142
158 174 142
158 175 142
158 175 142
95 112 78
95 112 78
95 113 78
95 113 78
96 114 78
96 114 78
96 115 78
96 115 78
97 116 78
97 116 78
97 117 78
97 117 78
98 118 78
98 118 78
98 119 78
98 119 78
99 120 78
99 120 78
99 121 78
99 121 78
100 122 78
100 122 78
100 123 78
100 123 78
101 124 78
101 124 78
101 125 78
101 125 78
102 126 78
102 126 78
102 127 78
102 127 78
167 192 142
167 192 142
167 193 142
167 193 142
168 194 142
168 194 142
168 195 142
168 195 142
169 196 142
169 196 142
169 197 142
169 197 142
170 198 142
170 198 142
170 199 142
170 199 142
171 200 142
171 200 142
171 201 142
171 201 142
172 202 142
172 202 142
172 203 142
172 203 142
173 204 142
173 204 142
173 205 142
173 205 142
174 206 142
174 206 142
174 207 142
174 207 142
111 144 78
111 144 78
111 145 78
111 145 78
112 146 78
112 146 78
112 147 78
112 147 78
113 148 78
113 148 78
113 149 78
113 149 78
114 150 78
114 150 78
114 151 78
114 151 78
115 152 78
115 152 78
115 153 78
115 153 78
116 154 78
116 154 78
116 155 78
116 155 78
117 156 78
117 156 78
117 157 78
117 157 78
118 158 78
118 158 78
118 159 78
118 159 78
183 224 142
183 224 142
183 225 142
183 225 142
184 226 142
184 226 142
184 227 142
184 227 142
185 228 142
185 228 142
185 229 142
185 229 142
186 230 142
186 230 142
186 231 142
186 231 142
187 232 142
187 232 142
187 233 142
187 233 142
188 234 142
188 234 142
188 235 142
188 235 142
189 236 142
189 236 142
189 237 142
189 237 142
190 238 142
190 238 142
190 239 142
190 239 142
127 176 78
127 176 78
127 177 78
127 177 78
128 178 78
128 178 78
128 179 78
128 179 78
129 180 78
129 180 78
129 181 78
129 181 78
130 182 78
130 182 78
130 183 78
130 183 78
131 184 78
131 184 78
131 185 78
131 185 78
132 186 78
132 186 78
132 187 78
132 187 78
133 188 78
133 188 78
133 189 78
133 189 78
134 190 78
134 190 78
134 191 78
134 191 78
135 128 142
135 128 142
135 129 142
136 129 142
136 130 142
136 130 142
136 131 142
137 131 142
137 132 142
137 132 142
137 133 142
138 133 142
138 134 142
138 134 142
138 135 142
139 135 142
139 136 142
139 136 142
139 137 142
140 137 142
140 138 142
140 138 142
140 139 142
141 139 142
141 140 142
141 140 142
141 141 142
142 141 142
142 142 142
142 142 142
142 143 142
143 143 142
79 80 78
79 80 78
79 81 78
80 81 78
80 82 78
80 82 78
80 83 78
81 83 78
81 84 78
81 84 78
81 85 78
82 85 78
82 86 78
82 86 78
82 87 78
83 87 78
83 88 78
83 88 78
83 89 78
84 89 78
84 90 78
84 90 78
84 91 78
85 91 78
85 92 78
85 92 78
85 93 78
86 93 78
86 94 78
86 94 78
86 95 78
87 95 78
151 160 142
151 160 142
151 161 142
152 161 142
152 162 142
152 162 142
152 163 142
153 163 142
153 164 142
153 164 142
153 165 142
154 165 142
154 166 142
154 166 142
154 167 142
155 167 142
155 168 142
155 168 142
155 169 142
156 169 142
156 170 142
156 170 142
156 171 142
157 171 142
157 172 142
157 172 142
157 173 142
158 173 142
158 174 142
158 174 142
158 175 142
159 175 142
95 112 78
95 112 78
95 113 78
96 113 78
96 114 78
96 114 78
96 115 78
97 115 78
97 116 78
97 116 78
97 117 78
98 117 78
98 118 78
98 118 78
98 119 78
99 119 78
99 120 78
99 120 78
99 121 78
100 121 78
100 122 78
100 122 78
100 123 78
101 123 78
101 124 78
101 124 78
101 125 78
102 125 78
102 126 78
102 126 78
102 127 78
103 127 78
167 192 142
167 192 142
167 193 142
168 193 142
168 194 142
168 194 142
168 195 142
169 195 142
169 196 142
169 196 142
169 197 142
170 197 142
170 198 142
170 198 142
170 199 142
171 199 142
171 200 142
171 200 142
171 201 142
172 201 142
172 202 142
172 202 142
172 203 142
173 203 142
173 204 142
173 204 142
173 205 142
174 205 142
174 206 142
174 206 142
174 207 142
175 207 142
111 144 78
111 144 78
111 145 78
112 145 78
112 146 78
112 146 78
112 147 78
113 147 78
113 148 78
113 148 78
113 149 78
114 149 78
114 150 78
114 150 78
114 151 78
115 151 78
115 152 78
115 152 78
115 153 78
116 153 78
116 154 78
116 154 78
116 155 78
117 155 78
117 156 78
117 156 78
117 157 78
118 157 78
118 158 78
118 158 78
118 159 78
119 159 78
183 224 142
183 224 142
183 225 142
184 225 142
184 226 142
184 226 142
184 227 142
185 227 142
185 228 142
185 228 142
185 229 142
186 229 142
186 230 142
186 230 142
186 231 142
187 231 142
187 232 142
187 232 142
187 233 142
188 233 142
188 234 142
188 234 142
188 235 142
189 235 142
189 236 142
189 236 142
189 237 142
190 237 142
190 238 142
190 238 142
190 239 142
191 239 142
127 176 78
127 176 78
127 177 78
128 177 78
128 178 78
128 178 78
128 179 78
129 179 78
129 180 78
129 180 78
129 181 78
130 181 78
130 182 78
130 182 78
130 183 78
131 183 78
131 184 78
131 184 78
131 185 78
132 185 78
132 186 78
132 186 78
132 187 78
133 187 78
133 188 78
133 188 78
133 189 78
134 189 78
134 190 78
134 190 78
134 191 78
135 191 78
135 128 143
135 128 143
136 129 143
136 129 143
136 130 143
136 130 143
137 131 143
137 131 143
137 132 143
137 132 143
138 133 143
138 133 143
138 134 143
138 134 143
139 135 143
139 135 143
139 136 143
139 136 143
140 137 143
140 137 143
140 138 143
140 138 143
141 139 143
141 139 143
141 140 143
141 140 143
142 141 143
142 141 143
142 142 143
142 142 143
143 143 143
143 143 143
79 80 79
79 80 79
80 81 79
80 81 79
80 82 79
80 82 79
81 83 79
81 83 79
81 84 79
81 84 79
82 85 79
82 85 79
82 86 79
82 86 79
83 87 79
83 87 79
83 88 79
83 88 79
84 89 79
84 89 79
84 90 79
84 90 79
85 91 79
85 91 79
85 92 79
85 92 79
86 93 79
86 93 79
86 94 79
86 94 79
87 95 79
87 95 79
151 160 143
151 160 143
152 161 143
152 161 143
152 162 143
152 162 143
153 163 143
153 163 143
153 164 143
153 164 143
154 165 143
154 165 143
154 166 143
154 166 143
155 167 143
155 167 143
155 168 143
155 168 143
156 169 143
156 169 143
156 170 143
156 170 143
157 171 143
157 171 143
157 172 143
157 172 143
158 173 143
158 173 143
158 174 143
158 174 143
159 175 143
159 175 143
95 112 79
95 112 79
96 113 79
96 113 79
96 114 79
96 114 79
97 115 79
97 115 79
97 116 79
97 116 79
98 117 79
98 117 79
98 118 79
98 118 79
99 119 79
99 119 79
99 120 79
99 120 79
100 121 79
100 121 79
100 122 79
100 122 79
101 123 79
101 123 79
101 124 79
101 124 79
102 125 79
102 125 79
102 126 79
102 126 79
103 127 79
103 127 79
167 192 143
167 192 143
168 193 143
168 193 143
168 194 143
168 194 143
169 195 143
169 195 143
169 196 143
169 196 143
170 197 143
170 197 143
170 198 143
170 198 143
171 199 143
171 199 143
171 200 143
171 200 143
172 201 143
172 201 143
172 202 143
172 202 143
173 203 143
173 203 143
173 204 143
173 204 143
174 205 143
174 205 143
174 206 143
174 206 143
175 207 143
175 207 143
111 144 79
111 144 79
112 145 79
112 145 79
112 146 79
112 146 79
113 147 79
113 147 79
113 148 79
113 148 79
114 149 79
114 149 79
114 150 79
114 150 79
115 151 79
115 151 79
115 152 79
115 152 79
116 153 79
116 153 79
116 154 79
116 154 79
117 155 79
117 155 79
117 156 79
117 156 79
118 157 79
118 157 79
118 158 79
118 158 79
119 159 79
119 159 79
183 224 143
183 224 143
184 225 143
184 225 143
184 226 143
184 226 143
185 227 143
185 227 143
185 228 143
185 228 143
186 229 143
186 229 143
186 230 143
186 230 143
187 231 143
187 231 143
187 232 143
187 232 143
188 233 143
188 233 143
188 234 143
188 234 143
189 235 143
189 235 143
189 236 143
189 236 143
190 237 143
190 237 143
190 238 143
190 238 143
191 239 143
191 239 143
127 176 79
127 176 79
128 177 79
128 177 79
128 178 79
128 178 79
129 179 79
129 179 79
129 180 79
129 180 79
130 181 79
130 181 79
130 182 79
130 182 79
131 183 79
131 183 79
131 184 79
131 184 79
132 185 79
132 185 79
132 186 79
132 186 79
133 187 79
133 187 79
133 188 79
133 188 79
134 189 79
134 189 79
134 190 79
134 190 79
135 191 79
135 191 79
135 128 143
136 128 143
136 129 143
136 129 143
136 130 143
137 130 143
137 131 143
137 131 143
137 132 143
138 132 143
138 133 143
138 133 143
138 134 143
139 134 143
139 135 143
139 135 143
139 136 143
140 136 143
140 137 143
140 137 143
140 138 143
141 138 143
141 139 143
141 139 143
141 140 143
142 140 143
142 141 143
142 141 143
142 142 143
143 142 143
143 143 143
143 143 143
79 80 79
80 80 79
80 81 79
80 81 79
80 82 79
81 82 79
81 83 79
81 83 79
81 84 79
82 84 79
82 85 79
82 85 79
82 86 79
83 86 79
83 87 79
83 87 79
83 88 79
84 88 79
84 89 79
84 89 79
84 90 79
85 90 79
85 91 79
85 91 79
85 92 79
86 92 79
86 93 79
86 93 79
86 94 79
87 94 79
87 95 79
87 95 79
151 160 143
152 160 143
152 161 143
152 161 143
152 162 143
153 162 143
153 163 143
153 163 143
153 164 143
154 164 143
154 165 143
154 165 143
154 166 143
155 166 143
155 167 143
155 167 143
155 168 143
156 168 143
156 169 143
156 169 143
156 170 143
157 170 143
157 171 143
157 171 143
157 172 143
158 172 143
158 173 143
158 173 143
158 174 143
159 174 143
159 175 143
159 175 143
95 112 79
96 112 79
96 113 79
96 113 79
96 114 79
97 114 79
97 115 79
97 115 79
97 116 79
98 116 79
98 117 79
98 117 79
98 118 79
99 118 79
99 119 79
99 119 79
99 120 79
100 120 79
100 121 79
100 121 79
100 122 79
101 122 79
101 123 79
101 123 79
101 124 79
102 124 79
102 125 79
102 125 79
102 126 79
103 126 79
103 127 79
103 127 79
167 192 143
168 192 143
168 193 143
168 193 143
168 194 143
169 194 143
169 195 143
169 195 143
169 196 143
170 196 143
170 197 143
170 197 143
170 198 143
171 198 143
171 199 143
171 199 143
171 200 143
172 200 143
172 201 143
172 201 143
172 202 143
173 202 143
173 203 143
173 203 143
173 204 143
174 204 143
174 205 143
174 205 143
174 206 143
175 206 143
175 207 143
175 207 143
111 144 79
112 144 79
112 145 79
112 145 79
112 146 79
113 146 79
113 147 79
113 147 79
113 148 79
114 148 79
114 149 79
114 149 79
114 150 79
115 150 79
115 151 79
115 151 79
115 152 79
116 152 79
116 153 79
116 153 79
116 154 79
117 154 79
117 155 79
117 155 79
117 156 79
118 156 79
118 157 79
118 157 79
118 158 79
119 158 79
119 159 79
119 159 79
183 224 143
184 224 143
184 225 143
184 225 143
184 226 143
185 226 143
185 227 143
185 227 143
185 228 143
186 228 143
186 229 143
186 229 143
186 230 143
187 230 143
187 231 143
187 231 143
187 232 143
188 232 143
188 233 143
188 233 143
188 234 143
189 234 143
189 235 143
189 235 143
189 236 143
190 236 143
190 237 143
190 237 143
190 238 143
191 238 143
191 239 143
191 239 143
127 176 79
128 176 79
128 177 79
128 177 79
128 178 79
129 178 79
129 179 79
129 179 79
129 180 79
130 180 79
130 181 79
130 181 79
130 182 79
131 182 79
131 183 79
131 183 79
131 184 79
132 184 79
132 185 79
132 185 79
132 186 79
133 186 79
133 187 79
133 187 79
133 188 79
134 188 79
134 189 79
134 189 79
134 190 79
135 190 79
135 191 79
135 191 79
72 64 80
72 64 80
72 65 80
72 65 80
73 66 80
73 66 80
73 67 80
73 67 80
74 68 80
74 68 80
74 69 80
74 69 80
75 70 80
75 70 80
75 71 80
75 71 80
76 72 80
76 72 80
76 73 80
76 73 80
77 74 80
77 74 80
77 75 80
77 75 80
78 76 80
78 76 80
78 77 80
78 77 80
79 78 80
79 78 80
79 79 80
79 79 80
144 144 144
144 144 144
144 145 144
144 145 144
145 146 144
145 146 144
145 147 144
145 147 144
146 148 144
146 148 144
146 149 144
146 149 144
147 150 144
147 150 144
147 151 144
147 151 144
148 152 144
148 152 144
148 153 144
148 153 144
149 154 144
149 154 144
149 155 144
149 155 144
150 156 144
150 156 144
150 157 144
150 157 144
151 158 144
151 158 144
151 159 144
151 159 144
88 96 80
88 96 80
88 97 80
88 97 80
89 98 80
89 98 80
89 99 80
89 99 80
90 100 80
90 100 80
90 101 80
90 101 80
91 102 80
91 102 80
91 103 80
91 103 80
92 104 80
92 104 80
92 105 80
92 105 80
93 106 80
93 106 80
93 107 80
93 107 80
94 108 80
94 108 80
94 109 80
94 109 80
95 110 80
95 110 80
95 111 80
95 111 80
160 176 144
160 176 144
160 177 144
160 177 144
161 178 144
161 178 144
161 179 144
161 179 144
162 180 144
162 180 144
162 181 144
162 181 144
163 182 144
163 182 144
163 183 144
163 183 144
164 184 144
164 184 144
164 185 144
164 185 144
165 186 144
165 186 144
165 187 144
165 187 144
166 188 144
166 188 144
166 189 144
166 189 144
167 190 144
167 190 144
167 191 144
167 191 144
104 128 80
104 128 80
104 129 80
104 129 80
105 130 80
105 130 80
105 131 80
105 131 80
106 132 80
106 132 80
106 133 80
106 133 80
107 134 80
107 134 80
107 135 80
107 135 80
108 136 80
108 136 80
108 137 80
108 137 80
109 138 80
109 138 80
109 139 80
109 139 80
110 140 80
110 140 80
110 141 80
110 141 80
111 142 80
111 142 80
111 143 80
111 143 80
176 208 144
176 208 144
176 209 144
176 209 144
177 210 144
177 210 144
177 211 144
177 211 144
178 212 144
178 212 144
178 213 144
178 213 144
179 214 144
179 214 144
179 215 144
179 215 144
180 216 144
180 216 144
180 217 144
180 217 144
181 218 144
181 218 144
181 219 144
181 219 144
182 220 144
182 220 144
182 221 144
182 221 144
183 222 144
183 222 144
183 223 144
183 223 144
120 160 80
120 160 80
120 161 80
120 161 80
121 162 80
121 162 80
121 163 80
121 163 80
122 164 80
122 164 80
122 165 80
122 165 80
123 166 80
123 166 80
123 167 80
123 167 80
124 168 80
124 168 80
124 169 80
124 169 80
125 170 80
125 170 80
125 171 80
125 171 80
126 172 80
126 172 80
126 173 80
126 173 80
127 174 80
127 174 80
127 175 80
127 175 80
192 240 144
192 240 144
192 241 144
192 241 144
193 242 144
193 242 144
193 243 144
193 243 144
194 244 144
194 244 144
194 245 144
194 245 144
195 246 144
195 246 144
195 247 144
195 247 144
196 248 144
196 248 144
196 249 144
196 249 144
197 250 144
197 250 144
197 251 144
197 251 144
198 252 144
198 252 144
198 253 144
198 253 144
199 254 144
199 254 144
199 255 144
199 255 144
72 64 80
72 64 80
72 65 80
73 65 80
73 66 80
73 66 80
73 67 80
74 67 80
74 68 80
74 68 80
74 69 80
75 69 80
75 70 80
75 70 80
75 71 80
76 71 80
76 72 80
76 72 80
76 73 80
77 73 80
77 74 80
77 74 80
77 75 80
78 75 80
78 76 80
78 76 80
78 77 80
79 77 80
79 78 80
79 78 80
79 79 80
80 79 80
144 144 144
144 144 144
144 145 144
145 145 144
145 146 144
145 146 144
145 147 144
146 147 144
146 148 144
146 148 144
146 149 144
147 149 144
147 150 144
147 150 144
147 151 144
148 151 144
148 152 144
148 152 144
148 153 144
149 153 144
149 154 144
149 154 144
149 155 144
150 155 144
150 156 144
150 156 144
150 157 144
151 157 144
151 158 144
151 158 144
151 159 144
152 159 144
88 96 80
88 96 80
88 97 80
89 97 80
89 98 80
89 98 80
89 99 80
90 99 80
90 100 80
90 100 80
90 101 80
91 101 80
91 102 80
91 102 80
91 103 80
92 103 80
92 104 80
92 104 80
92 105 80
93 105 80
93 106 80
93 106 80
93 107 80
94 107 80
94 108 80
94 108 80
94 109 80
95 109 80
95 110 80
95 110 80
95 111 80
96 111 80
160 176 144
160 176 144
160 177 144
161 177 144
161 178 144
161 178 144
161 179 144
162 179 144
162 180 144
162 180 144
162 181 144
163 181 144
163 182 144
163 182 144
163 183 144
164 183 144
164 184 144
164 184 144
164 185 144
165 185 144
165 186 144
165 186 144
165 187 144
166 187 144
166 188 144
166 188 144
166 189 144
167 189 144
167 190 144
167 190 144
167 191 144
168 191 144
104 128 80
104 128 80
104 129 80
105 129 80
105 130 80
105 130 80
105 131 80
106 131 80
106 132 80
106 132 80
106 133 80
107 133 80
107 134 80
107 134 80
107 135 80
108 135 80
108 136 80
108 136 80
108 137 80
109 137 80
109 138 80
109 138 80
109 139 80
110 139 80
110 140 80
110 140 80
110 141 80
111 141 80
111 142 80
111 142 80
111 143 80
112 143 80
176 208 144
176 208 144
176 209 144
177 209 144
177 210 144
177 210 144
177 211 144
178 211 144
178 212 144
178 212 144
178 213 144
179 213 144
179 214 144
179 214 144
179 215 144
180 215 144
180 216 144
180 216 144
180 217 144
181 217 144
181 218 144
181 218 144
181 219 144
182 219 144
182 220 144
182 220 144
182 221 144
183 221 144
183 222 144
183 222 144
183 223 144
184 223 144
120 160 80
120 160 80
120 161 80
121 161 80
121 162 80
121 162 80
121 163 80
122 163 80
122 164 80
122 164 80
122 165 80
123 165 80
123 166 80
123 166 80
123 167 80
124 167 80
124 168 80
124 168 80
124 169 80
125 169 80
125 170 80
125 170 80
125 171 80
126 171 80
126 172 80
126 172 80
126 173 80
127 173 80
127 174 80
127 174 80
127 175 80
128 175 80
192 240 144
192 240 144
192 241 144
193 241 144
193 242 144
193 242 144
193 243 144
194 243 144
194 244 144
194 244 144
194 245 144
195 245 144
195 246 144
195 246 144
195 247 144
196 247 144
196 248 144
196 248 144
196 249 144
197 249 144
197 250 144
197 250 144
197 251 144
198 251 144
198 252 144
198 252 144
198 253 144
199 253 144
199 254 144
199 254 144
199 255 144
200 255 144
72 64 81
72 64 81
73 65 81
73 65 81
73 66 81
73 66 81
74 67 81
74 67 81
74 68 81
74 68 81
75 69 81
75 69 81
75 70 81
75 70 81
76 71 81
76 71 81
76 72 81
76 72 81
77 73 81
77 73 81
77 74 81
77 74 81
78 75 81
78 75 81
78 76 81
78 76 81
79 77 81
79 77 81
79 78 81
79 78 81
80 79 81
80 79 81
144 144 145
144 144 145
145 145 145
145 145 145
145 146 145
145 146 145
146 147 145
146 147 145
146 148 145
146 148 145
147 149 145
147 149 145
147 150 145
147 150 145
148 151 145
148 151 145
148 152 145
148 152 145
149 153 145
149 153 145
149 154 145
149 154 145
150 155 145
150 155 145
150 156 145
150 156 145
151 157 145
151 157 145
151 158 145
151 158 145
152 159 145
152 159 145
88 96 81
88 96 81
89 97 81
89 97 81
89 98 81
89 98 81
90 99 81
90 99 81
90 100 81
90 100 81
91 101 81
91 101 81
91 102 81
91 102 81
92 103 81
92 103 81
92 104 81
92 104 81
93 105 81
93 105 81
93 106 81
93 106 81
94 107 81
94 107 81
94 108 81
94 108 81
95 109 81
95 109 81
95 110 81
95 110 81
96 111 81
96 111 81
160 176 145
160 176 145
161 177 145
161 177 145
161 178 145
161 178 145
162 179 145
162 179 145
162 180 145
162 180 145
163 181 145
163 181 145
163 182 145
163 182 145
164 183 145
164 183 145
164 184 145
164 184 145
165 185 145
165 185 145
165 186 145
165 186 145
166 187 145
166 187 145
166 188 145
166 188 145
167 189 145
167 189 145
167 190 145
167 190 145
168 191 145
168 191 145
104 128 81
104 128 81
105 129 81
105 129 81
105 130 81
105 130 81
106 131 81
106 131 81
106 132 81
106 132 81
107 133 81
107 133 81
107 134 81
107 134 81
108 135 81
108 135 81
108 136 81
108 136 81
109 137 81
109 137 81
109 138 81
109 138 81
110 139 81
110 139 81
110 140 81
110 140 81
111 141 81
111 141 81
111 142 81
111 142 81
112 143 81
112 143 81
176 208 145
176 208 145
177 209 145
177 209 145
177 210 145
177 210 145
178 211 145
178 211 145
178 212 145
178 212 145
179 213 145
179 213 145
179 214 145
179 214 145
180 215 145
180 215 145
180 216 145
180 216 145
181 217 145
181 217 145
181 218 145
181 218 145
182 219 145
182 219 145
182 220 145
182 220 145
183 221 145
183 221 145
183 222 145
183 222 145
184 223 145
184 223 145
120 160 81
120 160 81
121 161 81
121 161 81
121 162 81
121 162 81
122 163 81
122 163 81
122 164 81
122 164 81
123 165 81
123 165 81
123 166 81
123 166 81
124 167 81
124 167 81
124 168 81
124 168 81
125 169 81
125 169 81
125 170 81
125 170 81
126 171 81
126 171 81
126 172 81
126 172 81
127 173 81
127 173 81
127 174 81
127 174 81
128 175 81
128 175 81
192 240 145
192 240 145
193 241 145
193 241 145
193 242 145
193 242 145
194 243 145
194 243 145
194 244 145
194 244 145
195 245 145
195 245 145
195 246 145
195 246 145
196 247 145
196 247 145
196 248 145
196 248 145
197 249 145
197 249 145
197 250 145
197 250 145
198 251 145
198 251 145
198 252 145
198 252 145
199 253 145
199 253 145
199 254 145
199 254 145
200 255 145
200 255 145
72 64 81
73 64 81
73 65 81
73 65 81
73 66 81
74 66 81
74 67 81
74 67 81
74 68 81
75 68 81
75 69 81
75 69 81
75 70 81
76 70 81
76 71 81
76 71 81
76 72 81
77 72 81
77 73 81
77 73 81
77 74 81
78 74 81
78 75 81
78 75 81
78 76 81
79 76 81
79 77 81
79 77 81
79 78 81
80 78 81
80 79 81
80 79 81
144 144 145
145 144 145
145 145 145
145 145 145
145 146 145
146 146 145
146 147 145
146 147 145
146 148 145
147 148 145
147 149 145
147 149 145
147 150 145
148 150 145
148 151 145
148 151 145
148 152 145
149 152 145
149 153 145
149 153 145
149 154 145
150 154 145
150 155 145
150 155 145
150 156 145
151 156 145
151 157 145
151 157 145
151 158 145
152 158 145
152 159 145
152 159 145
88 96 81
89 96 81
89 97 81
89 97 81
89 98 81
90 98 81
90 99 81
90 99 81
90 100 81
91 100 81
91 101 81
91 101 81
91 102 81
92 102 81
92 103 81
92 103 81
92 104 81
93 104 81
93 105 81
93 105 81
93 106 81
94 106 81
94 107 81
94 107 81
94 108 81
95 108 81
95 109 81
95 109 81
95 110 81
96 110 81
96 111 81
96 111 81
160 176 145
161 176 145
161 177 145
161 177 145
161 178 145
162 178 145
162 179 145
162 179 145
162 180 145
163 180 145
163 181 145
163 181 145
163 182 145
164 182 145
164 183 145
164 183 145
164 184 145
165 184 145
165 185 145
165 185 145
165 186 145
166 186 145
166 187 145
166 187 145
166 188 145
167 188 145
167 189 145
167 189 145
167 190 145
168 190 145
168 191 145
168 191 145
104 128 81
105 128 81
105 129 81
105 129 81
105 130 81
106 130 81
106 131 81
106 131 81
106 132 81
107 132 81
107 133 81
107 133 81
107 134 81
108 134 81
108 135 81
108 135 81
108 136 81
109 136 81
109 137 81
109 137 81
109 138 81
110 138 81
110 139 81
110 139 81
110 140 81
111 140 81
111 141 81
111 141 81
111 142 81
112 142 81
112 143 81
112 143 81
176 208 145
177 208 145
177 209 145
177 209 145
177 210 145
178 210 145
178 211 145
178 211 145
178 212 145
179 212 145
179 213 145
179 213 145
179 214 145
180 214 145
180 215 145
180 215 145
180 216 145
181 216 145
181 217 145
181 217 145
181 218 145
182 218 145
182 219 145
182 219 145
182 220 145
183 220 145
183 221 145
183 221 145
183 222 145
184 222 145
184 223 145
184 223 145
120 160 81
121 160 81
121 161 81
121 161 81
121 162 81
122 162 81
122 163 81
122 163 81
122 164 81
123 164 81
123 165 81
123 165 81
123 166 81
124 166 81
124 167 81
124 167 81
124 168 81
125 168 81
125 169 81
125 169 81
125 170 81
126 170 81
126 171 81
126 171 81
126 172 81
127 172 81
127 173 81
127 173 81
127 174 81
128 174 81
128 175 81
128 175 81
192 240 145
193 240 145
193 241 145
193 241 145
193 242 145
194 242 145
194 243 145
194 243 145
194 244 145
195 244 145
195 245 145
195 245 145
195 246 145
196 246 145
196 247 145
196 247 145
196 248 145
197 248 145
197 249 145
197 249 145
197 250 145
198 250 145
198 251 145
198 251 145
198 252 145
199 252 145
199 253 145
199 253 145
199 254 145
200 254 145
200 255 145
200 255 145
73 64 82
73 64 82
73 65 82
73 65 82
74 66 82
74 66 82
74 67 82
74 67 82
75 68 82
75 68 82
75 69 82
75 69 82
76 70 82
76 70 82
76 71 82
76 71 82
77 72 82
77 72 82
77 73 82
77 73 82
78 74 82
78 74 82
78 75 82
78 75 82
79 76 82
79 76 82
79 77 82
79 77 82
80 78 82
80 78 82
80 79 82
80 79 82
145 144 146
145 144 146
145 145 146
145 145 146
146 146 146
146 146 146
146 147 146
146 147 146
147 148 146
147 148 146
147 149 146
147 149 146
148 150 146
148 150 146
148 151 146
148 151 146
149 152 146
149 152 146
149 153 146
149 153 146
150 154 146
150 154 146
150 155 146
150 155 146
151 156 146
151 156 146
151 157 146
151 157 146
152 158 146
152 158 146
152 159 146
152 159 146
89 96 82
89 96 82
89 97 82
89 97 82
90 98 82
90 98 82
90 99 82
90 99 82
91 100 82
91 100 82
91 101 82
91 101 82
92 102 82
92 102 82
92 103 82
92 103 82
93 104 82
93 104 82
93 105 82
93 105 82
94 106 82
94 106 82
94 107 82
94 107 82
95 108 82
95 108 82
95 109 82
95 109 82
96 110 82
96 110 82
96 111 82
96 111 82
161 176 146
161 176 146
161 177 146
161 177 146
162 178 146
162 178 146
162 179 146
162 179 146
163 180 146
163 180 146
163 181 146
163 181 146
164 182 146
164 182 146
164 183 146
164 183 146
165 184 146
165 184 146
165 185 146
165 185 146
166 186 146
166 186 146
166 187 146
166 187 146
167 188 146
167 188 146
167 189 146
167 189 146
168 190 146
168 190 146
168 191 146
168 191 146
105 128 82
105 128 82
105 129 82
105 129 82
106 130 82
106 130 82
106 131 82
106 131 82
107 132 82
107 132 82
107 133 82
107 133 82
108 134 82
108 134 82
108 135 82
108 135 82
109 136 82
109 136 82
109 137 82
109 137 82
110 138 82
110 138 82
110 139 82
110 139 82
111 140 82
111 140 82
111 141 82
111 141 82
112 142 82
112 142 82
112 143 82
112 143 82
177 208 146
177 208 146
177 209 146
177 209 146
178 210 146
178 210 146
178 211 146
178 211 146
179 212 146
179 212 146
179 213 146
179 213 146
180 214 146
180 214 146
180 215 146
180 215 146
181 216 146
181 216 146
181 217 146
181 217 146
182 218 146
182 218 146
182 219 146
182 219 146
183 220 146
183 220 146
183 221 146
183 221 146
184 222 146
184 222 146
184 223 146
184 223 146
121 160 82
121 160 82
121 161 82
121 161 82
122 162 82
122 162 82
122 163 82
122 163 82
123 164 82
123 164 82
123 165 82
123 165 82
124 166 82
124 166 82
124 167 82
124 167 82
125 168 82
125 168 82
125 169 82
125 169 82
126 170 82
126 170 82
126 171 82
126 171 82
127 172 82
127 172 82
127 173 82
127 173 82
128 174 82
128 174 82
128 175 82
128 175 82
193 240 146
193 240 146
193 241 146
193 241 146
194 242 146
194 242 146
194 243 146
194 243 146
195 244 146
195 244 146
195 245 146
195 245 146
196 246 146
196 246 146
196 247 146
196 247 146
197 248 146
197 248 146
197 249 146
197 249 146
198 250 146
198 250 146
198 251 146
198 251 146
199 252 146
199 252 146
199 253 146
199 253 146
200 254 146
200 254 146
200 255 146
200 255 146
73 64 82
73 64 82
73 65 82
74 65 82
74 66 82
74 66 82
74 67 82
75 67 82
75 68 82
75 68 82
75 69 82
76 69 82
76 70 82
76 70 82
76 71 82
77 71 82
77 72 82
77 72 82
77 73 82
78 73 82
78 74 82
78 74 82
78 75 82
79 75 82
79 76 82
79 76 82
79 77 82
80 77 82
80 78 82
80 78 82
80 79 82
81 79 82
145 144 146
145 144 146
145 145 146
146 145 146
146 146 146
146 146 146
146 147 146
147 147 146
147 148 146
147 148 146
147 149 146
148 149 146
148 150 146
148 150 146
148 151 146
149 151 146
149 152 146
149 152 146
149 153 146
150 153 146
150 154 146
150 154 146
150 155 146
151 155 146
151 156 146
151 156 146
151 157 146
152 157 146
152 158 146
152 158 146
152 159 146
153 159 146
89 96 82
89 96 82
89 97 82
90 97 82
90 98 82
90 98 82
90 99 82
91 99 82
91 100 82
91 100 82
91 101 82
92 101 82
92 102 82
92 102 82
92 103 82
93 103 82
93 104 82
93 104 82
93 105 82
94 105 82
94 106 82
94 106 82
94 107 82
95 107 82
95 108 82
95 108 82
95 109 82
96 109 82
96 110 82
96 110 82
96 111 82
97 111 82
161 176 146
161 176 146
161 177 146
162 177 146
162 178 146
162 178 146
162 179 146
163 179 146
163 180 146
163 180 146
163 181 146
164 181 146
164 182 146
164 182 146
164 183 146
165 183 146
165 184 146
165 184 146
165 185 146
166 185 146
166 186 146
166 186 146
166 187 146
167 187 146
167 188 146
167 188 146
167 189 146
168 189 146
168 190 146
168 190 146
168 191 146
169 191 146
105 128 82
105 128 82
105 129 82
106 129 82
106 130 82
106 130 82
106 131 82
107 131 82
107 132 82
107 132 82
107 133 82
108 133 82
108 134 82
108 134 82
108 135 82
109 135 82
109 136 82
109 136 82
109 137 82
110 137 82
110 138 82
110 138 82
110 139 82
111 139 82
111 140 82
111 140 82
111 141 82
112 141 82
112 142 82
112 142 82
112 143 82
113 143 82
177 208 146
177 208 146
177 209 146
178 209 146
178 210 146
178 210 146
178 211 146
179 211 146
179 212 146
179 212 146
179 213 146
180 213 146
180 214 146
180 214 146
180 215 146
181 215 146
181 216 146
181 216 146
181 217 146
182 217 146
182 218 146
182 218 146
182 219 146
183 219 146
183 220 146
183 220 146
183 221 146
184 221 146
184 222 146
184 222 146
184 223 146
185 223 146
121 160 82
121 160 82
121 161 82
122 161 82
122 162 82
122 162 82
122 163 82
123 163 82
123 164 82
123 164 82
123 165 82
124 165 82
124 166 82
124 166 82
124 167 82
125 167 82
125 168 82
125 168 82
125 169 82
126 169 82
126 170 82
126 170 82
126 171 82
127 171 82
127 172 82
127 172 82
127 173 82
128 173 82
128 174 82
128 174 82
128 175 82
129 175 82
193 240 146
193 240 146
193 241 146
194 241 146
194 242 146
194 242 146
194 243 146
195 243 146
195 244 146
195 244 146
195 245 146
196 245 146
196 246 146
196 246 146
196 247 146
197 247 146
197 248 146
197 248 146
197 249 146
198 249 146
198 250 146
198 250 146
198 251 146
199 251 146
199 252 146
199 252 146
199 253 146
200 253 146
200 254 146
200 254 146
200 255 146
201 255 146
73 64 83
73 64 83
74 65 83
74 65 83
74 66 83
74 66 83
75 67 83
75 67 83
75 68 83
75 68 83
76 69 83
76 69 83
76 70 83
76 70 83
77 71 83
77 71 83
77 72 83
77 72 83
78 73 83
78 73 83
78 74 83
78 74 83
79 75 83
79 75 83
79 76 83
79 76 83
80 77 83
80 77 83
80 78 83
80 78 83
81 79 83
81 79 83
145 144 147
145 144 147
146 145 147
146 145 147
146 146 147
146 146 147
147 147 147
147 147 147
147 148 147
147 148 147
148 149 147
148 149 147
148 150 147
148 150 147
149 151 147
149 151 147
149 152 147
149 152 147
150 153 147
150 153 147
150 154 147
150 154 147
151 155 147
151 155 147
151 156 147
151 156 147
152 157 147
152 157 147
152 158 147
152 158 147
153 159 147
153 159 147
89 96 83
89 96 83
90 97 83
90 97 83
90 98 83
90 98 83
91 99 83
91 99 83
91 100 83
91 100 83
92 101 83
92 101 83
92 102 83
92 102 83
93 103 83
93 103 83
93 104 83
93 104 83
94 105 83
94 105 83
94 106 83
94 106 83
95 107 83
95 107 83
95 108 83
95 108 83
96 109 83
96 109 83
96 110 83
96 110 83
97 111 83
97 111 83
161 176 147
161 176 147
162 177 147
162 177 147
162 178 147
162 178 147
163 179 147
163 179 147
163 180 147
163 180 147
164 181 147
164 181 147
164 182 147
164 182 147
165 183 147
165 183 147
165 184 147
165 184 147
166 185 147
166 185 147
166 186 147
166 186 147
167 187 147
167 187 147
167 188 147
167 188 147
168 189 147
168 189 147
168 190 147
168 190 147
169 191 147
169 191 147
105 128 83
105 128 83
106 129 83
106 129 83
106 130 83
106 130 83
107 131 83
107 131 83
107 132 83
107 132 83
108 133 83
108 133 83
108 134 83
108 134 83
109 135 83
109 135 83
109 136 83
109 136 83
110 137 83
110 137 83
110 138 83
110 138 83
111 139 83
111 139 83
111 140 83
111 140 83
112 141 83
112 141 83
112 142 83
112 142 83
113 143 83
113 143 83
177 208 147
177 208 147
178 209 147
178 209 147
178 210 147
178 210 147
179 211 147
179 211 147
179 212 147
179 212 147
180 213 147
180 213 147
180 214 147
180 214 147
181 215 147
181 215 147
181 216 147
181 216 147
182 217 147
182 217 147
182 218 147
182 218 147
183 219 147
183 219 147
183 220 147
183 220 147
184 221 147
184 221 147
184 222 147
184 222 147
185 223 147
185 223 147
121 160 83
121 160 83
122 161 83
122 161 83
122 162 83
122 162 83
123 163 83
123 163 83
123 164 83
123 164 83
124 165 83
124 165 83
124 166 83
124 166 83
125 167 83
125 167 83
125 168 83
125 168 83
126 169 83
126 169 83
126 170 83
126 170 83
127 171 83
127 171 83
127 172 83
127 172 83
128 173 83
128 173 83
128 174 83
128 174 83
129 175 83
129 175 83
193 240 147
193 240 147
194 241 147
194 241 147
194 242 147
194 242 147
195 243 147
195 243 147
195 244 147
195 244 147
196 245 147
196 245 147
196 246 147
196 246 147
197 247 147
197 247 147
197 248 147
197 248 147
198 249 147
198 249 147
198 250 147
198 250 147
199 251 147
199 251 147
199 252 147
199 252 147
200 253 147
200 253 147
200 254 147
200 254 147
201 255 147
201 255 147
73 64 83
74 64 83
74 65 83
74 65 83
74 66 83
75 66 83
75 67 83
75 67 83
75 68 83
76 68 83
76 69 83
76 69 83
76 70 83
77 70 83
77 71 83
77 71 83
77 72 83
78 72 83
78 73 83
78 73 83
78 74 83
79 74 83
79 75 83
79 75 83
79 76 83
80 76 83
80 77 83
80 77 83
80 78 83
81 78 83
81 79 83
81 79 83
145 144 147
146 144 147
146 145 147
146 145 147
146 146 147
147 146 147
147 147 147
147 147 147
147 148 147
148 148 147
148 149 147
148 149 147
148 150 147
149 150 147
149 151 147
149 151 147
149 152 147
150 152 147
150 153 147
150 153 147
150 154 147
151 154 147
151 155 147
151 155 147
151 156 147
152 156 147
152 157 147
152 157 147
152 158 147
153 158 147
153 159 147
153 159 147
89 96 83
90 96 83
90 97 83
90 97 83
90 98 83
91 98 83
91 99 83
91 99 83
91 100 83
92 100 83
92 101 83
92 101 83
92 102 83
93 102 83
93 103 83
93 103 83
93 104 83
94 104 83
94 105 83
94 105 83
94 106 83
95 106 83
95 107 83
95 107 83
95 108 83
96 108 83
96 109 83
96 109 83
96 110 83
97 110 83
97 111 83
97 111 83
161 176 147
162 176 147
162 177 147
162 177 147
162 178 147
163 178 147
163 179 147
163 179 147
163 180 147
164 180 147
164 181 147
164 181 147
164 182 147
165 182 147
165 183 147
165 183 147
165 184 147
166 184 147
166 185 147
166 185 147
166 186 147
167 186 147
167 187 147
167 187 147
167 188 147
168 188 147
168 189 147
168 189 147
168 190 147
169 190 147
169 191 147
169 191 147
105 128 83
106 128 83
106 129 83
106 129 83
106 130 83
107 130 83
107 131 83
107 131 83
107 132 83
108 132 83
108 133 83
108 133 83
108 134 83
109 134 83
109 135 83
109 135 83
109 136 83
110 136 83
110 137 83
110 137 83
110 138 83
111 138 83
111 139 83
111 139 83
111 140 83
112 140 83
112 141 83
112 141 83
112 142 83
113 142 83
113 143 83
113 143 83
177 208 147
178 208 147
178 209 147
178 209 147
178 210 147
179 210 147
179 211 147
179 211 147
179 212 147
180 212 147
180 213 147
180 213 147
180 214 147
181 214 147
181 215 147
181 215 147
181 216 147
182 216 147
182 217 147
182 217 147
182 218 147
183 218 147
183 219 147
183 219 147
183 220 147
184 220 147
184 221 147
184 221 147
184 222 147
185 222 147
185 223 147
185 223 147
121 160 83
122 160 83
122 161 83
122 161 83
122 162 83
123 162 83
123 163 83
123 163 83
123 164 83
124 164 83
124 165 83
124 165 83
124 166 83
125 166 83
125 167 83
125 167 83
125 168 83
126 168 83
126 169 83
126 169 83
126 170 83
127 170 83
127 171 83
127 171 83
127 172 83
128 172 83
128 173 83
128 173 83
128 174 83
129 174 83
129 175 83
129 175 83
193 240 147
194 240 147
194 241 147
194 241 147
194 242 147
195 242 147
195 243 147
195 243 147
195 244 147
196 244 147
196 245 147
196 245 147
196 246 147
197 246 147
197 247 147
197 247 147
197 248 147
198 248 147
198 249 147
198 249 147
198 250 147
199 250 147
199 251 147
199 251 147
199 252 147
200 252 147
200 253 147
200 253 147
200 254 147
201 254 147
201 255 147
201 255 147
74 64 84
74 64 84
74 65 84
74 65 84
75 66 84
75 66 84
75 67 84
75 67 84
76 68 84
76 68 84
76 69 84
76 69 84
77 70 84
77 70 84
77 71 84
77 71 84
78 72 84
78 72 84
78 73 84
78 73 84
79 74 84
79 74 84
79 75 84
79 75 84
80 76 84
80 76 84
80 77 84
80 77 84
81 78 84
81 78 84
81 79 84
81 79 84
146 144 148
146 144 148
146 145 148
146 145 148
147 146 148
147 146 148
147 147 148
147 147 148
148 148 148
148 148 148
148 149 148
148 149 148
149 150 148
149 150 148
149 151 148
149 151 148
150 152 148
150 152 148
150 153 148
150 153 148
151 154 148
151 154 148
151 155 148
151 155 148
152 156 148
152 156 148
152 157 148
152 157 148
153 158 148
153 158 148
153 159 148
153 159 148
90 96 84
90 96 84
90 97 84
90 97 84
91 98 84
91 98 84
91 99 84
91 99 84
92 100 84
92 100 84
92 101 84
92 101 84
93 102 84
93 102 84
93 103 84
93 103 84
94 104 84
94 104 84
94 105 84
94 105 84
95 106 84
95 106 84
95 107 84
95 107 84
96 108 84
96 108 84
96 109 84
96 109 84
97 110 84
97 110 84
97 111 84
97 111 84
162 176 148
162 176 148
162 177 148
162 177 148
163 178 148
163 178 148
163 179 148
163 179 148
164 180 148
164 180 148
164 181 148
164 181 148
165 182 148
165 182 148
165 183 148
165 183 148
166 184 148
166 184 148
166 185 148
166 185 148
167 186 148
167 186 148
167 187 148
167 187 148
168 188 148
168 188 148
168 189 148
168 189 148
169 190 148
169 190 148
169 191 148
169 191 148
106 128 84
106 128 84
106 129 84
106 129 84
107 130 84
107 130 84
107 131 84
107 131 84
108 132 84
108 132 84
108 133 84
108 133 84
109 134 84
109 134 84
109 135 84
109 135 84
110 136 84
110 136 84
110 137 84
110 137 84
111 138 84
111 138 84
111 139 84
111 139 84
112 140 84
112 140 84
112 141 84
112 141 84
113 142 84
113 142 84
113 143 84
113 143 84
178 208 148
178 208 148
178 209 148
178 209 148
179 210 148
179 210 148
179 211 148
179 211 148
180 212 148
180 212 148
180 213 148
180 213 148
181 214 148
181 214 148
181 215 148
181 215 148
182 216 148
182 216 148
182 217 148
182 217 148
183 218 148
183 218 148
183 219 148
183 219 148
184 220 148
184 220 148
184 221 148
184 221 148
185 222 148
185 222 148
185 223 148
185 223 148
122 160 84
122 160 84
122 161 84
122 161 84
123 162 84
123 162 84
123 163 84
123 163 84
124 164 84
124 164 84
124 165 84
124 165 84
125 166 84
125 166 84
125 167 84
125 167 84
126 168 84
126 168 84
126 169 84
126 169 84
127 170 84
127 170 84
127 171 84
127 171 84
128 172 84
128 172 84
128 173 84
128 173 84
129 174 84
129 174 84
129 175 84
129 175 84
194 240 148
194 240 148
194 241 148
194 241 148
195 242 148
195 242 148
195 243 148
195 243 148
196 244 148
196 244 148
196 245 148
196 245 148
197 246 148
197 246 148
197 247 148
197 247 148
198 248 148
198 248 148
198 249 148
198 249 148
199 250 148
199 250 148
199 251 148
199 251 148
200 252 148
200 252 148
200 253 148
200 253 148
201 254 148
201 254 148
201 255 148
201 255 148
74 64 84
74 64 84
74 65 84
75 65 84
75 66 84
75 66 84
75 67 84
76 67 84
76 68 84
76 68 84
76 69 84
77 69 84
77 70 84
77 70 84
77 71 84
78 71 84
78 72 84
78 72 84
78 73 84
79 73 84
79 74 84
79 74 84
79 75 84
80 75 84
80 76 84
80 76 84
80 77 84
81 77 84
81 78 84
81 78 84
81 79 84
82 79 84
146 144 148
146 144 148
146 145 148
147 145 148
147 146 148
147 146 148
147 147 148
148 147 148
148 148 148
148 148 148
148 149 148
149 149 148
149 150 148
149 150 148
149 151 148
150 151 148
150 152 148
150 152 148
150 153 148
151 153 148
151 154 148
151 154 148
151 155 148
152 155 148
152 156 148
152 156 148
152 157 148
153 157 148
153 158 148
153 158 148
153 159 148
154 159 148
90 96 84
90 96 84
90 97 84
91 97 84
91 98 84
91 98 84
91 99 84
92 99 84
92 100 84
92 100 84
92 101 84
93 101 84
93 102 84
93 102 84
93 103 84
94 103 84
94 104 84
94 104 84
94 105 84
95 105 84
95 106 84
95 106 84
95 107 84
96 107 84
96 108 84
96 108 84
96 109 84
97 109 84
97 110 84
97 110 84
97 111 84
98 111 84
162 176 148
162 176 148
162 177 148
163 177 148
163 178 148
163 178 148
163 179 148
164 179 148
164 180 148
164 180 148
164 181 148
165 181 148
165 182 148
165 182 148
165 183 148
166 183 148
166 184 148
166 184 148
166 185 148
167 185 148
167 186 148
167 186 148
167 187 148
168 187 148
168 188 148
168 188 148
168 189 148
169 189 148
169 190 148
169 190 148
169 191 148
170 191 148
106 128 84
106 128 84
106 129 84
107 129 84
107 130 84
107 130 84
107 131 84
108 131 84
108 132 84
108 132 84
108 133 84
109 133 84
109 134 84
109 134 84
109 135 84
110 135 84
110 136 84
110 136 84
110 137 84
111 137 84
111 138 84
111 138 84
111 139 84
112 139 84
112 140 84
112 140 84
112 141 84
113 141 84
113 142 84
113 142 84
113 143 84
114 143 84
178 208 148
178 208 148
178 209 148
179 209 148
179 210 148
179 210 148
179 211 148
180 211 148
180 212 148
180 212 148
180 213 148
181 213 148
181 214 148
181 214 148
181 215 148
182 215 148
182 216 148
182 216 148
182 217 148
183 217 148
183 218 148
183 218 148
183 219 148
184 219 148
184 220 148
184 220 148
184 221 148
185 221 148
185 222 148
185 222 148
185 223 148
186 223 148
122 160 84
122 160 84
122 161 84
123 161 84
123 162 84
123 162 84
123 163 84
124 163 84
124 164 84
124 164 84
124 165 84
125 165 84
125 166 84
125 166 84
125 167 84
126 167 84
126 168 84
126 168 84
126 169 84
127 169 84
127 170 84
127 170 84
127 171 84
128 171 84
128 172 84
128 172 84
128 173 84
129 173 84
129 174 84
129 174 84
129 175 84
130 175 84
194 240 148
194 240 148
194 241 148
195 241 148
195 242 148
195 242 148
195 243 148
196 243 148
196 244 148
196 244 148
196 245 148
197 245 148
197 246 148
197 246 148
197 247 148
198 247 148
198 248 148
198 248 148
198 249 148
199 249 148
199 250 148
199 250 148
199 251 148
200 251 148
200 252 148
200 252 148
200 253 148
201 253 148
201 254 148
201 254 148
201 255 148
202 255 148
74 64 85
74 64 85
75 65 85
75 65 85
75 66 85
75 66 85
76 67 85
76 67 85
76 68 85
76 68 85
77 69 85
77 69 85
77 70 85
77 70 85
78 71 85
78 71 85
78 72 85
78 72 85
79 73 85
79 73 85
79 74 85
79 74 85
80 75 85
80 75 85
80 76 85
80 76 85
81 77 85
81 77 85
81 78 85
81 78 85
82 79 85
82 79 85
146 144 149
146 144 149
147 145 149
147 145 149
147 146 149
147 146 149
148 147 149
148 147 149
148 148 149
148 148 149
149 149 149
149 149 149
149 150 149
149 150 149
150 151 149
150 151 149
150 152 149
150 152 149
151 153 149
151 153 149
151 154 149
151 154 149
152 155 149
152 155 149
152 156 149
152 156 149
153 157 149
153 157 149
153 158 149
153 158 149
154 159 149
154 159 149
90 96 85
90 96 85
91 97 85
91 97 85
91 98 85
91 98 85
92 99 85
92 99 85
92 100 85
92 100 85
93 101 85
93 101 85
93 102 85
93 102 85
94 103 85
94 103 85
94 104 85
94 104 85
95 105 85
95 105 85
95 106 85
95 106 85
96 107 85
96 107 85
96 108 85
96 108 85
97 109 85
97 109 85
97 110 85
97 110 85
98 111 85
98 111 85
162 176 149
162 176 149
163 177 149
163 177 149
163 178 149
163 178 149
164 179 149
164 179 149
164 180 149
164 180 149
165 181 149
165 181 149
165 182 149
165 182 149
166 183 149
166 183 149
166 184 149
166 184 149
167 185 149
167 185 149
167 186 149
167 186 149
168 187 149
168 187 149
168 188 149
168 188 149
169 189 149
169 189 149
169 190 149
169 190 149
170 191 149
170 191 149
106 128 85
106 128 85
107 129 85
107 129 85
107 130 85
107 130 85
108 131 85
108 131 85
108 132 85
108 132 85
109 133 85
109 133 85
109 134 85
109 134 85
110 135 85
110 135 85
110 136 85
110 136 85
111 137 85
111 137 85
111 138 85
111 138 85
112 139 85
112 139 85
112 140 85
112 140 85
113 141 85
113 141 85
113 142 85
113 142 85
114 143 85
114 143 85
178 208 149
178 208 149
179 209 149
179 209 149
179 210 149
179 210 149
180 211 149
180 211 149
180 212 149
180 212 149
181 213 149
181 213 149
181 214 149
181 214 149
182 215 149
182 215 149
182 216 149
182 216 149
183 217 149
183 217 149
183 218 149
183 218 149
184 219 149
184 219 149
184 220 149
184 220 149
185 221 149
185 221 149
185 222 149
185 222 149
186 223 149
186 223 149
122 160 85
122 160 85
123 161 85
123 161 85
123 162 85
123 162 85
124 163 85
124 163 85
124 164 85
124 164 85
125 165 85
125 165 85
125 166 85
125 166 85
126 167 85
126 167 85
126 168 85
126 168 85
127 169 85
127 169 85
127 170 85
127 170 85
128 171 85
128 171 85
128 172 85
128 172 85
129 173 85
129 173 85
129 174 85
129 174 85
130 175 85
130 175 85
194 240 149
194 240 149
195 241 149
195 241 149
195 242 149
195 242 149
196 243 149
196 243 149
196 244 149
196 244 149
197 245 149
197 245 149
197 246 149
197 246 149
198 247 149
198 247 149
198 248 149
198 248 149
199 249 149
199 249 149
199 250 149
199 250 149
200 251 149
200 251 149
200 252 149
200 252 149
201 253 149
201 253 149
201 254 149
201 254 149
202 255 149
202 255 149
74 64 85
75 64 85
75 65 85
75 65 85
75 66 85
76 66 85
76 67 85
76 67 85
76 68 85
77 68 85
77 69 85
77 69 85
77 70 85
78 70 85
78 71 85
78 71 85
78 72 85
79 72 85
79 73 85
79 73 85
79 74 85
80 74 85
80 75 85
80 75 85
80 76 85
81 76 85
81 77 85
81 77 85
81 78 85
82 78 85
82 79 85
82 79 85
146 144 149
147 144 149
147 145 149
147 145 149
147 146 149
148 146 149
148 147 149
148 147 149
148 148 149
149 148 149
149 149 149
149 149 149
149 150 149
150 150 149
150 151 149
150 151 149
150 152 149
151 152 149
151 153 149
151 153 149
151 154 149
152 154 149
152 155 149
152 155 149
152 156 149
153 156 149
153 157 149
153 157 149
153 158 149
154 158 149
154 159 149
154 159 149
90 96 85
91 96 85
91 97 85
91 97 85
91 98 85
92 98 85
92 99 85
92 99 85
92 100 85
93 100 85
93 101 85
93 101 85
93 102 85
94 102 85
94 103 85
94 103 85
94 104 85
95 104 85
95 105 85
95 105 85
95 106 85
96 106 85
96 107 85
96 107 85
96 108 85
97 108 85
97 109 85
97 109 85
97 110 85
98 110 85
98 111 85
98 111 85
162 176 149
163 176 149
163 177 149
163 177 149
163 178 149
164 178 149
164 179 149
164 179 149
164 180 149
165 180 149
165 181 149
165 181 149
165 182 149
166 182 149
166 183 149
166 183 149
166 184 149
167 184 149
167 185 149
167 185 149
167 186 149
168 186 149
168 187 149
168 187 149
168 188 149
169 188 149
169 189 149
169 189 149
169 190 149
170 190 149
170 191 149
170 191 149
106 128 85
107 128 85
107 129 85
107 129 85
107 130 85
108 130 85
108 131 85
108 131 85
108 132 85
109 132 85
109 133 85
109 133 85
109 134 85
110 134 85
110 135 85
110 135 85
110 136 85
111 136 85
111 137 85
111 137 85
111 138 85
112 138 85
112 139 85
112 139 85
112 140 85
113 140 85
113 141 85
113 141 85
113 142 85
114 142 85
114 143 85
114 143 85
178 208 149
179 208 149
179 209 149
179 209 149
179 210 149
180 210 149
180 211 149
180 211 149
180 212 149
181 212 149
181 213 149
181 213 149
181 214 149
182 214 149
182 215 149
182 215 149
182 216 149
183 216 149
183 217 149
183 217 149
183 218 149
184 218 149
184 219 149
184 219 149
184 220 149
185 220 149
185 221 149
185 221 149
185 222 149
186 222 149
186 223 149
186 223 149
122 160 85
123 160 85
123 161 85
123 161 85
123 162 85
124 162 85
124 163 85
124 163 85
124 164 85
125 164 85
125 165 85
125 165 85
125 166 85
126 166 85
126 167 85
126 167 85
126 168 85
127 168 85
127 169 85
127 169 85
127 170 85
128 170 85
128 171 85
128 171 85
128 172 85
129 172 85
129 173 85
129 173 85
129 174 85
130 174 85
130 175 85
130 175 85
194 240 149
195 240 149
195 241 149
195 241 149
195 242 149
196 242 149
196 243 149
196 243 149
196 244 149
197 244 149
197 245 149
197 245 149
197 246 149
198 246 149
198 247 149
198 247 149
198 248 149
199 248 149
199 249 149
199 249 149
199 250 149
200 250 149
200 251 149
200 251 149
200 252 149
201 252 149
201 253 149
201 253 149
201 254 149
202 254 149
202 255 149
202 255 149
75 64 86
75 64 86
75 65 86
75 65 86
76 66 86
76 66 86
76 67 86
76 67 86
77 68 86
77 68 86
77 69 86
77 69 86
78 70 86
78 70 86
78 71 86
78 71 86
79 72 86
79 72 86
79 73 86
79 73 86
80 74 86
80 74 86
80 75 86
80 75 86
81 76 86
81 76 86
81 77 86
81 77 86
82 78 86
82 78 86
82 79 86
82 79 86
147 144 150
147 144 150
147 145 150
147 145 150
148 146 150
148 146 150
148 147 150
148 147 150
149 148 150
149 148 150
149 149 150
149 149 150
150 150 150
150 150 150
150 151 150
150 151 150
151 152 150
151 152 150
151 153 150
151 153 150
152 154 150
152 154 150
152 155 150
152 155 150
153 156 150
153 156 150
153 157 150
153 157 150
154 158 150
154 158 150
154 159 150
154 159 150
91 96 86
91 96 86
91 97 86
91 97 86
92 98 86
92 98 86
92 99 86
92 99 86
93 100 86
93 100 86
93 101 86
93 101 86
94 102 86
94 102 86
94 103 86
94 103 86
95 104 86
95 104 86
95 105 86
95 105 86
96 106 86
96 106 86
96 107 86
96 107 86
97 108 86
97 108 86
97 109 86
97 109 86
98 110 86
98 110 86
98 111 86
98 111 86
163 176 150
163 176 150
163 177 150
163 177 150
164 178 150
164 178 150
164 179 150
164 179 150
165 180 150
165 180 150
165 181 150
165 181 150
166 182 150
166 182 150
166 183 150
166 183 150
167 184 150
167 184 150
167 185 150
167 185 150
168 186 150
168 186 150
168 187 150
168 187 150
169 188 150
169 188 150
169 189 150
169 189 150
170 190 150
170 190 150
170 191 150
170 191 150
107 128 86
107 128 86
107 129 86
107 129 86
108 130 86
108 130 86
108 131 86
108 131 86
109 132 86
109 132 86
109 133 86
109 133 86
110 134 86
110 134 86
110 135 86
110 135 86
111 136 86
111 136 86
111 137 86
111 137 86
112 138 86
112 138 86
112 139 86
112 139 86
113 140 86
113 140 86
113 141 86
113 141 86
114 142 86
114 142 86
114 143 86
114 143 86
179 208 150
179 208 150
179 209 150
179 209 150
180 210 150
180 210 150
180 211 150
180 211 150
181 212 150
181 212 150
181 213 150
181 213 150
182 214 150
182 214 150
182 215 150
182 215 150
183 216 150
183 216 150
183 217 150
183 217 150
184 218 150
184 218 150
184 219 150
184 219 150
185 220 150
185 220 150
185 221 150
185 221 150
186 222 150
186 222 150
186 223 150
186 223 150
123 160 86
123 160 86
123 161 86
123 161 86
124 162 86
124 162 86
124 163 86
124 163 86
125 164 86
125 164 86
125 165 86
125 165 86
126 166 86
126 166 86
126 167 86
126 167 86
127 168 86
127 168 86
127 169 86
127 169 86
128 170 86
128 170 86
128 171 86
128 171 86
129 172 86
129 172 86
129 173 86
129 173 86
130 174 86
130 174 86
130 175 86
130 175 86
195 240 150
195 240 150
195 241 150
195 241 150
196 242 150
196 242 150
196 243 150
196 243 150
197 244 150
197 244 150
197 245 150
197 245 150
198 246 150
198 246 150
198 247 150
198 247 150
199 248 150
199 248 150
199 249 150
199 249 150
200 250 150
200 250 150
200 251 150
200 251 150
201 252 150
201 252 150
201 253 150
201 253 150
202 254 150
202 254 150
202 255 150
202 255 150
75 64 86
75 64 86
75 65 86
76 65 86
76 66 86
76 66 86
76 67 86
77 67 86
77 68 86
77 68 86
77 69 86
78 69 86
78 70 86
78 70 86
78 71 86
79 71 86
79 72 86
79 72 86
79 73 86
80 73 86
80 74 86
80 74 86
80 75 86
81 75 86
81 76 86
81 76 86
81 77 86
82 77 86
82 78 86
82 78 86
82 79 86
83 79 86
147 144 150
147 144 150
147 145 150
148 145 150
148 146 150
148 146 150
148 147 150
149 147 150
149 148 150
149 148 150
149 149 150
150 149 150
150 150 150
150 150 150
150 151 150
151 151 150
151 152 150
151 152 150
151 153 150
152 153 150
152 154 150
152 154 150
152 155 150
153 155 150
153 156 150
153 156 150
153 157 150
154 157 150
154 158 150
154 158 150
154 159 150
155 159 150
91 96 86
91 96 86
91 97 86
92 97 86
92 98 86
92 98 86
92 99 86
93 99 86
93 100 86
93 100 86
93 101 86
94 101 86
94 102 86
94 102 86
94 103 86
95 103 86
95 104 86
95 104 86
95 105 86
96 105 86
96 106 86
96 106 86
96 107 86
97 107 86
97 108 86
97 108 86
97 109 86
98 109 86
98 110 86
98 110 86
98 111 86
99 111 86
163 176 150
163 176 150
163 177 150
164 177 150
164 178 150
164 178 150
164 179 150
165 179 150
165 180 150
165 180 150
165 181 150
166 181 150
166 182 150
166 182 150
166 183 150
167 183 150
167 184 150
167 184 150
167 185 150
168 185 150
168 186 150
168 186 150
168 187 150
169 187 150
169 188 150
169 188 150
169 189 150
170 189 150
170 190 150
170 190 150
170 191 150
171 191 150
107 128 86
107 128 86
107 129 86
108 129 86
108 130 86
108 130 86
108 131 86
109 131 86
109 132 86
109 132 86
109 133 86
110 133 86
110 134 86
110 134 86
110 135 86
111 135 86
111 136 86
111 136 86
111 137 86
112 137 86
112 138 86
112 138 86
112 139 86
113 139 86
113 140 86
113 140 86
113 141 86
114 141 86
114 142 86
114 142 86
114 143 86
115 143 86
179 208 150
179 208 150
179 209 150
180 209 150
180 210 150
180 210 150
180 211 150
181 211 150
181 212 150
181 212 150
181 213 150
182 213 150
182 214 150
182 214 150
182 215 150
183 215 150
183 216 150
183 216 150
183 217 150
184 217 150
184 218 150
184 218 150
184 219 150
185 219 150
185 220 150
185 220 150
185 221 150
186 221 150
186 222 150
186 222 150
186 223 150
187 223 150
123 160 86
123 160 86
123 161 86
124 161 86
124 162 86
124 162 86
124 163 86
125 163 86
125 164 86
125 164 86
125 165 86
126 165 86
126 166 86
126 166 86
126 167 86
127 167 86
127 168 86
127 168 86
127 169 86
128 169 86
128 170 86
128 170 86
128 171 86
129 171 86
129 172 86
129 172 86
129 173 86
130 173 86
130 174 86
130 174 86
130 175 86
131 175 86
195 240 150
195 240 150
195 241 150
196 241 150
196 242 150
196 242 150
196 243 150
197 243 150
197 244 150
197 244 150
197 245 150
198 245 150
198 246 150
198 246 150
198 247 150
199 247 150
199 248 150
199 248 150
199 249 150
200 249 150
200 250 150
200 250 150
200 251 150
201 251 150
201 252 150
201 252 150
201 253 150
202 253 150
202 254 150
202 254 150
202 255 150
203 255 150
75 64 87
75 64 87
76 65 87
76 65 87
76 66 87
76 66 87
77 67 87
77 67 87
77 68 87
77 68 87
78 69 87
78 69 87
78 70 87
78 70 87
79 71 87
79 71 87
79 72 87
79 72 87
80 73 87
80 73 87
80 74 87
80 74 87
81 75 87
81 75 87
81 76 87
81 76 87
82 77 87
82 77 87
82 78 87
82 78 87
83 79 87
83 79 87
147 144 151
147 144 151
148 145 151
148 145 151
148 146 151
148 146 151
149 147 151
149 147 151
149 148 151
149 148 151
150 149 151
150 149 151
150 150 151
150 150 151
151 151 151
151 151 151
151 152 151
151 152 151
152 153 151
152 153 151
152 154 151
152 154 151
153 155 151
153 155 151
153 156 151
153 156 151
154 157 151
154 157 151
154 158 151
154 158 151
155 159 151
155 159 151
91 96 87
91 96 87
92 97 87
92 97 87
92 98 87
92 98 87
93 99 87
93 99 87
93 100 87
93 100 87
94 101 87
94 101 87
94 102 87
94 102 87
95 103 87
95 103 87
95 104 87
95 104 87
96 105 87
96 105 87
96 106 87
96 106 87
97 107 87
97 107 87
97 108 87
97 108 87
98 109 87
98 109 87
98 110 87
98 110 87
99 111 87
99 111 87
163 176 151
163 176 151
164 177 151
164 177 151
164 178 151
164 178 151
165 179 151
165 179 151
165 180 151
165 180 151
166 181 151
166 181 151
166 182 151
166 182 151
167 183 151
167 183 151
167 184 151
167 184 151
168 185 151
168 185 151
168 186 151
168 186 151
169 187 151
169 187 151
169 188 151
169 188 151
170 189 151
170 189 151
170 190 151
170 190 151
171 191 151
171 191 151
107 128 87
107 128 87
108 129 87
108 129 87
108 130 87
108 130 87
109 131 87
109 131 87
109 132 87
109 132 87
110 133 87
110 133 87
110 134 87
110 134 87
111 135 87
111 135 87
111 136 87
111 136 87
112 137 87
112 137 87
112 138 87
112 138 87
113 139 87
113 139 87
113 140 87
113 140 87
114 141 87
114 141 87
114 142 87
114 142 87
115 143 87
115 143 87
179 208 151
179 208 151
180 209 151
180 209 151
180 210 151
180 210 151
181 211 151
181 211 151
181 212 151
181 212 151
182 213 151
182 213 151
182 214 151
182 214 151
183 215 151
183 215 151
183 216 151
183 216 151
184 217 151
184 217 151
184 218 151
184 218 151
185 219 151
185 219 151
185 220 151
185 220 151
186 221 151
186 221 151
186 222 151
186 222 151
187 223 151
187 223 151
123 160 87
123 160 87
124 161 87
124 161 87
124 162 87
124 162 87
125 163 87
125 163 87
125 164 87
125 164 87
126 165 87
126 165 87
126 166 87
126 166 87
127 167 87
127 167 87
127 168 87
127 168 87
128 169 87
128 169 87
128 170 87
128 170 87
129 171 87
129 171 87
129 172 87
129 172 87
130 173 87
130 173 87
130 174 87
130 174 87
131 175 87
131 175 87
195 240 151
195 240 151
196 241 151
196 241 151
196 242 151
196 242 151
197 243 151
197 243 151
197 244 151
197 244 151
198 245 151
198 245 151
198 246 151
198 246 151
199 247 151
199 247 151
199 248 151
199 248 151
200 249 151
200 249 151
200 250 151
200 250 151
201 251 151
201 251 151
201 252 151
201 252 151
202 253 151
202 253 151
202 254 151
202 254 151
203 255 151
203 255 151
75 64 87
76 64 87
76 65 87
76 65 87
76 66 87
77 66 87
77 67 87
77 67 87
77 68 87
78 68 87
78 69 87
78 69 87
78 70 87
79 70 87
79 71 87
79 71 87
79 72 87
80 72 87
80 73 87
80 73 87
80 74 87
81 74 87
81 75 87
81 75 87
81 76 87
82 76 87
82 77 87
82 77 87
82 78 87
83 78 87
83 79 87
83 79 87
147 144 151
148 144 151
148 145 151
148 145 151
148 146 151
149 146 151
149 147 151
149 147 151
149 148 151
150 148 151
150 149 151
150 149 151
150 150 151
151 150 151
151 151 151
151 151 151
151 152 151
152 152 151
152 153 151
152 153 151
152 154 151
153 154 151
153 155 151
153 155 151
153 156 151
154 156 151
154 157 151
154 157 151
154 158 151
155 158 151
155 159 151
155 159 151
91 96 87
92 96 87
92 97 87
92 97 87
92 98 87
93 98 87
93 99 87
93 99 87
93 100 87
94 100 87
94 101 87
94 101 87
94 102 87
95 102 87
95 103 87
95 103 87
95 104 87
96 104 87
96 105 87
96 105 87
96 106 87
97 106 87
97 107 87
97 107 87
97 108 87
98 108 87
98 109 87
98 109 87
98 110 87
99 110 87
99 111 87
99 111 87
163 176 151
164 176 151
164 177 151
164 177 151
164 178 151
165 178 151
165 179 151
165 179 151
165 180 151
166 180 151
166 181 151
166 181 151
166 182 151
167 182 151
167 183 151
167 183 151
167 184 151
168 184 151
168 185 151
168 185 151
168 186 151
169 186 151
169 187 151
169 187 151
169 188 151
170 188 151
170 189 151
170 189 151
170 190 151
171 190 151
171 191 151
171 191 151
107 128 87
108 128 87
108 129 87
108 129 87
108 130 87
109 130 87
109 131 87
109 131 87
109 132 87
110 132 87
110 133 87
110 133 87
110 134 87
111 134 87
111 135 87
111 135 87
111 136 87
112 136 87
112 137 87
112 137 87
112 138 87
113 138 87
113 139 87
113 139 87
113 140 87
114 140 87
114 141 87
114 141 87
114 142 87
115 142 87
115 143 87
115 143 87
179 208 151
180 208 151
180 209 151
180 209 151
180 210 151
181 210 151
181 211 151
181 211 151
181 212 151
182 212 151
182 213 151
182 213 151
182 214 151
183 214 151
183 215 151
183 215 151
183 216 151
184 216 151
184 217 151
184 217 151
184 218 151
185 218 151
185 219 151
185 219 151
185 220 151
186 220 151
186 221 151
186 221 151
186 222 151
187 222 151
187 223 151
187 223 151
123 160 87
124 160 87
124 161 87
124 161 87
124 162 87
125 162 87
125 163 87
125 163 87
125 164 87
126 164 87
126 165 87
126 165 87
126 166 87
127 166 87
127 167 87
127 167 87
127 168 87
128 168 87
128 169 87
128 169 87
128 170 87
129 170 87
129 171 87
129 171 87
129 172 87
130 172 87
130 173 87
130 173 87
130 174 87
131 174 87
131 175 87
131 175 87
195 240 151
196 240 151
196 241 151
196 241 151
196 242 151
197 242 151
197 243 151
197 243 151
197 244 151
198 244 151
198 245 151
198 245 151
198 246 151
199 246 151
199 247 151
199 247 151
199 248 151
200 248 151
200 249 151
200 249 151
200 250 151
201 250 151
201 251 151
201 251 151
201 252 151
202 252 151
202 253 151
202 253 151
202 254 151
203 254 151
203 255 151
203 255 151
76 64 88
76 64 88
76 65 88
76 65 88
77 66 88
77 66 88
77 67 88
77 67 88
78 68 88
78 68 88
78 69 88
78 69 88
79 70 88
79 70 88
79 71 88
79 71 88
80 72 88
80 72 88
80 73 88
80 73 88
81 74 88
81 74 88
81 75 88
81 75 88
82 76 88
82 76 88
82 77 88
82 77 88
83 78 88
83 78 88
83 79 88
83 79 88
148 144 152
148 144 152
148 145 152
148 145 152
149 146 152
149 146 152
149 147 152
149 147 152
150 148 152
150 148 152
150 149 152
150 149 152
151 150 152
151 150 152
151 151 152
151 151 152
152 152 152
152 152 152
152 153 152
152 153 152
153 154 152
153 154 152
153 155 152
153 155 152
154 156 152
154 156 152
154 157 152
154 157 152
155 158 152
155 158 152
155 159 152
155 159 152
92 96 88
92 96 88
92 97 88
92 97 88
93 98 88
93 98 88
93 99 88
93 99 88
94 100 88
94 100 88
94 101 88
94 101 88
95 102 88
95 102 88
95 103 88
95 103 88
96 104 88
96 104 88
96 105 88
96 105 88
97 106 88
97 106 88
97 107 88
97 107 88
98 108 88
98 108 88
98 109 88
98 109 88
99 110 88
99 110 88
99 111 88
99 111 88
164 176 152
164 176 152
164 177 152
164 177 152
165 178 152
165 178 152
165 179 152
165 179 152
166 180 152
166 180 152
166 181 152
166 181 152
167 182 152
167 182 152
167 183 152
167 183 152
168 184 152
168 184 152
168 185 152
168 185 152
169 186 152
169 186 152
169 187 152
169 187 152
170 188 152
170 188 152
170 189 152
170 189 152
171 190 152
171 190 152
171 191 152
171 191 152
108 128 88
108 128 88
108 129 88
108 129 88
109 130 88
109 130 88
109 131 88
109 131 88
110 132 88
110 132 88
110 133 88
110 133 88
111 134 88
111 134 88
111 135 88
111 135 88
112 136 88
112 136 88
112 137 88
112 137 88
113 138 88
113 138 88
113 139 88
113 139 88
114 140 88
114 140 88
114 141 88
114 141 88
115 142 88
115 142 88
115 143 88
115 143 88
180 208 152
180 208 152
180 209 152
180 209 152
181 210 152
181 210 152
181 211 152
181 211 152
182 212 152
182 212 152
182 213 152
182 213 152
183 214 152
183 214 152
183 215 152
183 215 152
184 216 152
184 216 152
184 217 152
184 217 152
185 218 152
185 218 152
185 219 152
185 219 152
186 220 152
186 220 152
186 221 152
186 221 152
187 222 152
187 222 152
187 223 152
187 223 152
124 160 88
124 160 88
124 161 88
124 161 88
125 162 88
125 162 88
125 163 88
125 163 88
126 164 88
126 164 88
126 165 88
126 165 88
127 166 88
127 166 88
127 167 88
127 167 88
128 168 88
128 168 88
128 169 88
128 169 88
129 170 88
129 170 88
129 171 88
129 171 88
130 172 88
130 172 88
130 173 88
130 173 88
131 174 88
131 174 88
131 175 88
131 175 88
196 240 152
196 240 152
196 241 152
196 241 152
197 242 152
197 242 152
197 243 152
197 243 152
198 244 152
198 244 152
198 245 152
198 245 152
199 246 152
199 246 152
199 247 152
199 247 152
200 248 152
200 248 152
200 249 152
200 249 152
201 250 152
201 250 152
201 251 152
201 251 152
202 252 152
202 252 152
202 253 152
202 253 152
203 254 152
203 254 152
203 255 152
203 255 152
76 64 88
76 64 88
76 65 88
77 65 88
77 66 88
77 66 88
77 67 88
78 67 88
78 68 88
78 68 88
78 69 88
79 69 88
79 70 88
79 70 88
79 71 88
80 71 88
80 72 88
80 72 88
80 73 88
81 73 88
81 74 88
81 74 88
81 75 88
82 75 88
82 76 88
82 76 88
82 77 88
83 77 88
83 78 88
83 78 88
83 79 88
84 79 88
148 144 152
148 144 152
148 145 152
149 145 152
149 146 152
149 146 152
149 147 152
150 147 152
150 148 152
150 148 152
150 149 152
151 149 152
151 150 152
151 150 152
151 151 152
152 151 152
152 152 152
152 152 152
152 153 152
153 153 152
153 154 152
153 154 152
153 155 152
154 155 152
154 156 152
154 156 152
154 157 152
155 157 152
155 158 152
155 158 152
155 159 152
156 159 152
92 96 88
92 96 88
92 97 88
93 97 88
93 98 88
93 98 88
93 99 88
94 99 88
94 100 88
94 100 88
94 101 88
95 101 88
95 102 88
95 102 88
95 103 88
96 103 88
96 104 88
96 104 88
96 105 88
97 105 88
97 106 88
97 106 88
97 107 88
98 107 88
98 108 88
98 108 88
98 109 88
99 109 88
99 110 88
99 110 88
99 111 88
100 111 88
164 176 152
164 176 152
164 177 152
165 177 152
165 178 152
165 178 152
165 179 152
166 179 152
166 180 152
166 180 152
166 181 152
167 181 152
167 182 152
167 182 152
167 183 152
168 183 152
168 184 152
168 184 152
168 185 152
169 185 152
169 186 152
169 186 152
169 187 152
170 187 152
170 188 152
170 188 152
170 189 152
171 189 152
171 190 152
171 190 152
171 191 152
172 191 152
108 128 88
108 128 88
108 129 88
109 129 88
109 130 88
109 130 88
109 131 88
110 131 88
110 132 88
110 132 88
110 133 88
111 133 88
111 134 88
111 134 88
111 135 88
112 135 88
112 136 88
112 136 88
112 137 88
113 137 88
113 138 88
113 138 88
113 139 88
114 139 88
114 140 88
114 140 88
114 141 88
115 141 88
115 142 88
115 142 88
115 143 88
116 143 88
180 208 152
180 208 152
180 209 152
181 209 152
181 210 152
181 210 152
181 211 152
182 211 152
182 212 152
182 212 152
182 213 152
183 213 152
183 214 152
183 214 152
183 215 152
184 215 152
184 216 152
184 216 152
184 217 152
185 217 152
185 218 152
185 218 152
185 219 152
186 219 152
186 220 152
186 220 152
186 221 152
187 221 152
187 222 152
187 222 152
187 223 152
188 223 152
124 160 88
124 160 88
124 161 88
125 161 88
125 162 88
125 162 88
125 163 88
126 163 88
126 164 88
126 164 88
126 165 88
127 165 88
127 166 88
127 166 88
127 167 88
128 167 88
128 168 88
128 168 88
128 169 88
129 169 88
129 170 88
129 170 88
129 171 88
130 171 88
130 172 88
130 172 88
130 173 88
131 173 88
131 174 88
131 174 88
131 175 88
132 175 88
196 240 152
196 240 152
196 241 152
197 241 152
197 242 152
197 242 152
197 243 152
198 243 152
198 244 152
198 244 152
198 245 152
199 245 152
199 246 152
199 246 152
199 247 152
200 247 152
200 248 152
200 248 152
200 249 152
201 249 152
201 250 152
201 250 152
201 251 152
202 251 152
202 252 152
202 252 152
202 253 152
203 253 152
203 254 152
203 254 152
203 255 152
204 255 152
76 64 89
76 64 89
77 65 89
77 65 89
77 66 89
77 66 89
78 67 89
78 67 89
78 68 89
78 68 89
79 69 89
79 69 89
79 70 89
79 70 89
80 71 89
80 71 89
80 72 89
80 72 89
81 73 89
81 73 89
81 74 89
81 74 89
82 75 89
82 75 89
82 76 89
82 76 89
83 77 89
83 77 89
83 78 89
83 78 89
84 79 89
84 79 89
148 144 153
148 144 153
149 145 153
149 145 153
149 146 153
149 146 153
150 147 153
150 147 153
150 148 153
150 148 153
151 149 153
151 149 153
151 150 153
151 150 153
152 151 153
152 151 153
152 152 153
152 152 153
153 153 153
153 153 153
153 154 153
153 154 153
154 155 153
154 155 153
154 156 153
154 156 153
155 157 153
155 157 153
155 158 153
155 158 153
156 159 153
156 159 153
92 96 89
92 96 89
93 97 89
93 97 89
93 98 89
93 98 89
94 99 89
94 99 89
94 100 89
94 100 89
95 101 89
95 101 89
95 102 89
95 102 89
96 103 89
96 103 89
96 104 89
96 104 89
97 105 89
97 105 89
97 106 89
97 106 89
98 107 89
98 107 89
98 108 89
98 108 89
99 109 89
99 109 89
99 110 89
99 110 89
100 111 89
100 111 89
164 176 153
164 176 153
165 177 153
165 177 153
165 178 153
165 178 153
166 179 153
166 179 153
166 180 153
166 180 153
167 181 153
167 181 153
167 182 153
167 182 153
168 183 153
168 183 153
168 184 153
168 184 153
169 185 153
169 185 153
169 186 153
169 186 153
170 187 153
170 187 153
170 188 153
170 188 153
171 189 153
171 189 153
171 190 153
171 190 153
172 191 153
172 191 153
108 128 89
108 128 89
109 129 89
109 129 89
109 130 89
109 130 89
110 131 89
110 131 89
110 132 89
110 132 89
111 133 89
111 133 89
111 134 89
111 134 89
112 135 89
112 135 89
112 136 89
112 136 89
113 137 89
113 137 89
113 138 89
113 138 89
114 139 89
114 139 89
114 140 89
114 140 89
115 141 89
115 141 89
115 142 89
115 142 89
116 143 89
116 143 89
180 208 153
180 208 153
181 209 153
181 209 153
181 210 153
181 210 153
182 211 153
182 211 153
182 212 153
182 212 153
183 213 153
183 213 153
183 214 153
183 214 153
184 215 153
184 215 153
184 216 153
184 216 153
185 217 153
185 217 153
185 218 153
185 218 153
186 219 153
186 219 153
186 220 153
186 220 153
187 221 153
187 221 153
187 222 153
187 222 153
188 223 153
188 223 153
124 160 89
124 160 89
125 161 89
125 161 89
125 162 89
125 162 89
126 163 89
126 163 89
126 164 89
126 164 89
127 165 89
127 165 89
127 166 89
127 166 89
128 167 89
128 167 89
128 168 89
128 168 89
129 169 89
129 169 89
129 170 89
129 170 89
130 171 89
130 171 89
130 172 89
130 172 89
131 173 89
131 173 89
131 174 89
131 174 89
132 175 89
132 175 89
196 240 153
196 240 153
197 241 153
197 241 153
197 242 153
197 242 153
198 243 153
198 243 153
198 244 153
198 244 153
199 245 153
199 245 153
199 246 153
199 246 153
200 247 153
200 247 153
200 248 153
200 248 153
201 249 153
201 249 153
201 250 153
201 250 153
202 251 153
202 251 153
202 252 153
202 252 153
203 253 153
203 253 153
203 254 153
203 254 153
204 255 153
204 255 153
76 64 89
77 64 89
77 65 89
77 65 89
77 66 89
78 66 89
78 67 89
78 67 89
78 68 89
79 68 89
79 69 89
79 69 89
79 70 89
80 70 89
80 71 89
80 71 89
80 72 89
81 72 89
81 73 89
81 73 89
81 74 89
82 74 89
82 75 89
82 75 89
82 76 89
83 76 89
83 77 89
83 77 89
83 78 89
84 78 89
84 79 89
84 79 89
148 144 153
149 144 153
149 145 153
149 145 153
149 146 153
150 146 153
150 147 153
150 147 153
150 148 153
151 148 153
151 149 153
151 149 153
151 150 153
152 150 153
152 151 153
152 151 153
152 152 153
153 152 153
153 153 153
153 153 153
153 154 153
154 154 153
154 155 153
154 155 153
154 156 153
155 156 153
155 157 153
155 157 153
155 158 153
156 158 153
156 159 153
156 159 153
92 96 89
93 96 89
93 97 89
93 97 89
93 98 89
94 98 89
94 99 89
94 99 89
94 100 89
95 100 89
95 101 89
95 101 89
95 102 89
96 102 89
96 103 89
96 103 89
96 104 89
97 104 89
97 105 89
97 105 89
97 106 89
98 106 89
98 107 89
98 107 89
98 108 89
99 108 89
99 109 89
99 109 89
99 110 89
100 110 89
100 111 89
100 111 89
164 176 153
165 176 153
165 177 153
165 177 153
165 178 153
166 178 153
166 179 153
166 179 153
166 180 153
167 180 153
167 181 153
167 181 153
167 182 153
168 182 153
168 183 153
168 183 153
168 184 153
169 184 153
169 185 153
169 185 153
169 186 153
170 186 153
170 187 153
170 187 153
170 188 153
171 188 153
171 189 153
171 189 153
171 190 153
172 190 153
172 191 153
172 191 153
108 128 89
109 128 89
109 129 89
109 129 89
109 130 89
110 130 89
110 131 89
110 131 89
110 132 89
111 132 89
111 133 89
111 133 89
111 134 89
112 134 89
112 135 89
112 135 89
112 136 89
113 136 89
113 137 89
113 137 89
113 138 89
114 138 89
114 139 89
114 139 89
114 140 89
115 140 89
115 141 89
115 141 89
115 142 89
116 142 89
116 143 89
116 143 89
180 208 153
181 208 153
181 209 153
181 209 153
181 210 153
182 210 153
182 211 153
182 211 153
182 212 153
183 212 153
183 213 153
183 213 153
183 214 153
184 214 153
184 215 153
184 215 153
184 216 153
185 216 153
185 217 153
185 217 153
185 218 153
186 218 153
186 219 153
186 219 153
186 220 153
187 220 153
187 221 153
187 221 153
187 222 153
188 222 153
188 223 153
188 223 153
124 160 89
125 160 89
125 161 89
125 161 89
125 162 89
126 162 89
126 163 89
126 163 89
126 164 89
127 164 89
127 165 89
127 165 89
127 166 89
128 166 89
128 167 89
128 167 89
128 168 89
129 168 89
129 169 89
129 169 89
129 170 89
130 170 89
130 171 89
130 171 89
130 172 89
131 172 89
131 173 89
131 173 89
131 174 89
132 174 89
132 175 89
132 175 89
196 240 153
197 240 153
197 241 153
197 241 153
197 242 153
198 242 153
198 243 153
198 243 153
198 244 153
199 244 153
199 245 153
199 245 153
199 246 153
200 246 153
200 247 153
200 247 153
200 248 153
201 248 153
201 249 153
201 249 153
201 250 153
202 250 153
202 251 153
202 251 153
202 252 153
203 252 153
203 253 153
203 253 153
203 254 153
204 254 153
204 255 153
204 255 153
77 64 90
77 64 90
77 65 90
77 65 90
78 66 90
78 66 90
78 67 90
78 67 90
79 68 90
79 68 90
79 69 90
79 69 90
80 70 90
80 70 90
80 71 90
80 71 90
81 72 90
81 72 90
81 73 90
81 73 90
82 74 90
82 74 90
82 75 90
82 75 90
83 76 90
83 76 90
83 77 90
83 77 90
84 78 90
84 78 90
84 79 90
84 79 90
149 144 154
149 144 154
149 145 154
149 145 154
150 146 154
150 146 154
150 147 154
150 147 154
151 148 154
151 148 154
151 149 154
151 149 154
152 150 154
152 150 154
152 151 154
152 151 154
153 152 154
153 152 154
153 153 154
153 153 154
154 154 154
154 154 154
154 155 154
154 155 154
155 156 154
155 156 154
155 157 154
155 157 154
156 158 154
156 158 154
156 159 154
156 159 154
93 96 90
93 96 90
93 97 90
93 97 90
94 98 90
94 98 90
94 99 90
94 99 90
95 100 90
95 100 90
95 101 90
95 101 90
96 102 90
96 102 90
96 103 90
96 103 90
97 104 90
97 104 90
97 105 90
97 105 90
98 106 90
98 106 90
98 107 90
98 107 90
99 108 90
99 108 90
99 109 90
99 109 90
100 110 90
100 110 90
100 111 90
100 111 90
165 176 154
165 176 154
165 177 154
165 177 154
166 178 154
166 178 154
166 179 154
166 179 154
167 180 154
167 180 154
167 181 154
167 181 154
168 182 154
168 182 154
168 183 154
168 183 154
169 184 154
169 184 154
169 185 154
169 185 154
170 186 154
170 186 154
170 187 154
170 187 154
171 188 154
171 188 154
171 189 154
171 189 154
172 190 154
172 190 154
172 191 154
172 191 154
109 128 90
109 128 90
109 129 90
109 129 90
110 130 90
110 130 90
110 131 90
110 131 90
111 132 90
111 132 90
111 133 90
111 133 90
112 134 90
112 134 90
112 135 90
112 135 90
113 136 90
113 136 90
113 137 90
113 137 90
114 138 90
114 138 90
114 139 90
114 139 90
115 140 90
115 140 90
115 141 90
115 141 90
116 142 90
116 142 90
116 143 90
116 143 90
181 208 154
181 208 154
181 209 154
181 209 154
182 210 154
182 210 154
182 211 154
182 211 154
183 212 154
183 212 154
183 213 154
183 213 154
184 214 154
184 214 154
184 215 154
184 215 154
185 216 154
185 216 154
185 217 154
185 217 154
186 218 154
186 218 154
186 219 154
186 219 154
187 220 154
187 220 154
187 221 154
187 221 154
188 222 154
188 222 154
188 223 154
188 223 154
125 160 90
125 160 90
125 161 90
125 161 90
126 162 90
126 162 90
126 163 90
126 163 90
127 164 90
127 164 90
127 165 90
127 165 90
128 166 90
128 166 90
128 167 90
128 167 90
129 168 90
129 168 90
129 169 90
129 169 90
130 170 90
130 170 90
130 171 90
130 171 90
131 172 90
131 172 90
131 173 90
131 173 90
132 174 90
132 174 90
132 175 90
132 175 90
197 240 154
197 240 154
197 241 154
197 241 154
198 242 154
198 242 154
198 243 154
198 243 154
199 244 154
199 244 154
199 245 154
199 245 154
200 246 154
200 246 154
200 247 154
200 247 154
201 248 154
201 248 154
201 249 154
201 249 154
202 250 154
202 250 154
202 251 154
202 251 154
203 252 154
203 252 154
203 253 154
203 253 154
204 254 154
204 254 154
204 255 154
204 255 154
77 64 90
77 64 90
77 65 90
78 65 90
78 66 90
78 66 90
78 67 90
79 67 90
79 68 90
79 68 90
79 69 90
80 69 90
80 70 90
80 70 90
80 71 90
81 71 90
81 72 90
81 72 90
81 73 90
82 73 90
82 74 90
82 74 90
82 75 90
83 75 90
83 76 90
83 76 90
83 77 90
84 77 90
84 78 90
84 78 90
84 79 90
85 79 90
149 144 154
149 144 154
149 145 154
150 145 154
150 146 154
150 146 154
150 147 154
151 147 154
151 148 154
151 148 154
151 149 154
152 149 154
152 150 154
152 150 154
152 151 154
153 151 154
153 152 154
153 152 154
153 153 154
154 153 154
154 154 154
154 154 154
154 155 154
155 155 154
155 156 154
155 156 154
155 157 154
156 157 154
156 158 154
156 158 154
156 159 154
157 159 154
93 96 90
93 96 90
93 97 90
94 97 90
94 98 90
94 98 90
94 99 90
95 99 90
95 100 90
95 100 90
95 101 90
96 101 90
96 102 90
96 102 90
96 103 90
97 103 90
97 104 90
97 104 90
97 105 90
98 105 90
98 106 90
98 106 90
98 107 90
99 107 90
99 108 90
99 108 90
99 109 90
100 109 90
100 110 90
100 110 90
100 111 90
101 111 90
165 176 154
165 176 154
165 177 154
166 177 154
166 178 154
166 178 154
166 179 154
167 179 154
167 180 154
167 180 154
167 181 154
168 181 154
168 182 154
168 182 154
168 183 154
169 183 154
169 184 154
169 184 154
169 185 154
170 185 154
170 186 154
170 186 154
170 187 154
171 187 154
171 188 154
171 188 154
171 189 154
172 189 154
172 190 154
172 190 154
172 191 154
173 191 154
109 128 90
109 128 90
109 129 90
110 129 90
110 130 90
110 130 90
110 131 90
111 131 90
111 132 90
111 132 90
111 133 90
112 133 90
112 134 90
112 134 90
112 135 90
113 135 90
113 136 90
113 136 90
113 137 90
114 137 90
114 138 90
114 138 90
114 139 90
115 139 90
115 140 90
115 140 90
115 141 90
116 141 90
116 142 90
116 142 90
116 143 90
117 143 90
181 208 154
181 208 154
181 209 154
182 209 154
182 210 154
182 210 154
182 211 154
183 211 154
183 212 154
183 212 154
183 213 154
184 213 154
184 214 154
184 214 154
184 215 154
185 215 154
185 216 154
185 216 154
185 217 154
186 217 154
186 218 154
186 218 154
186 219 154
187 219 154
187 220 154
187 220 154
187 221 154
188 221 154
188 222 154
188 222 154
188 223 154
189 223 154
125 160 90
125 160 90
125 161 90
126 161 90
126 162 90
126 162 90
126 163 90
127 163 90
127 164 90
127 164 90
127 165 90
128 165 90
128 166 90
128 166 90
128 167 90
129 167 90
129 168 90
129 168 90
129 169 90
130 169 90
130 170 90
130 170 90
130 171 90
131 171 90
131 172 90
131 172 90
131 173 90
132 173 90
132 174 90
132 174 90
132 175 90
133 175 90
197 240 154
197 240 154
197 241 154
198 241 154
198 242 154
198 242 154
198 243 154
199 243 154
199 244 154
199 244 154
199 245 154
200 245 154
200 246 154
200 246 154
200 247 154
201 247 154
201 248 154
201 248 154
201 249 154
202 249 154
202 250 154
202 250 154
202 251 154
203 251 154
203 252 154
203 252 154
203 253 154
204 253 154
204 254 154
204 254 154
204 255 154
205 255 154
77 64 91
77 64 91
78 65 91
78 65 91
78 66 91
78 66 91
79 67 91
79 67 91
79 68 91
79 68 91
80 69 91
80 69 91
80 70 91
80 70 91
81 71 91
81 71 91
81 72 91
81 72 91
82 73 91
82 73 91
82 74 91
82 74 91
83 75 91
83 75 91
83 76 91
83 76 91
84 77 91
84 77 91
84 78 91
84 78 91
85 79 91
85 79 91
149 144 155
149 144 155
150 145 155
150 145 155
150 146 155
150 146 155
151 147 155
151 147 155
151 148 155
151 148 155
152 149 155
152 149 155
152 150 155
152 150 155
153 151 155
153 151 155
153 152 155
153 152 155
154 153 155
154 153 155
154 154 155
154 154 155
155 155 155
155 155 155
155 156 155
155 156 155
156 157 155
156 157 155
156 158 155
156 158 155
157 159 155
157 159 155
93 96 91
93 96 91
94 97 91
94 97 91
94 98 91
94 98 91
95 99 91
95 99 91
95 100 91
95 100 91
96 101 91
96 101 91
96 102 91
96 102 91
97 103 91
97 103 91
97 104 91
97 104 91
98 105 91
98 105 91
98 106 91
98 106 91
99 107 91
99 107 91
99 108 91
99 108 91
100 109 91
100 109 91
100 110 91
100 110 91
101 111 91
101 111 91
165 176 155
165 176 155
166 177 155
166 177 155
166 178 155
166 178 155
167 179 155
167 179 155
167 180 155
167 180 155
168 181 155
168 181 155
168 182 155
168 182 155
169 183 155
169 183 155
169 184 155
169 184 155
170 185 155
170 185 155
170 186 155
170 186 155
171 187 155
171 187 155
171 188 155
171 188 155
172 189 155
172 189 155
172 190 155
172 190 155
173 191 155
173 191 155
109 128 91
109 128 91
110 129 91
110 129 91
110 130 91
110 130 91
111 131 91
111 131 91
111 132 91
111 132 91
112 133 91
112 133 91
112 134 91
112 134 91
113 135 91
113 135 91
113 136 91
113 136 91
114 137 91
114 137 91
114 138 91
114 138 91
115 139 91
115 139 91
115 140 91
115 140 91
116 141 91
116 141 91
116 142 91
116 142 91
117 143 91
117 143 91
181 208 155
181 208 155
182 209 155
182 209 155
182 210 155
182 210 155
183 211 155
183 211 155
183 212 155
183 212 155
184 213 155
184 213 155
184 214 155
184 214 155
185 215 155
185 215 155
185 216 155
185 216 155
186 217 155
186 217 155
186 218 155
186 218 155
187 219 155
187 219 155
187 220 155
187 220 155
188 221 155
188 221 155
188 222 155
188 222 155
189 223 155
189 223 155
125 160 91
125 160 91
126 161 91
126 161 91
126 162 91
126 162 91
127 163 91
127 163 91
127 164 91
127 164 91
128 165 91
128 165 91
128 166 91
128 166 91
129 167 91
129 167 91
129 168 91
129 168 91
130 169 91
130 169 91
130 170 91
130 170 91
131 171 91
131 171 91
131 172 91
131 172 91
132 173 91
132 173 91
132 174 91
132 174 91
133 175 91
133 175 91
197 240 155
197 240 155
198 241 155
198 241 155
198 242 155
198 242 155
199 243 155
199 243 155
199 244 155
199 244 155
200 245 155
200 245 155
200 246 155
200 246 155
201 247 155
201 247 155
201 248 155
201 248 155
202 249 155
202 249 155
202 250 155
202 250 155
203 251 155
203 251 155
203 252 155
203 252 155
204 253 155
204 253 155
204 254 155
204 254 155
205 255 155
205 255 155
77 64 91
78 64 91
78 65 91
78 65 91
78 66 91
79 66 91
79 67 91
79 67 91
79 68 91
80 68 91
80 69 91
80 69 91
80 70 91
81 70 91
81 71 91
81 71 91
81 72 91
82 72 91
82 73 91
82 73 91
82 74 91
83 74 91
83 75 91
83 75 91
83 76 91
84 76 91
84 77 91
84 77 91
84 78 91
85 78 91
85 79 91
85 79 91
149 144 155
150 144 155
150 145 155
150 145 155
150 146 155
151 146 155
151 147 155
151 147 155
151 148 155
152 148 155
152 149 155
152 149 155
152 150 155
153 150 155
153 151 155
153 151 155
153 152 155
154 152 155
154 153 155
154 153 155
154 154 155
155 154 155
155 155 155
155 155 155
155 156 155
156 156 155
156 157 155
156 157 155
156 158 155
157 158 155
157 159 155
157 159 155
93 96 91
94 96 91
94 97 91
94 97 91
94 98 91
95 98 91
95 99 91
95 99 91
95 100 91
96 100 91
96 101 91
96 101 91
96 102 91
97 102 91
97 103 91
97 103 91
97 104 91
98 104 91
98 105 91
98 105 91
98 106 91
99 106 91
99 107 91
99 107 91
99 108 91
100 108 91
100 109 91
100 109 91
100 110 91
101 110 91
101 111 91
101 111 91
165 176 155
166 176 155
166 177 155
166 177 155
166 178 155
167 178 155
167 179 155
167 179 155
167 180 155
168 180 155
168 181 155
168 181 155
168 182 155
169 182 155
169 183 155
169 183 155
169 184 155
170 184 155
170 185 155
170 185 155
170 186 155
171 186 155
171 187 155
171 187 155
171 188 155
172 188 155
172 189 155
172 189 155
172 190 155
173 190 155
173 191 155
173 191 155
109 128 91
110 128 91
110 129 91
110 129 91
110 130 91
111 130 91
111 131 91
111 131 91
111 132 91
112 132 91
112 133 91
112 133 91
112 134 91
113 134 91
113 135 91
113 135 91
113 136 91
114 136 91
114 137 91
114 137 91
114 138 91
115 138 91
115 139 91
115 139 91
115 140 91
116 140 91
116 141 91
116 141 91
116 142 91
117 142 91
117 143 91
117 143 91
181 208 155
182 208 155
182 209 155
182 209 155
182 210 155
183 210 155
183 211 155
183 211 155
183 212 155
184 212 155
184 213 155
184 213 155
184 214 155
185 214 155
185 215 155
185 215 155
185 216 155
186 216 155
186 217 155
186 217 155
186 218 155
187 218 155
187 219 155
187 219 155
187 220 155
188 220 155
188 221 155
188 221 155
188 222 155
189 222 155
189 223 155
189 223 155
125 160 91
126 160 91
126 161 91
126 161 91
126 162 91
127 162 91
127 163 91
127 163 91
127 164 91
128 164 91
128 165 91
128 165 91
128 166 91
129 166 91
129 167 91
129 167 91
129 168 91
130 168 91
130 169 91
130 169 91
130 170 91
131 170 91
131 171 91
131 171 91
131 172 91
132 172 91
132 173 91
132 173 91
132 174 91
133 174 91
133 175 91
133 175 91
197 240 155
198 240 155
198 241 155
198 241 155
198 242 155
199 242 155
199 243 155
199 243 155
199 244 155
200 244 155
200 245 155
200 245 155
200 246 155
201 246 155
201 247 155
201 247 155
201 248 155
202 248 155
202 249 155
202 249 155
202 250 155
203 250 155
203 251 155
203 251 155
203 252 155
204 252 155
204 253 155
204 253 155
204 254 155
205 254 155
205 255 155
205 255 155
78 64 92
78 64 92
78 65 92
78 65 92
79 66 92
79 66 92
79 67 92
79 67 92
80 68 92
80 68 92
80 69 92
80 69 92
81 70 92
81 70 92
81 71 92
81 71 92
82 72 92
82 72 92
82 73 92
82 73 92
83 74 92
83 74 92
83 75 92
83 75 92
84 76 92
84 76 92
84 77 92
84 77 92
85 78 92
85 78 92
85 79 92
85 79 92
150 144 156
150 144 156
150 145 156
150 145 156
151 146 156
151 146 156
151 147 156
151 147 156
152 148 156
152 148 156
152 149 156
152 149 156
153 150 156
153 150 156
153 151 156
153 151 156
154 152 156
154 152 156
154 153 156
154 153 156
155 154 156
155 154 156
155 155 156
155 155 156
156 156 156
156 156 156
156 157 156
156 157 156
157 158 156
157 158 156
157 159 156
157 159 156
94 96 92
94 96 92
94 97 92
94 97 92
95 98 92
95 98 92
95 99 92
95 99 92
96 100 92
96 100 92
96 101 92
96 101 92
97 102 92
97 102 92
97 103 92
97 103 92
98 104 92
98 104 92
98 105 92
98 105 92
99 106 92
99 106 92
99 107 92
99 107 92
100 108 92
100 108 92
100 109 92
100 109 92
101 110 92
101 110 92
101 111 92
101 111 92
166 176 156
166 176 156
166 177 156
166 177 156
167 178 156
167 178 156
167 179 156
167 179 156
168 180 156
168 180 156
168 181 156
168 181 156
169 182 156
169 182 156
169 183 156
169 183 156
170 184 156
170 184 156
170 185 156
170 185 156
171 186 156
171 186 156
171 187 156
171 187 156
172 188 156
172 188 156
172 189 156
172 189 156
173 190 156
173 190 156
173 191 156
173 191 156
110 128 92
110 128 92
110 129 92
110 129 92
111 130 92
111 130 92
111 131 92
111 131 92
112 132 92
112 132 92
112 133 92
112 133 92
113 134 92
113 134 92
113 135 92
113 135 92
114 136 92
114 136 92
114 137 92
114 137 92
115 138 92
115 138 92
115 139 92
115 139 92
116 140 92
116 140 92
116 141 92
116 141 92
117 142 92
117 142 92
117 143 92
117 143 92
182 208 156
182 208 156
182 209 156
182 209 156
183 210 156
183 210 156
183 211 156
183 211 156
184 212 156
184 212 156
184 213 156
184 213 156
185 214 156
185 214 156
185 215 156
185 215 156
186 216 156
186 216 156
186 217 156
186 217 156
187 218 156
187 218 156
187 219 156
187 219 156
188 220 156
188 220 156
188 221 156
188 221 156
189 222 156
189 222 156
189 223 156
189 223 156
126 160 92
126 160 92
126 161 92
126 161 92
127 162 92
127 162 92
127 163 92
127 163 92
128 164 92
128 164 92
128 165 92
128 165 92
129 166 92
129 166 92
129 167 92
129 167 92
130 168 92
130 168 92
130 169 92
130 169 92
131 170 92
131 170 92
131 171 92
131 171 92
132 172 92
132 172 92
132 173 92
132 173 92
133 174 92
133 174 92
133 175 92
133 175 92
198 240 156
198 240 156
198 241 156
198 241 156
199 242 156
199 242 156
199 243 156
199 243 156
200 244 156
200 244 156
200 245 156
200 245 156
201 246 156
201 246 156
201 247 156
201 247 156
202 248 156
202 248 156
202 249 156
202 249 156
203 250 156
203 250 156
203 251 156
203 251 156
204 252 156
204 252 156
204 253 156
204 253 156
205 254 156
205 254 156
205 255 156
205 255 156
78 64 92
78 64 92
78 65 92
79 65 92
79 66 92
79 66 92
79 67 92
80 67 92
80 68 92
80 68 92
80 69 92
81 69 92
81 70 92
81 70 92
81 71 92
82 71 92
82 72 92
82 72 92
82 73 92
83 73 92
83 74 92
83 74 92
83 75 92
84 75 92
84 76 92
84 76 92
84 77 92
85 77 92
85 78 92
85 78 92
85 79 92
86 79 92
150 144 156
150 144 156
150 145 156
151 145 156
151 146 156
151 146 156
151 147 156
152 147 156
152 148 156
152 148 156
152 149 156
153 149 156
153 150 156
153 150 156
153 151 156
154 151 156
154 152 156
154 152 156
154 153 156
155 153 156
155 154 156
155 154 156
155 155 156
156 155 156
156 156 156
156 156 156
156 157 156
157 157 156
157 158 156
157 158 156
157 159 156
158 159 156
94 96 92
94 96 92
94 97 92
95 97 92
95 98 92
95 98 92
95 99 92
96 99 92
96 100 92
96 100 92
96 101 92
97 101 92
97 102 92
97 102 92
97 103 92
98 103 92
98 104 92
98 104 92
98 105 92
99 105 92
99 106 92
99 106 92
99 107 92
100 107 92
100 108 92
100 108 92
100 109 92
101 109 92
101 110 92
101 110 92
101 111 92
102 111 92
166 176 156
166 176 156
166 177 156
167 177 156
167 178 156
167 178 156
167 179 156
168 179 156
168 180 156
168 180 156
168 181 156
169 181 156
169 182 156
169 182 156
169 183 156
170 183 156
170 184 156
170 184 156
170 185 156
171 185 156
171 186 156
171 186 156
171 187 156
172 187 156
172 188 156
172 188 156
172 189 156
173 189 156
173 190 156
173 190 156
173 191 156
174 191 156
110 128 92
110 128 92
110 129 92
111 129 92
111 130 92
111 130 92
111 131 92
112 131 92
112 132 92
112 132 92
112 133 92
113 133 92
113 134 92
113 134 92
113 135 92
114 135 92
114 136 92
114 136 92
114 137 92
115 137 92
115 138 92
115 138 92
115 139 92
116 139 92
116 140 92
116 140 92
116 141 92
117 141 92
117 142 92
117 142 92
117 143 92
118 143 92
182 208 156
182 208 156
182 209 156
183 209 156
183 210 156
183 210 156
183 211 156
184 211 156
184 212 156
184 212 156
184 213 156
185 213 156
185 214 156
185 214 156
185 215 156
186 215 156
186 216 156
186 216 156
186 217 156
187 217 156
187 218 156
187 218 156
187 219 156
188 219 156
188 220 156
188 220 156
188 221 156
189 221 156
189 222 156
189 222 156
189 223 156
190 223 156
126 160 92
126 160 92
126 161 92
127 161 92
127 162 92
127 162 92
127 163 92
128 163 92
128 164 92
128 164 92
128 165 92
129 165 92
129 166 92
129 166 92
129 167 92
130 167 92
130 168 92
130 168 92
130 169 92
131 169 92
131 170 92
131 170 92
131 171 92
132 171 92
132 172 92
132 172 92
132 173 92
133 173 92
133 174 92
133 174 92
133 175 92
134 175 92
198 240 156
198 240 156
198 241 156
199 241 156
199 242 156
199 242 156
199 243 156
200 243 156
200 244 156
200 244 156
200 245 156
201 245 156
201 246 156
201 246 156
201 247 156
202 247 156
202 248 156
202 248 156
202 249 156
203 249 156
203 250 156
203 250 156
203 251 156
204 251 156
204 252 156
204 252 156
204 253 156
205 253 156
205 254 156
205 254 156
205 255 156
206 255 156
78 64 93
78 64 93
79 65 93
79 65 93
79 66 93
79 66 93
80 67 93
80 67 93
80 68 93
80 68 93
81 69 93
81 69 93
81 70 93
81 70 93
82 71 93
82 71 93
82 72 93
82 72 93
83 73 93
83 73 93
83 74 93
83 74 93
84 75 93
84 75 93
84 76 93
84 76 93
85 77 93
85 77 93
85 78 93
85 78 93
86 79 93
86 79 93
150 144 157
150 144 157
151 145 157
151 145 157
151 146 157
151 146 157
152 147 157
152 147 157
152 148 157
152 148 157
153 149 157
153 149 157
153 150 157
153 150 157
154 151 157
154 151 157
154 152 157
154 152 157
155 153 157
155 153 157
155 154 157
155 154 157
156 155 157
156 155 157
156 156 157
156 156 157
157 157 157
157 157 157
157 158 157
157 158 157
158 159 157
158 159 157
94 96 93
94 96 93
95 97 93
95 97 93
95 98 93
95 98 93
96 99 93
96 99 93
96 100 93
96 100 93
97 101 93
97 101 93
97 102 93
97 102 93
98 103 93
98 103 93
98 104 93
98 104 93
99 105 93
99 105 93
99 106 93
99 106 93
100 107 93
100 107 93
100 108 93
100 108 93
101 109 93
101 109 93
101 110 93
101 110 93
102 111 93
102 111 93
166 176 157
166 176 157
167 177 157
167 177 157
167 178 157
167 178 157
168 179 157
168 179 157
168 180 157
168 180 157
169 181 157
169 181 157
169 182 157
169 182 157
170 183 157
170 183 157
170 184 157
170 184 157
171 185 157
171 185 157
171 186 157
171 186 157
172 187 157
172 187 157
172 188 157
172 188 157
173 189 157
173 189 157
173 190 157
173 190 157
174 191 157
174 191 157
110 128 93
110 128 93
111 129 93
111 129 93
111 130 93
111 130 93
112 131 93
112 131 93
112 132 93
112 132 93
113 133 93
113 133 93
113 134 93
113 134 93
114 135 93
114 135 93
114 136 93
114 136 93
115 137 93
115 137 93
115 138 93
115 138 93
116 139 93
116 139 93
116 140 93
116 140 93
117 141 93
117 141 93
117 142 93
117 142 93
118 143 93
118 143 93
182 208 157
182 208 157
183 209 157
183 209 157
183 210 157
183 210 157
184 211 157
184 211 157
184 212 157
184 212 157
185 213 157
185 213 157
185 214 157
185 214 157
186 215 157
186 215 157
186 216 157
186 216 157
187 217 157
187 217 157
187 218 157
187 218 157
188 219 157
188 219 157
188 220 157
188 220 157
189 221 157
189 221 157
189 222 157
189 222 157
190 223 157
190 223 157
126 160 93
126 160 93
127 161 93
127 161 93
127 162 93
127 162 93
128 163 93
128 163 93
128 164 93
128 164 93
129 165 93
129 165 93
129 166 93
129 166 93
130 167 93
130 167 93
130 168 93
130 168 93
131 169 93
131 169 93
131 170 93
131 170 93
132 171 93
132 171 93
132 172 93
132 172 93
133 173 93
133 173 93
133 174 93
133 174 93
134 175 93
134 175 93
198 240 157
198 240 157
199 241 157
199 241 157
199 242 157
199 242 157
200 243 157
200 243 157
200 244 157
200 244 157
201 245 157
201 245 157
201 246 157
201 246 157
202 247 157
202 247 157
202 248 157
202 248 157
203 249 157
203 249 157
203 250 157
203 250 157
204 251 157
204 251 157
204 252 157
204 252 157
205 253 157
205 253 157
205 254 157
205 254 157
206 255 157
206 255 157
78 64 93
79 64 93
79 65 93
79 65 93
79 66 93
80 66 93
80 67 93
80 67 93
80 68 93
81 68 93
81 69 93
81 69 93
81 70 93
82 70 93
82 71 93
82 71 93
82 72 93
83 72 93
83 73 93
83 73 93
83 74 93
84 74 93
84 75 93
84 75 93
84 76 93
85 76 93
85 77 93
85 77 93
85 78 93
86 78 93
86 79 93
86 79 93
150 144 157
151 144 157
151 145 157
151 145 157
151 146 157
152 146 157
152 147 157
152 147 157
152 148 157
153 148 157
153 149 157
153 149 157
153 150 157
154 150 157
154 151 157
154 151 157
154 152 157
155 152 157
155 153 157
155 153 157
155 154 157
156 154 157
156 155 157
156 155 157
156 156 157
157 156 157
157 157 157
157 157 157
157 158 157
158 158 157
158 159 157
158 159 157
94 96 93
95 96 93
95 97 93
95 97 93
95 98 93
96 98 93
96 99 93
96 99 93
96 100 93
97 100 93
97 101 93
97 101 93
97 102 93
98 102 93
98 103 93
98 103 93
98 104 93
99 104 93
99 105 93
99 105 93
99 106 93
100 106 93
100 107 93
100 107 93
100 108 93
101 108 93
101 109 93
101 109 93
101 110 93
102 110 93
102 111 93
102 111 93
166 176 157
167 176 157
167 177 157
167 177 157
167 178 157
168 178 157
168 179 157
168 179 157
168 180 157
169 180 157
169 181 157
169 181 157
169 182 157
170 182 157
170 183 157
170 183 157
170 184 157
171 184 157
171 185 157
171 185 157
171 186 157
172 186 157
172 187 157
172 187 157
172 188 157
173 188 157
173 189 157
173 189 157
173 190 157
174 190 157
174 191 157
174 191 157
110 128 93
111 128 93
111 129 93
111 129 93
111 130 93
112 130 93
112 131 93
112 131 93
112 132 93
113 132 93
113 133 93
113 133 93
113 134 93
114 134 93
114 135 93
114 135 93
114 136 93
115 136 93
115 137 93
115 137 93
115 138 93
116 138 93
116 139 93
116 139 93
116 140 93
117 140 93
117 141 93
117 141 93
117 142 93
118 142 93
118 143 93
118 143 93
182 208 157
183 208 157
183 209 157
183 209 157
183 210 157
184 210 157
184 211 157
184 211 157
184 212 157
185 212 157
185 213 157
185 213 157
185 214 157
186 214 157
186 215 157
186 215 157
186 216 157
187 216 157
187 217 157
187 217 157
187 218 157
188 218 157
188 219 157
188 219 157
188 220 157
189 220 157
189 221 157
189 221 157
189 222 157
190 222 157
190 223 157
190 223 157
126 160 93
127 160 93
127 161 93
127 161 93
127 162 93
128 162 93
128 163 93
128 163 93
128 164 93
129 164 93
129 165 93
129 165 93
129 166 93
130 166 93
130 167 93
130 167 93
130 168 93
131 168 93
131 169 93
131 169 93
131 170 93
132 170 93
132 171 93
132 171 93
132 172 93
133 172 93
133 173 93
133 173 93
133 174 93
134 174 93
134 175 93
134 175 93
198 240 157
199 240 157
199 241 157
199 241 157
199 242 157
200 242 157
200 243 157
200 243 157
200 244 157
201 244 157
201 245 157
201 245 157
201 246 157
202 246 157
202 247 157
202 247 157
202 248 157
203 248 157
203 249 157
203 249 157
203 250 157
204 250 157
204 251 157
204 251 157
204 252 157
205 252 157
205 253 157
205 253 157
205 254 157
206 254 157
206 255 157
206 255 157
79 64 94
79 64 94
79 65 94
79 65 94
80 66 94
80 66 94
80 67 94
80 67 94
81 68 94
81 68 94
81 69 94
81 69 94
82 70 94
82 70 94
82 71 94
82 71 94
83 72 94
83 72 94
83 73 94
83 73 94
84 74 94
84 74 94
84 75 94
84 75 94
85 76 94
85 76 94
85 77 94
85 77 94
86 78 94
86 78 94
86 79 94
86 79 94
151 144 158
151 144 158
151 145 158
151 145 158
152 146 158
152 146 158
152 147 158
152 147 158
153 148 158
153 148 158
153 149 158
153 149 158
154 150 158
154 150 158
154 151 158
154 151 158
155 152 158
155 152 158
155 153 158
155 153 158
156 154 158
156 154 158
156 155 158
156 155 158
157 156 158
157 156 158
157 157 158
157 157 158
158 158 158
158 158 158
158 159 158
158 159 158
95 96 94
95 96 94
95 97 94
95 97 94
96 98 94
96 98 94
96 99 94
96 99 94
97 100 94
97 100 94
97 101 94
97 101 94
98 102 94
98 102 94
98 103 94
98 103 94
99 104 94
99 104 94
99 105 94
99 105 94
100 106 94
100 106 94
100 107 94
100 107 94
101 108 94
101 108 94
101 109 94
101 109 94
102 110 94
102 110 94
102 111 94
102 111 94
167 176 158
167 176 158
167 177 158
167 177 158
168 178 158
168 178 158
168 179 158
168 179 158
169 180 158
169 180 158
169 181 158
169 181 158
170 182 158
170 182 158
170 183 158
170 183 158
171 184 158
171 184 158
171 185 158
171 185 158
172 186 158
172 186 158
172 187 158
172 187 158
173 188 158
173 188 158
173 189 158
173 189 158
174 190 158
174 190 158
174 191 158
174 191 158
111 128 94
111 128 94
111 129 94
111 129 94
112 130 94
112 130 94
112 131 94
112 131 94
113 132 94
113 132 94
113 133 94
113 133 94
114 134 94
114 134 94
114 135 94
114 135 94
115 136 94
115 136 94
115 137 94
115 137 94
116 138 94
116 138 94
116 139 94
116 139 94
117 140 94
117 140 94
117 141 94
117 141 94
118 142 94
118 142 94
118 143 94
118 143 94
183 208 158
183 208 158
183 209 158
183 209 158
184 210 158
184 210 158
184 211 158
184 211 158
185 212 158
185 212 158
185 213 158
185 213 158
186 214 158
186 214 158
186 215 158
186 215 158
187 216 158
187 216 158
187 217 158
187 217 158
188 218 158
188 218 158
188 219 158
188 219 158
189 220 158
189 220 158
189 221 158
189 221 158
190 222 158
190 222 158
190 223 158
190 223 158
127 160 94
127 160 94
127 161 94
127 161 94
128 162 94
128 162 94
128 163 94
128 163 94
129 164 94
129 164 94
129 165 94
129 165 94
130 166 94
130 166 94
130 167 94
130 167 94
131 168 94
131 168 94
131 169 94
131 169 94
132 170 94
132 170 94
132 171 94
132 171 94
133 172 94
133 172 94
133 173 94
133 173 94
134 174 94
134 174 94
134 175 94
134 175 94
199 240 158
199 240 158
199 241 158
199 241 158
200 242 158
200 242 158
200 243 158
200 243 158
201 244 158
201 244 158
201 245 158
201 245 158
202 246 158
202 246 158
202 247 158
202 247 158
203 248 158
203 248 158
203 249 158
203 249 158
204 250 158
204 250 158
204 251 158
204 251 158
205 252 158
205 252 158
205 253 158
205 253 158
206 254 158
206 254 158
206 255 158
206 255 158
79 64 94
79 64 94
79 65 94
80 65 94
80 66 94
80 66 94
80 67 94
81 67 94
81 68 94
81 68 94
81 69 94
82 69 94
82 70 94
82 70 94
82 71 94
83 71 94
83 72 94
83 72 94
83 73 94
84 73 94
84 74 94
84 74 94
84 75 94
85 75 94
85 76 94
85 76 94
85 77 94
86 77 94
86 78 94
86 78 94
86 79 94
87 79 94
151 144 158
151 144 158
151 145 158
152 145 158
152 146 158
152 146 158
152 147 158
153 147 158
153 148 158
153 148 158
153 149 158
154 149 158
154 150 158
154 150 158
154 151 158
155 151 158
155 152 158
155 152 158
155 153 158
156 153 158
156 154 158
156 154 158
156 155 158
157 155 158
157 156 158
157 156 158
157 157 158
158 157 158
158 158 158
158 158 158
158 159 158
159 159 158
95 96 94
95 96 94
95 97 94
96 97 94
96 98 94
96 98 94
96 99 94
97 99 94
97 100 94
97 100 94
97 101 94
98 101 94
98 102 94
98 102 94
98 103 94
99 103 94
99 104 94
99 104 94
99 105 94
100 105 94
100 106 94
100 106 94
100 107 94
101 107 94
101 108 94
101 108 94
101 109 94
102 109 94
102 110 94
102 110 94
102 111 94
103 111 94
167 176 158
167 176 158
167 177 158
168 177 158
168 178 158
168 178 158
168 179 158
169 179 158
169 180 158
169 180 158
169 181 158
170 181 158
170 182 158
170 182 158
170 183 158
171 183 158
171 184 158
171 184 158
171 185 158
172 185 158
172 186 158
172 186 158
172 187 158
173 187 158
173 188 158
173 188 158
173 189 158
174 189 158
174 190 158
174 190 158
174 191 158
175 191 158
111 128 94
111 128 94
111 129 94
112 129 94
112 130 94
112 130 94
112 131 94
113 131 94
113 132 94
113 132 94
113 133 94
114 133 94
114 134 94
114 134 94
114 135 94
115 135 94
115 136 94
115 136 94
115 137 94
116 137 94
116 138 94
116 138 94
116 139 94
117 139 94
117 140 94
117 140 94
117 141 94
118 141 94
118 142 94
118 142 94
118 143 94
119 143 94
183 208 158
183 208 158
183 209 158
184 209 158
184 210 158
184 210 158
184 211 158
185 211 158
185 212 158
185 212 158
185 213 158
186 213 158
186 214 158
186 214 158
186 215 158
187 215 158
187 216 158
187 216 158
187 217 158
188 217 158
188 218 158
188 218 158
188 219 158
189 219 158
189 220 158
189 220 158
189 221 158
190 221 158
190 222 158
190 222 158
190 223 158
191 223 158
127 160 94
127 160 94
127 161 94
128 161 94
128 162 94
128 162 94
128 163 94
129 163 94
129 164 94
129 164 94
129 165 94
130 165 94
130 166 94
130 166 94
130 167 94
131 167 94
131 168 94
131 168 94
131 169 94
132 169 94
132 170 94
132 170 94
132 171 94
133 171 94
133 172 94
133 172 94
133 173 94
134 173 94
134 174 94
134 174 94
134 175 94
135 175 94
199 240 158
199 240 158
199 241 158
200 241 158
200 242 158
200 242 158
200 243 158
201 243 158
201 244 158
201 244 158
201 245 158
202 245 158
202 246 158
202 246 158
202 247 158
203 247 158
203 248 158
203 248 158
203 249 158
204 249 158
204 250 158
204 250 158
204 251 158
205 251 158
205 252 158
205 252 158
205 253 158
206 253 158
206 254 158
206 254 158
206 255 158
207 255 158
79 64 95
79 64 95
80 65 95
80 65 95
80 66 95
80 66 95
81 67 95
81 67 95
81 68 95
81 68 95
82 69 95
82 69 95
82 70 95
82 70 95
83 71 95
83 71 95
83 72 95
83 72 95
84 73 95
84 73 95
84 74 95
84 74 95
85 75 95
85 75 95
85 76 95
85 76 95
86 77 95
86 77 95
86 78 95
86 78 95
87 79 95
87 79 95
151 144 159
151 144 159
152 145 159
152 145 159
152 146 159
152 146 159
153 147 159
153 147 159
153 148 159
153 148 159
154 149 159
154 149 159
154 150 159
154 150 159
155 151 159
155 151 159
155 152 159
155 152 159
156 153 159
156 153 159
156 154 159
156 154 159
157 155 159
157 155 159
157 156 159
157 156 159
158 157 159
158 157 159
158 158 159
158 158 159
159 159 159
159 159 159
95 96 95
95 96 95
96 97 95
96 97 95
96 98 95
96 98 95
97 99 95
97 99 95
97 100 95
97 100 95
98 101 95
98 101 95
98 102 95
98 102 95
99 103 95
99 103 95
99 104 95
99 104 95
100 105 95
100 105 95
100 106 95
100 106 95
101 107 95
101 107 95
101 108 95
101 108 95
102 109 95
102 109 95
102 110 95
102 110 95
103 111 95
103 111 95
167 176 159
167 176 159
168 177 159
168 177 159
168 178 159
168 178 159
169 179 159
169 179 159
169 180 159
169 180 159
170 181 159
170 181 159
170 182 159
170 182 159
171 183 159
171 183 159
171 184 159
171 184 159
172 185 159
172 185 159
172 186 159
172 186 159
173 187 159
173 187 159
173 188 159
173 188 159
174 189 159
174 189 159
174 190 159
174 190 159
175 191 159
175 191 159
111 128 95
111 128 95
112 129 95
112 129 95
112 130 95
112 130 95
113 131 95
113 131 95
113 132 95
113 132 95
114 133 95
114 133 95
114 134 95
114 134 95
115 135 95
115 135 95
115 136 95
115 136 95
116 137 95
116 137 95
116 138 95
116 138 95
117 139 95
117 139 95
117 140 95
117 140 95
118 141 95
118 141 95
118 142 95
118 142 95
119 143 95
119 143 95
183 208 159
183 208 159
184 209 159
184 209 159
184 210 159
184 210 159
185 211 159
185 211 159
185 212 159
185 212 159
186 213 159
186 213 159
186 214 159
186 214 159
187 215 159
187 215 159
187 216 159
187 216 159
188 217 159
188 217 159
188 218 159
188 218 159
189 219 159
189 219 159
189 220 159
189 220 159
190 221 159
190 221 159
190 222 159
190 222 159
191 223 159
191 223 159
127 160 95
127 160 95
128 161 95
128 161 95
128 162 95
128 162 95
129 163 95
129 163 95
129 164 95
129 164 95
130 165 95
130 165 95
130 166 95
130 166 95
131 167 95
131 167 95
131 168 95
131 168 95
132 169 95
132 169 95
132 170 95
132 170 95
133 171 95
133 171 95
133 172 95
133 172 95
134 173 95
134 173 95
134 174 95
134 174 95
135 175 95
135 175 95
199 240 159
199 240 159
200 241 159
200 241 159
200 242 159
200 242 159
201 243 159
201 243 159
201 244 159
201 244 159
202 245 159
202 245 159
202 246 159
202 246 159
203 247 159
203 247 159
203 248 159
203 248 159
204 249 159
204 249 159
204 250 159
204 250 159
205 251 159
205 251 159
205 252 159
205 252 159
206 253 159
206 253 159
206 254 159
206 254 159
207 255 159
207 255 159
79 64 95
80 64 95
80 65 95
80 65 95
80 66 95
81 66 95
81 67 95
81 67 95
81 68 95
82 68 95
82 69 95
82 69 95
82 70 95
83 70 95
83 71 95
83 71 95
83 72 95
84 72 95
84 73 95
84 73 95
84 74 95
85 74 95
85 75 95
85 75 95
85 76 95
86 76 95
86 77 95
86 77 95
86 78 95
87 78 95
87 79 95
87 79 95
151 144 159
152 144 159
152 145 159
152 145 159
152 146 159
153 146 159
153 147 159
153 147 159
153 148 159
154 148 159
154 149 159
154 149 159
154 150 159
155 150 159
155 151 159
155 151 159
155 152 159
156 152 159
156 153 159
156 153 159
156 154 159
157 154 159
157 155 159
157 155 159
157 156 159
158 156 159
158 157 159
158 157 159
158 158 159
159 158 159
159 159 159
159 159 159
95 96 95
96 96 95
96 97 95
96 97 95
96 98 95
97 98 95
97 99 95
97 99 95
97 100 95
98 100 95
98 101 95
98 101 95
98 102 95
99 102 95
99 103 95
99 103 95
99 104 95
100 104 95
100 105 95
100 105 95
100 106 95
101 106 95
101 107 95
101 107 95
101 108 95
102 108 95
102 109 95
102 109 95
102 110 95
103 110 95
103 111 95
103 111 95
167 176 159
168 176 159
168 177 159
168 177 159
168 178 159
169 178 159
169 179 159
169 179 159
169 180 159
170 180 159
170 181 159
170 181 159
170 182 159
171 182 159
171 183 159
171 183 159
171 184 159
172 184 159
172 185 159
172 185 159
172 186 159
173 186 159
173 187 159
173 187 159
173 188 159
174 188 159
174 189 159
174 189 159
174 190 159
175 190 159
175 191 159
175 191 159
111 128 95
112 128 95
112 129 95
112 129 95
112 130 95
113 130 95
113 131 95
113 131 95
113 132 95
114 132 95
114 133 95
114 133 95
114 134 95
115 134 95
115 135 95
115 135 95
115 136 95
116 136 95
116 137 95
116 137 95
116 138 95
117 138 95
117 139 95
117 139 95
117 140 95
118 140 95
118 141 95
118 141 95
118 142 95
119 142 95
119 143 95
119 143 95
183 208 159
184 208 159
184 209 159
184 209 159
184 210 159
185 210 159
185 211 159
185 211 159
185 212 159
186 212 159
186 213 159
186 213 159
186 214 159
187 214 159
187 215 159
187 215 159
187 216 159
188 216 159
188 217 159
188 217 159
188 218 159
189 218 159
189 219 159
189 219 159
189 220 159
190 220 159
190 221 159
190 221 159
190 222 159
191 222 159
191 223 159
191 223 159
127 160 95
128 160 95
128 161 95
128 161 95
128 162 95
129 162 95
129 163 95
129 163 95
129 164 95
130 164 95
130 165 95
130 165 95
130 166 95
131 166 95
131 167 95
131 167 95
131 168 95
132 168 95
132 169 95
132 169 95
132 170 95
133 170 95
133 171 95
133 171 95
133 172 95
134 172 95
134 173 95
134 173 95
134 174 95
135 174 95
135 175 95
135 175 95
199 240 159
200 240 159
200 241 159
200 241 159
200 242 159
201 242 159
201 243 159
201 243 159
201 244 159
202 244 159
202 245 159
202 245 159
202 246 159
203 246 159
203 247 159
203 247 159
203 248 159
204 248 159
204 249 159
204 249 159
204 250 159
205 250 159
205 251 159
205 251 159
205 252 159
206 252 159
206 253 159
206 253 159
206 254 159
207 254 159
207 255 159
207 255 159
144 128 160
144 128 160
144 129 160
144 129 160
145 130 160
145 130 160
145 131 160
145 131 160
146 132 160
146 132 160
146 133 160
146 133 160
147 134 160
147 134 160
147 135 160
147 135 160
148 136 160
148 136 160
148 137 160
148 137 160
149 138 160
149 138 160
149 139 160
149 139 160
150 140 160
150 140 160
150 141 160
150 141 160
151 142 160
151 142 160
151 143 160
151 143 160
88 80 96
88 80 96
88 81 96
88 81 96
89 82 96
89 82 96
89 83 96
89 83 96
90 84 96
90 84 96
90 85 96
90 85 96
91 86 96
91 86 96
91 87 96
91 87 96
92 88 96
92 88 96
92 89 96
92 89 96
93 90 96
93 90 96
93 91 96
93 91 96
94 92 96
94 92 96
94 93 96
94 93 96
95 94 96
95 94 96
95 95 96
95 95 96
160 160 160
160 160 160
160 161 160
160 161 160
161 162 160
161 162 160
161 163 160
161 163 160
162 164 160
162 164 160
162 165 160
162 165 160
163 166 160
163 166 160
163 167 160
163 167 160
164 168 160
164 168 160
164 169 160
164 169 160
165 170 160
165 170 160
165 171 160
165 171 160
166 172 160
166 172 160
166 173 160
166 173 160
167 174 160
167 174 160
167 175 160
167 175 160
104 112 96
104 112 96
104 113 96
104 113 96
105 114 96
105 114 96
105 115 96
105 115 96
106 116 96
106 116 96
106 117 96
106 117 96
107 118 96
107 118 96
107 119 96
107 119 96
108 120 96
108 120 96
108 121 96
108 121 96
109 122 96
109 122 96
109 123 96
109 123 96
110 124 96
110 124 96
110 125 96
110 125 96
111 126 96
111 126 96
111 127 96
111 127 96
176 192 160
176 192 160
176 193 160
176 193 160
177 194 160
177 194 160
177 195 160
177 195 160
178 196 160
178 196 160
178 197 160
178 197 160
179 198 160
179 198 160
179 199 160
179 199 160
180 200 160
180 200 160
180 201 160
180 201 160
181 202 160
181 202 160
181 203 160
181 203 160
182 204 160
182 204 160
182 205 160
182 205 160
183 206 160
183 206 160
183 207 160
183 207 160
120 144 96
120 144 96
120 145 96
120 145 96
121 146 96
121 146 96
121 147 96
121 147 96
122 148 96
122 148 96
122 149 96
122 149 96
123 150 96
123 150 96
123 151 96
123 151 96
124 152 96
124 152 96
124 153 96
124 153 96
125 154 96
125 154 96
125 155 96
125 155 96
126 156 96
126 156 96
126 157 96
126 157 96
127 158 96
127 158 96
127 159 96
127 159 96
192 224 160
192 224 160
192 225 160
192 225 160
193 226 160
193 226 160
193 227 160
193 227 160
194 228 160
194 228 160
194 229 160
194 229 160
195 230 160
195 230 160
195 231 160
195 231 160
196 232 160
196 232 160
196 233 160
196 233 160
197 234 160
197 234 160
197 235 160
197 235 160
198 236 160
198 236 160
198 237 160
198 237 160
199 238 160
199 238 160
199 239 160
199 239 160
136 176 96
136 176 96
136 177 96
136 177 96
137 178 96
137 178 96
137 179 96
137 179 96
138 180 96
138 180 96
138 181 96
138 181 96
139 182 96
139 182 96
139 183 96
139 183 96
140 184 96
140 184 96
140 185 96
140 185 96
141 186 96
141 186 96
141 187 96
141 187 96
142 188 96
142 188 96
142 189 96
142 189 96
143 190 96
143 190 96
143 191 96
143 191 96
144 128 160
144 128 160
144 129 160
145 129 160
145 130 160
145 130 160
145 131 160
146 131 160
146 132 160
146 132 160
146 133 160
147 133 160
147 134 160
147 134 160
147 135 160
148 135 160
148 136 160
148 136 160
148 137 160
149 137 160
149 138 160
149 138 160
149 139 160
150 139 160
150 140 160
150 140 160
150 141 160
151 141 160
151 142 160
151 142 160
151 143 160
152 143 160
88 80 96
88 80 96
88 81 96
89 81 96
89 82 96
89 82 96
89 83 96
90 83 96
90 84 96
90 84 96
90 85 96
91 85 96
91 86 96
91 86 96
91 87 96
92 87 96
92 88 96
92 88 96
92 89 96
93 89 96
93 90 96
93 90 96
93 91 96
94 91 96
94 92 96
94 92 96
94 93 96
95 93 96
95 94 96
95 94 96
95 95 96
96 95 96
160 160 160
160 160 160
160 161 160
161 161 160
161 162 160
161 162 160
161 163 160
162 163 160
162 164 160
162 164 160
162 165 160
163 165 160
163 166 160
163 166 160
163 167 160
164 167 160
164 168 160
164 168 160
164 169 160
165 169 160
165 170 160
165 170 160
165 171 160
166 171 160
166 172 160
166 172 160
166 173 160
167 173 160
167 174 160
167 174 160
167 175 160
168 175 160
104 112 96
104 112 96
104 113 96
105 113 96
105 114 96
105 114 96
105 115 96
106 115 96
106 116 96
106 116 96
106 117 96
107 117 96
107 118 96
107 118 96
107 119 96
108 119 96
108 120 96
108 120 96
108 121 96
109 121 96
109 122 96
109 122 96
109 123 96
110 123 96
110 124 96
110 124 96
110 125 96
111 125 96
111 126 96
111 126 96
111 127 96
112 127 96
176 192 160
176 192 160
176 193 160
177 193 160
177 194 160
177 194 160
177 195 160
178 195 160
178 196 160
178 196 160
178 197 160
179 197 160
179 198 160
179 198 160
179 199 160
180 199 160
180 200 160
180 200 160
180 201 160
181 201 160
181 202 160
181 202 160
181 203 160
182 203 160
182 204 160
182 204 160
182 205 160
183 205 160
183 206 160
183 206 160
183 207 160
184 207 160
120 144 96
120 144 96
120 145 96
121 145 96
121 146 96
121 146 96
121 147 96
122 147 96
122 148 96
122 148 96
122 149 96
123 149 96
123 150 96
123 150 96
123 151 96
124 151 96
124 152 96
124 152 96
124 153 96
125 153 96
125 154 96
125 154 96
125 155 96
126 155 96
126 156 96
126 156 96
126 157 96
127 157 96
127 158 96
127 158 96
127 159 96
128 159 96
192 224 160
192 224 160
192 225 160
193 225 160
193 226 160
193 226 160
193 227 160
194 227 160
194 228 160
194 228 160
194 229 160
195 229 160
195 230 160
195 230 160
195 231 160
196 231 160
196 232 160
196 232 160
196 233 160
197 233 160
197 234 160
197 234 160
197 235 160
198 235 160
198 236 160
198 236 160
198 237 160
199 237 160
199 238 160
199 238 160
199 239 160
200 239 160
136 176 96
136 176 96
136 177 96
137 177 96
137 178 96
137 178 96
137 179 96
138 179 96
138 180 96
138 180 96
138 181 96
139 181 96
139 182 96
139 182 96
139 183 96
140 183 96
140 184 96
140 184 96
140 185 96
141 185 96
141 186 96
141 186 96
141 187 96
142 187 96
142 188 96
142 188 96
142 189 96
143 189 96
143 190 96
143 190 96
143 191 96
144 191 96
144 128 161
144 128 161
145 129 161
145 129 161
145 130 161
145 130 161
146 131 161
146 131 161
146 132 161
146 132 161
147 133 161
147 133 161
147 134 161
147 134 161
148 135 161
148 135 161
148 136 161
148 136 161
149 137 161
149 137 161
149 138 161
149 138 161
150 139 161
150 139 161
150 140 161
150 140 161
151 141 161
151 141 161
151 142 161
151 142 161
152 143 161
152 143 161
88 80 97
88 80 97
89 81 97
89 81 97
89 82 97
89 82 97
90 83 97
90 83 97
90 84 97
90 84 97
91 85 97
91 85 97
91 86 97
91 86 97
92 87 97
92 87 97
92 88 97
92 88 97
93 89 97
93 89 97
93 90 97
93 90 97
94 91 97
94 91 97
94 92 97
94 92 97
95 93 97
95 93 97
95 94 97
95 94 97
96 95 97
96 95 97
160 160 161
160 160 161
161 161 161
161 161 161
161 162 161
161 162 161
162 163 161
162 163 161
162 164 161
162 164 161
163 165 161
163 165 161
163 166 161
163 166 161
164 167 161
164 167 161
164 168 161
164 168 161
165 169 161
165 169 161
165 170 161
165 170 161
166 171 161
166 171 161
166 172 161
166 172 161
167 173 161
167 173 161
167 174 161
167 174 161
168 175 161
168 175 161
104 112 97
104 112 97
105 113 97
105 113 97
105 114 97
105 114 97
106 115 97
106 115 97
106 116 97
106 116 97
107 117 97
107 117 97
107 118 97
107 118 97
108 119 97
108 119 97
108 120 97
108 120 97
109 121 97
109 121 97
109 122 97
109 122 97
110 123 97
110 123 97
110 124 97
110 124 97
111 125 97
111 125 97
111 126 97
111 126 97
112 127 97
112 127 97
176 192 161
176 192 161
177 193 161
177 193 161
177 194 161
177 194 161
178 195 161
178 195 161
178 196 161
178 196 161
179 197 161
179 197 161
179 198 161
179 198 161
180 199 161
180 199 161
180 200 161
180 200 161
181 201 161
181 201 161
181 202 161
181 202 161
182 203 161
182 203 161
182 204 161
182 204 161
183 205 161
183 205 161
183 206 161
183 206 161
184 207 161
184 207 161
120 144 97
120 144 97
121 145 97
121 145 97
121 146 97
121 146 97
122 147 97
122 147 97
122 148 97
122 148 97
123 149 97
123 149 97
123 150 97
123 150 97
124 151 97
124 151 97
124 152 97
124 152 97
125 153 97
125 153 97
125 154 97
125 154 97
126 155 97
126 155 97
126 156 97
126 156 97
127 157 97
127 157 97
127 158 97
127 158 97
128 159 97
128 159 97
192 224 161
192 224 161
193 225 161
193 225 161
193 226 161
193 226 161
194 227 161
194 227 161
194 228 161
194 228 161
195 229 161
195 229 161
195 230 161
195 230 161
196 231 161
196 231 161
196 232 161
196 232 161
197 233 161
197 233 161
197 234 161
197 234 161
198 235 161
198 235 161
198 236 161
198 236 161
199 237 161
199 237 161
199 238 161
199 238 161
200 239 161
200 239 161
136 176 97
136 176 97
137 177 97
137 177 97
137 178 97
137 178 97
138 179 97
138 179 97
138 180 97
138 180 97
139 181 97
139 181 97
139 182 97
139 182 97
140 183 97
140 183 97
140 184 97
140 184 97
141 185 97
141 185 97
141 186 97
141 186 97
142 187 97
142 187 97
142 188 97
142 188 97
143 189 97
143 189 97
143 190 97
143 190 97
144 191 97
144 191 97
144 128 161
145 128 161
145 129 161
145 129 161
145 130 161
146 130 161
146 131 161
146 131 161
146 132 161
147 132 161
147 133 161
147 133 161
147 134 161
148 134 161
148 135 161
148 135 161
148 136 161
149 136 161
149 137 161
149 137 161
149 138 161
150 138 161
150 139 161
150 139 161
150 140 161
151 140 161
151 141 161
151 141 161
151 142 161
152 142 161
152 143 161
152 143 161
88 80 97
89 80 97
89 81 97
89 81 97
89 82 97
90 82 97
90 83 97
90 83 97
90 84 97
91 84 97
91 85 97
91 85 97
91 86 97
92 86 97
92 87 97
92 87 97
92 88 97
93 88 97
93 89 97
93 89 97
93 90 97
94 90 97
94 91 97
94 91 97
94 92 97
95 92 97
95 93 97
95 93 97
95 94 97
96 94 97
96 95 97
96 95 97
160 160 161
161 160 161
161 161 161
161 161 161
161 162 161
162 162 161
162 163 161
162 163 161
162 164 161
163 164 161
163 165 161
163 165 161
163 166 161
164 166 161
164 167 161
164 167 161
164 168 161
165 168 161
165 169 161
165 169 161
165 170 161
166 170 161
166 171 161
166 171 161
166 172 161
167 172 161
167 173 161
167 173 161
167 174 161
168 174 161
168 175 161
168 175 161
104 112 97
105 112 97
105 113 97
105 113 97
105 114 97
106 114 97
106 115 97
106 115 97
106 116 97
107 116 97
107 117 97
107 117 97
107 118 97
108 118 97
108 119 97
108 119 97
108 120 97
109 120 97
109 121 97
109 121 97
109 122 97
110 122 97
110 123 97
110 123 97
110 124 97
111 124 97
111 125 97
111 125 97
111 126 97
112 126 97
112 127 97
112 127 97
176 192 161
177 192 161
177 193 161
177 193 161
177 194 161
178 194 161
178 195 161
178 195 161
178 196 161
179 196 161
179 197 161
179 197 161
179 198 161
180 198 161
180 199 161
180 199 161
180 200 161
181 200 161
181 201 161
181 201 161
181 202 161
182 202 161
182 203 161
182 203 161
182 204 161
183 204 161
183 205 161
183 205 161
183 206 161
184 206 161
184 207 161
184 207 161
120 144 97
121 144 97
121 145 97
121 145 97
121 146 97
122 146 97
122 147 97
122 147 97
122 148 97
123 148 97
123 149 97
123 149 97
123 150 97
124 150 97
124 151 97
124 151 97
124 152 97
125 152 97
125 153 97
125 153 97
125 154 97
126 154 97
126 155 97
126 155 97
126 156 97
127 156 97
127 157 97
127 157 97
127 158 97
128 158 97
128 159 97
128 159 97
192 224 161
193 224 161
193 225 161
193 225 161
193 226 161
194 226 161
194 227 161
194 227 161
194 228 161
195 228 161
195 229 161
195 229 161
195 230 161
196 230 161
196 231 161
196 231 161
196 232 161
197 232 161
197 233 161
197 233 161
197 234 161
198 234 161
198 235 161
198 235 161
198 236 161
199 236 161
199 237 161
199 237 161
199 238 161
200 238 161
200 239 161
200 239 161
136 176 97
137 176 97
137 177 97
137 177 97
137 178 97
138 178 97
138 179 97
138 179 97
138 180 97
139 180 97
139 181 97
139 181 97
139 182 97
140 182 97
140 183 97
140 183 97
140 184 97
141 184 97
141 185 97
141 185 97
141 186 97
142 186 97
142 187 97
142 187 97
142 188 97
143 188 97
143 189 97
143 189 97
143 190 97
144 190 97
144 191 97
144 191 97
145 128 162
145 128 162
145 129 162
145 129 162
146 130 162
146 130 162
146 131 162
146 131 162
147 132 162
147 132 162
147 133 162
147 133 162
148 134 162
148 134 162
148 135 162
148 135 162
149 136 162
149 136 162
149 137 162
149 137 162
150 138 162
150 138 162
150 139 162
150 139 162
151 140 162
151 140 162
151 141 162
151 141 162
152 142 162
152 142 162
152 143 162
152 143 162
89 80 98
89 80 98
89 81 98
89 81 98
90 82 98
90 82 98
90 83 98
90 83 98
91 84 98
91 84 98
91 85 98
91 85 98
92 86 98
92 86 98
92 87 98
92 87 98
93 88 98
93 88 98
93 89 98
93 89 98
94 90 98
94 90 98
94 91 98
94 91 98
95 92 98
95 92 98
95 93 98
95 93 98
96 94 98
96 94 98
96 95 98
96 95 98
161 160 162
161 160 162
161 161 162
161 161 162
162 162 162
162 162 162
162 163 162
162 163 162
163 164 162
163 164 162
163 165 162
163 165 162
164 166 162
164 166 162
164 167 162
164 167 162
165 168 162
165 168 162
165 169 162
165 169 162
166 170 162
166 170 162
166 171 162
166 171 162
167 172 162
167 172 162
167 173 162
167 173 162
168 174 162
168 174 162
168 175 162
168 175 162
105 112 98
105 112 98
105 113 98
105 113 98
106 114 98
106 114 98
106 115 98
106 115 98
107 116 98
107 116 98
107 117 98
107 117 98
108 118 98
108 118 98
108 119 98
108 119 98
109 120 98
109 120 98
109 121 98
109 121 98
110 122 98
110 122 98
110 123 98
110 123 98
111 124 98
111 124 98
111 125 98
111 125 98
112 126 98
112 126 98
112 127 98
112 127 98
177 192 162
177 192 162
177 193 162
177 193 162
178 194 162
178 194 162
178 195 162
178 195 162
179 196 162
179 196 162
179 197 162
179 197 162
180 198 162
180 198 162
180 199 162
180 199 162
181 200 162
181 200 162
181 201 162
181 201 162
182 202 162
182 202 162
182 203 162
182 203 162
183 204 162
183 204 162
183 205 162
183 205 162
184 206 162
184 206 162
184 207 162
184 207 162
121 144 98
121 144 98
121 145 98
121 145 98
122 146 98
122 146 98
122 147 98
122 147 98
123 148 98
123 148 98
123 149 98
123 149 98
124 150 98
124 150 98
124 151 98
124 151 98
125 152 98
125 152 98
125 153 98
125 153 98
126 154 98
126 154 98
126 155 98
126 155 98
127 156 98
127 156 98
127 157 98
127 157 98
128 158 98
128 158 98
128 159 98
128 159 98
193 224 162
193 224 162
193 225 162
193 225 162
194 226 162
194 226 162
194 227 162
194 227 162
195 228 162
195 228 162
195 229 162
195 229 162
196 230 162
196 230 162
196 231 162
196 231 162
197 232 162
197 232 162
197 233 162
197 233 162
198 234 162
198 234 162
198 235 162
198 235 162
199 236 162
199 236 162
199 237 162
199 237 162
200 238 162
200 238 162
200 239 162
200 239 162
137 176 98
137 176 98
137 177 98
137 177 98
138 178 98
138 178 98
138 179 98
138 179 98
139 180 98
139 180 98
139 181 98
139 181 98
140 182 98
140 182 98
140 183 98
140 183 98
141 184 98
141 184 98
141 185 98
141 185 98
142 186 98
142 186 98
142 187 98
142 187 98
143 188 98
143 188 98
143 189 98
143 189 98
144 190 98
144 190 98
144 191 98
144 191 98
145 128 162
145 128 162
145 129 162
146 129 162
146 130 162
146 130 162
146 131 162
147 131 162
147 132 162
147 132 162
147 133 162
148 133 162
148 134 162
148 134 162
148 135 162
149 135 162
149 136 162
149 136 162
149 137 162
150 137 162
150 138 162
150 138 162
150 139 162
151 139 162
151 140 162
151 140 162
151 141 162
152 141 162
152 142 162
152 142 162
152 143 162
153 143 162
89 80 98
89 80 98
89 81 98
90 81 98
90 82 98
90 82 98
90 83 98
91 83 98
91 84 98
91 84 98
91 85 98
92 85 98
92 86 98
92 86 98
92 87 98
93 87 98
93 88 98
93 88 98
93 89 98
94 89 98
94 90 98
94 90 98
94 91 98
95 91 98
95 92 98
95 92 98
95 93 98
96 93 98
96 94 98
96 94 98
96 95 98
97 95 98
161 160 162
161 160 162
161 161 162
162 161 162
162 162 162
162 162 162
162 163 162
163 163 162
163 164 162
163 164 162
163 165 162
164 165 162
164 166 162
164 166 162
164 167 162
165 167 162
165 168 162
165 168 162
165 169 162
166 169 162
166 170 162
166 170 162
166 171 162
167 171 162
167 172 162
167 172 162
167 173 162
168 173 162
168 174 162
168 174 162
168 175 162
169 175 162
105 112 98
105 112 98
105 113 98
106 113 98
106 114 98
106 114 98
106 115 98
107 115 98
107 116 98
107 116 98
107 117 98
108 117 98
108 118 98
108 118 98
108 119 98
109 119 98
109 120 98
109 120 98
109 121 98
110 121 98
110 122 98
110 122 98
110 123 98
111 123 98
111 124 98
111 124 98
111 125 98
112 125 98
112 126 98
112 126 98
112 127 98
113 127 98
177 192 162
177 192 162
177 193 162
178 193 162
178 194 162
178 194 162
178 195 162
179 195 162
179 196 162
179 196 162
179 197 162
180 197 162
180 198 162
180 198 162
180 199 162
181 199 162
181 200 162
181 200 162
181 201 162
182 201 162
182 202 162
182 202 162
182 203 162
183 203 162
183 204 162
183 204 162
183 205 162
184 205 162
184 206 162
184 206 162
184 207 162
185 207 162
121 144 98
121 144 98
121 145 98
122 145 98
122 146 98
122 146 98
122 147 98
123 147 98
123 148 98
123 148 98
123 149 98
124 149 98
124 150 98
124 150 98
124 151 98
125 151 98
125 152 98
125 152 98
125 153 98
126 153 98
126 154 98
126 154 98
126 155 98
127 155 98
127 156 98
127 156 98
127 157 98
128 157 98
128 158 98
128 158 98
128 159 98
129 159 98
193 224 162
193 224 162
193 225 162
194 225 162
194 226 162
194 226 162
194 227 162
195 227 162
195 228 162
195 228 162
195 229 162
196 229 162
196 230 162
196 230 162
196 231 162
197 231 162
197 232 162
197 232 162
197 233 162
198 233 162
198 234 162
198 234 162
198 235 162
199 235 162
199 236 162
199 236 162
199 237 162
200 237 162
200 238 162
200 238 162
200 239 162
201 239 162
137 176 98
137 176 98
137 177 98
138 177 98
138 178 98
138 178 98
138 179 98
139 179 98
139 180 98
139 180 98
139 181 98
140 181 98
140 182 98
140 182 98
140 183 98
141 183 98
141 184 98
141 184 98
141 185 98
142 185 98
142 186 98
142 186 98
142 187 98
143 187 98
143 188 98
143 188 98
143 189 98
144 189 98
144 190 98
144 190 98
144 191 98
145 191 98
145 128 163
145 128 163
146 129 163
146 129 163
146 130 163
146 130 163
147 131 163
147 131 163
147 132 163
147 132 163
148 133 163
148 133 163
148 134 163
148 134 163
149 135 163
149 135 163
149 136 163
149 136 163
150 137 163
150 137 163
150 138 163
150 138 163
151 139 163
151 139 163
151 140 163
151 140 163
152 141 163
152 141 163
152 142 163
152 142 163
153 143 163
153 143 163
89 80 99
89 80 99
90 81 99
90 81 99
90 82 99
90 82 99
91 83 99
91 83 99
91 84 99
91 84 99
92 85 99
92 85 99
92 86 99
92 86 99
93 87 99
93 87 99
93 88 99
93 88 99
94 89 99
94 89 99
94 90 99
94 90 99
95 91 99
95 91 99
95 92 99
95 92 99
96 93 99
96 93 99
96 94 99
96 94 99
97 95 99
97 95 99
161 160 163
161 160 163
162 161 163
162 161 163
162 162 163
162 162 163
163 163 163
163 163 163
163 164 163
163 164 163
164 165 163
164 165 163
164 166 163
164 166 163
165 167 163
165 167 163
165 168 163
165 168 163
166 169 163
166 169 163
166 170 163
166 170 163
167 171 163
167 171 163
167 172 163
167 172 163
168 173 163
168 173 163
168 174 163
168 174 163
169 175 163
169 175 163
105 112 99
105 112 99
106 113 99
106 113 99
106 114 99
106 114 99
107 115 99
107 115 99
107 116 99
107 116 99
108 117 99
108 117 99
108 118 99
108 118 99
109 119 99
109 119 99
109 120 99
109 120 99
110 121 99
110 121 99
110 122 99
110 122 99
111 123 99
111 123 99
111 124 99
111 124 99
112 125 99
112 125 99
112 126 99
112 126 99
113 127 99
113 127 99
177 192 163
177 192 163
178 193 163
178 193 163
178 194 163
178 194 163
179 195 163
179 195 163
179 196 163
179 196 163
180 197 163
180 197 163
180 198 163
180 198 163
181 199 163
181 199 163
181 200 163
181 200 163
182 201 163
182 201 163
182 202 163
182 202 163
183 203 163
183 203 163
183 204 163
183 204 163
184 205 163
184 205 163
184 206 163
184 206 163
185 207 163
185 207 163
121 144 99
121 144 99
122 145 99
122 145 99
122 146 99
122 146 99
123 147 99
123 147 99
123 148 99
123 148 99
124 149 99
124 149 99
124 150 99
124 150 99
125 151 99
125 151 99
125 152 99
125 152 99
126 153 99
126 153 99
126 154 99
126 154 99
127 155 99
127 155 99
127 156 99
127 156 99
128 157 99
128 157 99
128 158 99
128 158 99
129 159 99
129 159 99
193 224 163
193 224 163
194 225 163
194 225 163
194 226 163
194 226 163
195 227 163
195 227 163
195 228 163
195 228 163
196 229 163
196 229 163
196 230 163
196 230 163
197 231 163
197 231 163
197 232 163
197 232 163
198 233 163
198 233 163
198 234 163
198 234 163
199 235 163
199 235 163
199 236 163
199 236 163
200 237 163
200 237 163
200 238 163
200 238 163
201 239 163
201 239 163
137 176 99
137 176 99
138 177 99
138 177 99
138 178 99
138 178 99
139 179 99
139 179 99
139 180 99
139 180 99
140 181 99
140 181 99
140 182 99
140 182 99
141 183 99
141 183 99
141 184 99
141 184 99
142 185 99
142 185 99
142 186 99
142 186 99
143 187 99
143 187 99
143 188 99
143 188 99
144 189 99
144 189 99
144 190 99
144 190 99
145 191 99
145 191 99
145 128 163
146 128 163
146 129 163
146 129 163
146 130 163
147 130 163
147 131 163
147 131 163
147 132 163
148 132 163
148 133 163
148 133 163
148 134 163
149 134 163
149 135 163
149 135 163
149 136 163
150 136 163
150 137 163
150 137 163
150 138 163
151 138 163
151 139 163
151 139 163
151 140 163
152 140 163
152 141 163
152 141 163
152 142 163
153 142 163
153 143 163
153 143 163
89 80 99
90 80 99
90 81 99
90 81 99
90 82 99
91 82 99
91 83 99
91 83 99
91 84 99
92 84 99
92 85 99
92 85 99
92 86 99
93 86 99
93 87 99
93 87 99
93 88 99
94 88 99
94 89 99
94 89 99
94 90 99
95 90 99
95 91 99
95 91 99
95 92 99
96 92 99
96 93 99
96 93 99
96 94 99
97 94 99
97 95 99
97 95 99
161 160 163
162 160 163
162 161 163
162 161 163
162 162 163
163 162 163
163 163 163
163 163 163
163 164 163
164 164 163
164 165 163
164 165 163
164 166 163
165 166 163
165 167 163
165 167 163
165 168 163
166 168 163
166 169 163
166 169 163
166 170 163
167 170 163
167 171 163
167 171 163
167 172 163
168 172 163
168 173 163
168 173 163
168 174 163
169 174 163
169 175 163
169 175 163
105 112 99
106 112 99
106 113 99
106 113 99
106 114 99
107 114 99
107 115 99
107 115 99
107 116 99
108 116 99
108 117 99
108 117 99
108 118 99
109 118 99
109 119 99
109 119 99
109 120 99
110 120 99
110 121 99
110 121 99
110 122 99
111 122 99
111 123 99
111 123 99
111 124 99
112 124 99
112 125 99
112 125 99
112 126 99
113 126 99
113 127 99
113 127 99
177 192 163
178 192 163
178 193 163
178 193 163
178 194 163
179 194 163
179 195 163
179 195 163
179 196 163
180 196 163
180 197 163
180 197 163
180 198 163
181 198 163
181 199 163
181 199 163
181 200 163
182 200 163
182 201 163
182 201 163
182 202 163
183 202 163
183 203 163
183 203 163
183 204 163
184 204 163
184 205 163
184 205 163
184 206 163
185 206 163
185 207 163
185 207 163
121 144 99
122 144 99
122 145 99
122 145 99
122 146 99
123 146 99
123 147 99
123 147 99
123 148 99
124 148 99
124 149 99
124 149 99
124 150 99
125 150 99
125 151 99
125 151 99
125 152 99
126 152 99
126 153 99
126 153 99
126 154 99
127 154 99
127 155 99
127 155 99
127 156 99
128 156 99
128 157 99
128 157 99
128 158 99
129 158 99
129 159 99
129 159 99
193 224 163
194 224 163
194 225 163
194 225 163
194 226 163
195 226 163
195 227 163
195 227 163
195 228 163
196 228 163
196 229 163
196 229 163
196 230 163
197 230 163
197 231 163
197 231 163
197 232 163
198 232 163
198 233 163
198 233 163
198 234 163
199 234 163
199 235 163
199 235 163
199 236 163
200 236 163
200 237 163
200 237 163
200 238 163
201 238 163
201 239 163
201 239 163
137 176 99
138 176 99
138 177 99
138 177 99
138 178 99
139 178 99
139 179 99
139 179 99
139 180 99
140 180 99
140 181 99
140 181 99
140 182 99
141 182 99
141 183 99
141 183 99
141 184 99
142 184 99
142 185 99
142 185 99
142 186 99
143 186 99
143 187 99
143 187 99
143 188 99
144 188 99
144 189 99
144 189 99
144 190 99
145 190 99
145 191 99
145 191 99
146 128 164
146 128 164
146 129 164
146 129 164
147 130 164
147 130 164
147 131 164
147 131 164
148 132 164
148 132 164
148 133 164
148 133 164
149 134 164
149 134 164
149 135 164
149 135 164
150 136 164
150 136 164
150 137 164
150 137 164
151 138 164
151 138 164
151 139 164
151 139 164
152 140 164
152 140 164
152 141 164
152 141 164
153 142 164
153 142 164
153 143 164
153 143 164
90 80 100
90 80 100
90 81 100
90 81 100
91 82 100
91 82 100
91 83 100
91 83 100
92 84 100
92 84 100
92 85 100
92 85 100
93 86 100
93 86 100
93 87 100
93 87 100
94 88 100
94 88 100
94 89 100
94 89 100
95 90 100
95 90 100
95 91 100
95 91 100
96 92 100
96 92 100
96 93 100
96 93 100
97 94 100
97 94 100
97 95 100
97 95 100
162 160 164
162 160 164
162 161 164
162 161 164
163 162 164
163 162 164
163 163 164
163 163 164
164 164 164
164 164 164
164 165 164
164 165 164
165 166 164
165 166 164
165 167 164
165 167 164
166 168 164
166 168 164
166 169 164
166 169 164
167 170 164
167 170 164
167 171 164
167 171 164
168 172 164
168 172 164
168 173 164
168 173 164
169 174 164
169 174 164
169 175 164
169 175 164
106 112 100
106 112 100
106 113 100
106 113 100
107 114 100
107 114 100
107 115 100
107 115 100
108 116 100
108 116 100
108 117 100
108 117 100
109 118 100
109 118 100
109 119 100
109 119 100
110 120 100
110 120 100
110 121 100
110 121 100
111 122 100
111 122 100
111 123 100
111 123 100
112 124 100
112 124 100
112 125 100
112 125 100
113 126 100
113 126 100
113 127 100
113 127 100
178 192 164
178 192 164
178 193 164
178 193 164
179 194 164
179 194 164
179 195 164
179 195 164
180 196 164
180 196 164
180 197 164
180 197 164
181 198 164
181 198 164
181 199 164
181 199 164
182 200 164
182 200 164
182 201 164
182 201 164
183 202 164
183 202 164
183 203 164
183 203 164
184 204 164
184 204 164
184 205 164
184 205 164
185 206 164
185 206 164
185 207 164
185 207 164
122 144 100
122 144 100
122 145 100
122 145 100
123 146 100
123 146 100
123 147 100
123 147 100
124 148 100
124 148 100
124 149 100
124 149 100
125 150 100
125 150 100
125 151 100
125 151 100
126 152 100
126 152 100
126 153 100
126 153 100
127 154 100
127 154 100
127 155 100
127 155 100
128 156 100
128 156 100
128 157 100
128 157 100
129 158 100
129 158 100
129 159 100
129 159 100
194 224 164
194 224 164
194 225 164
194 225 164
195 226 164
195 226 164
195 227 164
195 227 164
196 228 164
196 228 164
196 229 164
196 229 164
197 230 164
197 230 164
197 231 164
197 231 164
198 232 164
198 232 164
198 233 164
198 233 164
199 234 164
199 234 164
199 235 164
199 235 164
200 236 164
200 236 164
200 237 164
200 237 164
201 238 164
201 238 164
201 239 164
201 239 164
138 176 100
138 176 100
138 177 100
138 177 100
139 178 100
139 178 100
139 179 100
139 179 100
140 180 100
140 180 100
140 181 100
140 181 100
141 182 100
141 182 100
141 183 100
141 183 100
142 184 100
142 184 100
142 185 100
142 185 100
143 186 100
143 186 100
143 187 100
143 187 100
144 188 100
144 188 100
144 189 100
144 189 100
145 190 100
145 190 100
145 191 100
145 191 100
146 128 164
146 128 164
146 129 164
147 129 164
147 130 164
147 130 164
147 131 164
148 131 164
148 132 164
148 132 164
148 133 164
149 133 164
149 134 164
149 134 164
149 135 164
150 135 164
150 136 164
150 136 164
150 137 164
151 137 164
151 138 164
151 138 164
151 139 164
152 139 164
152 140 164
152 140 164
152 141 164
153 141 164
153 142 164
153 142 164
153 143 164
154 143 164
90 80 100
90 80 100
90 81 100
91 81 100
91 82 100
91 82 100
91 83 100
92 83 100
92 84 100
92 84 100
92 85 100
93 85 100
93 86 100
93 86 100
93 87 100
94 87 100
94 88 100
94 88 100
94 89 100
95 89 100
95 90 100
95 90 100
95 91 100
96 91 100
96 92 100
96 92 100
96 93 100
97 93 100
97 94 100
97 94 100
97 95 100
98 95 100
162 160 164
162 160 164
162 161 164
163 161 164
163 162 164
163 162 164
163 163 164
164 163 164
164 164 164
164 164 164
164 165 164
165 165 164
165 166 164
165 166 164
165 167 164
166 167 164
166 168 164
166 168 164
166 169 164
167 169 164
167 170 164
167 170 164
167 171 164
168 171 164
168 172 164
168 172 164
168 173 164
169 173 164
169 174 164
169 174 164
169 175 164
170 175 164
106 112 100
106 112 100
106 113 100
107 113 100
107 114 100
107 114 100
107 115 100
108 115 100
108 116 100
108 116 100
108 117 100
109 117 100
109 118 100
109 118 100
109 119 100
110 119 100
110 120 100
110 120 100
110 121 100
111 121 100
111 122 100
111 122 100
111 123 100
112 123 100
112 124 100
112 124 100
112 125 100
113 125 100
113 126 100
113 126 100
113 127 100
114 127 100
178 192 164
178 192 164
178 193 164
179 193 164
179 194 164
179 194 164
179 195 164
180 195 164
180 196 164
180 196 164
180 197 164
181 197 164
181 198 164
181 198 164
181 199 164
182 199 164
182 200 164
182 200 164
182 201 164
183 201 164
183 202 164
183 202 164
183 203 164
184 203 164
184 204 164
184 204 164
184 205 164
185 205 164
185 206 164
185 206 164
185 207 164
186 207 164
122 144 100
122 144 100
122 145 100
123 145 100
123 146 100
123 146 100
123 147 100
124 147 100
124 148 100
124 148 100
124 149 100
125 149 100
125 150 100
125 150 100
125 151 100
126 151 100
126 152 100
126 152 100
126 153 100
127 153 100
127 154 100
127 154 100
127 155 100
128 155 100
128 156 100
128 156 100
128 157 100
129 157 100
129 158 100
129 158 100
129 159 100
130 159 100
194 224 164
194 224 164
194 225 164
195 225 164
195 226 164
195 226 164
195 227 164
196 227 164
196 228 164
196 228 164
196 229 164
197 229 164
197 230 164
197 230 164
197 231 164
198 231 164
198 232 164
198 232 164
198 233 164
199 233 164
199 234 164
199 234 164
199 235 164
200 235 164
200 236 164
200 236 164
200 237 164
201 237 164
201 238 164
201 238 164
201 239 164
202 239 164
138 176 100
138 176 100
138 177 100
139 177 100
139 178 100
139 178 100
139 179 100
140 179 100
140 180 100
140 180 100
140 181 100
141 181 100
141 182 100
141 182 100
141 183 100
142 183 100
142 184 100
142 184 100
142 185 100
143 185 100
143 186 100
143 186 100
143 187 100
144 187 100
144 188 100
144 188 100
144 189 100
145 189 100
145 190 100
145 190 100
145 191 100
146 191 100
146 128 165
146 128 165
147 129 165
147 129 165
147 130 165
147 130 165
148 131 165
148 131 165
148 132 165
148 132 165
149 133 165
149 133 165
149 134 165
149 134 165
150 135 165
150 135 165
150 136 165
150 136 165
151 137 165
151 137 165
151 138 165
151 138 165
152 139 165
152 139 165
152 140 165
152 140 165
153 141 165
153 141 165
153 142 165
153 142 165
154 143 165
154 143 165
90 80 101
90 80 101
91 81 101
91 81 101
91 82 101
91 82 101
92 83 101
92 83 101
92 84 101
92 84 101
93 85 101
93 85 101
93 86 101
93 86 101
94 87 101
94 87 101
94 88 101
94 88 101
95 89 101
95 89 101
95 90 101
95 90 101
96 91 101
96 91 101
96 92 101
96 92 101
97 93 101
97 93 101
97 94 101
97 94 101
98 95 101
98 95 101
162 160 165
162 160 165
163 161 165
163 161 165
163 162 165
163 162 165
164 163 165
164 163 165
164 164 165
164 164 165
165 165 165
165 165 165
165 166 165
165 166 165
166 167 165
166 167 165
166 168 165
166 168 165
167 169 165
167 169 165
167 170 165
167 170 165
168 171 165
168 171 165
168 172 165
168 172 165
169 173 165
169 173 165
169 174 165
169 174 165
170 175 165
170 175 165
106 112 101
106 112 101
107 113 101
107 113 101
107 114 101
107 114 101
108 115 101
108 115 101
108 116 101
108 116 101
109 117 101
109 117 101
109 118 101
109 118 101
110 119 101
110 119 101
110 120 101
110 120 101
111 121 101
111 121 101
111 122 101
111 122 101
112 123 101
112 123 101
112 124 101
112 124 101
113 125 101
113 125 101
113 126 101
113 126 101
114 127 101
114 127 101
178 192 165
178 192 165
179 193 165
179 193 165
179 194 165
179 194 165
180 195 165
180 195 165
180 196 165
180 196 165
181 197 165
181 197 165
181 198 165
181 198 165
182 199 165
182 199 165
182 200 165
182 200 165
183 201 165
183 201 165
183 202 165
183 202 165
184 203 165
184 203 165
184 204 165
184 204 165
185 205 165
185 205 165
185 206 165
185 206 165
186 207 165
186 207 165
122 144 101
122 144 101
123 145 101
123 145 101
123 146 101
123 146 101
124 147 101
124 147 101
124 148 101
124 148 101
125 149 101
125 149 101
125 150 101
125 150 101
126 151 101
126 151 101
126 152 101
126 152 101
127 153 101
127 153 101
127 154 101
127 154 101
128 155 101
128 155 101
128 156 101
128 156 101
129 157 101
129 157 101
129 158 101
129 158 101
130 159 101
130 159 101
194 224 165
194 224 165
195 225 165
195 225 165
195 226 165
195 226 165
196 227 165
196 227 165
196 228 165
196 228 165
197 229 165
197 229 165
197 230 165
197 230 165
198 231 165
198 231 165
198 232 165
198 232 165
199 233 165
199 233 165
199 234 165
199 234 165
200 235 165
200 235 165
200 236 165
200 236 165
201 237 165
201 237 165
201 238 165
201 238 165
202 239 165
202 239 165
138 176 101
138 176 101
139 177 101
139 177 101
139 178 101
139 178 101
140 179 101
140 179 101
140 180 101
140 180 101
141 181 101
141 181 101
141 182 101
141 182 101
142 183 101
142 183 101
142 184 101
142 184 101
143 185 101
143 185 101
143 186 101
143 186 101
144 187 101
144 187 101
144 188 101
144 188 101
145 189 101
145 189 101
145 190 101
145 190 101
146 191 101
146 191 101
146 128 165
147 128 165
147 129 165
147 129 165
147 130 165
148 130 165
148 131 165
148 131 165
148 132 165
149 132 165
149 133 165
149 133 165
149 134 165
150 134 165
150 135 165
150 135 165
150 136 165
151 136 165
151 137 165
151 137 165
151 138 165
152 138 165
152 139 165
152 139 165
152 140 165
153 140 165
153 141 165
153 141 165
153 142 165
154 142 165
154 143 165
154 143 165
90 80 101
91 80 101
91 81 101
91 81 101
91 82 101
92 82 101
92 83 101
92 83 101
92 84 101
93 84 101
93 85 101
93 85 101
93 86 101
94 86 101
94 87 101
94 87 101
94 88 101
95 88 101
95 89 101
95 89 101
95 90 101
96 90 101
96 91 101
96 91 101
96 92 101
97 92 101
97 93 101
97 93 101
97 94 101
98 94 101
98 95 101
98 95 101
162 160 165
163 160 165
163 161 165
163 161 165
163 162 165
164 162 165
164 163 165
164 163 165
164 164 165
165 164 165
165 165 165
165 165 165
165 166 165
166 166 165
166 167 165
166 167 165
166 168 165
167 168 165
167 169 165
167 169 165
167 170 165
168 170 165
168 171 165
168 171 165
168 172 165
169 172 165
169 173 165
169 173 165
169 174 165
170 174 165
170 175 165
170 175 165
106 112 101
107 112 101
107 113 101
107 113 101
107 114 101
108 114 101
108 115 101
108 115 101
108 116 101
109 116 101
109 117 101
109 117 101
109 118 101
110 118 101
110 119 101
110 119 101
110 120 101
111 120 101
111 121 101
111 121 101
111 122 101
112 122 101
112 123 101
112 123 101
112 124 101
113 124 101
113 125 101
113 125 101
113 126 101
114 126 101
114 127 101
114 127 101
178 192 165
179 192 165
179 193 165
179 193 165
179 194 165
180 194 165
180 195 165
180 195 165
180 196 165
181 196 165
181 197 165
181 197 165
181 198 165
182 198 165
182 199 165
182 199 165
182 200 165
183 200 165
183 201 165
183 201 165
183 202 165
184 202 165
184 203 165
184 203 165
184 204 165
185 204 165
185 205 165
185 205 165
185 206 165
186 206 165
186 207 165
186 207 165
122 144 101
123 144 101
123 145 101
123 145 101
123 146 101
124 146 101
124 147 101
124 147 101
124 148 101
125 148 101
125 149 101
125 149 101
125 150 101
126 150 101
126 151 101
126 151 101
126 152 101
127 152 101
127 153 101
127 153 101
127 154 101
128 154 101
128 155 101
128 155 101
128 156 101
129 156 101
129 157 101
129 157 101
129 158 101
130 158 101
130 159 101
130 159 101
194 224 165
195 224 165
195 225 165
195 225 165
195 226 165
196 226 165
196 227 165
196 227 165
196 228 165
197 228 165
197 229 165
197 229 165
197 230 165
198 230 165
198 231 165
198 231 165
198 232 165
199 232 165
199 233 165
199 233 165
199 234 165
200 234 165
200 235 165
200 235 165
200 236 165
201 236 165
201 237 165
201 237 165
201 238 165
202 238 165
202 239 165
202 239 165
138 176 101
139 176 101
139 177 101
139 177 101
139 178 101
140 178 101
140 179 101
140 179 101
140 180 101
141 180 101
141 181 101
141 181 101
141 182 101
142 182 101
142 183 101
142 183 101
142 184 101
143 184 101
143 185 101
143 185 101
143 186 101
144 186 101
144 187 101
144 187 101
144 188 101
145 188 101
145 189 101
145 189 101
145 190 101
146 190 101
146 191 101
146 191 101
147 128 166
147 128 166
147 129 166
147 129 166
148 130 166
148 130 166
148 131 166
148 131 166
149 132 166
149 132 166
149 133 166
149 133 166
150 134 166
150 134 166
150 135 166
150 135 166
151 136 166
151 136 166
151 137 166
151 137 166
152 138 166
152 138 166
152 139 166
152 139 166
153 140 166
153 140 166
153 141 166
153 141 166
154 142 166
154 142 166
154 143 166
154 143 166
91 80 102
91 80 102
91 81 102
91 81 102
92 82 102
92 82 102
92 83 102
92 83 102
93 84 102
93 84 102
93 85 102
93 85 102
94 86 102
94 86 102
94 87 102
94 87 102
95 88 102
95 88 102
95 89 102
95 89 102
96 90 102
96 90 102
96 91 102
96 91 102
97 92 102
97 92 102
97 93 102
97 93 102
98 94 102
98 94 102
98 95 102
98 95 102
163 160 166
163 160 166
163 161 166
163 161 166
164 162 166
164 162 166
164 163 166
164 163 166
165 164 166
165 164 166
165 165 166
165 165 166
166 166 166
166 166 166
166 167 166
166 167 166
167 168 166
167 168 166
167 169 166
167 169 166
168 170 166
168 170 166
168 171 166
168 171 166
169 172 166
169 172 166
169 173 166
169 173 166
170 174 166
170 174 166
170 175 166
170 175 166
107 112 102
107 112 102
107 113 102
107 113 102
108 114 102
108 114 102
108 115 102
108 115 102
109 116 102
109 116 102
109 117 102
109 117 102
110 118 102
110 118 102
110 119 102
110 119 102
111 120 102
111 120 102
111 121 102
111 121 102
112 122 102
112 122 102
112 123 102
112 123 102
113 124 102
113 124 102
113 125 102
113 125 102
114 126 102
114 126 102
114 127 102
114 127 102
179 192 166
179 192 166
179 193 166
179 193 166
180 194 166
180 194 166
180 195 166
180 195 166
181 196 166
181 196 166
181 197 166
181 197 166
182 198 166
182 198 166
182 199 166
182 199 166
183 200 166
183 200 166
183 201 166
183 201 166
184 202 166
184 202 166
184 203 166
184 203 166
185 204 166
185 204 166
185 205 166
185 205 166
186 206 166
186 206 166
186 207 166
186 207 166
123 144 102
123 144 102
123 145 102
123 145 102
124 146 102
124 146 102
124 147 102
124 147 102
125 148 102
125 148 102
125 149 102
125 149 102
126 150 102
126 150 102
126 151 102
126 151 102
127 152 102
127 152 102
127 153 102
127 153 102
128 154 102
128 154 102
128 155 102
128 155 102
129 156 102
129 156 102
129 157 102
129 157 102
130 158 102
130 158 102
130 159 102
130 159 102
195 224 166
195 224 166
195 225 166
195 225 166
196 226 166
196 226 166
196 227 166
196 227 166
197 228 166
197 228 166
197 229 166
197 229 166
198 230 166
198 230 166
198 231 166
198 231 166
199 232 166
199 232 166
199 233 166
199 233 166
200 234 166
200 234 166
200 235 166
200 235 166
201 236 166
201 236 166
201 237 166
201 237 166
202 238 166
202 238 166
202 239 166
202 239 166
139 176 102
139 176 102
139 177 102
139 177 102
140 178 102
140 178 102
140 179 102
140 179 102
141 180 102
141 180 102
141 181 102
141 181 102
142 182 102
142 182 102
142 183 102
142 183 102
143 184 102
143 184 102
143 185 102
143 185 102
144 186 102
144 186 102
144 187 102
144 187 102
145 188 102
145 188 102
145 189 102
145 189 102
146 190 102
146 190 102
146 191 102
146 191 102
147 128 166
147 128 166
147 129 166
148 129 166
148 130 166
148 130 166
148 131 166
149 131 166
149 132 166
149 132 166
149 133 166
150 133 166
150 134 166
150 134 166
150 135 166
151 135 166
151 136 166
151 136 166
151 137 166
152 137 166
152 138 166
152 138 166
152 139 166
153 139 166
153 140 166
153 140 166
153 141 166
154 141 166
154 142 166
154 142 166
154 143 166
155 143 166
91 80 102
91 80 102
91 81 102
92 81 102
92 82 102
92 82 102
92 83 102
93 83 102
93 84 102
93 84 102
93 85 102
94 85 102
94 86 102
94 86 102
94 87 102
95 87 102
95 88 102
95 88 102
95 89 102
96 89 102
96 90 102
96 90 102
96 91 102
97 91 102
97 92 102
97 92 102
97 93 102
98 93 102
98 94 102
98 94 102
98 95 102
99 95 102
163 160 166
163 160 166
163 161 166
164 161 166
164 162 166
164 162 166
164 163 166
165 163 166
165 164 166
165 164 166
165 165 166
166 165 166
166 166 166
166 166 166
166 167 166
167 167 166
167 168 166
167 168 166
167 169 166
168 169 166
168 170 166
168 170 166
168 171 166
169 171 166
169 172 166
169 172 166
169 173 166
170 173 166
170 174 166
170 174 166
170 175 166
171 175 166
107 112 102
107 112 102
107 113 102
108 113 102
108 114 102
108 114 102
108 115 102
109 115 102
109 116 102
109 116 102
109 117 102
110 117 102
110 118 102
110 118 102
110 119 102
111 119 102
111 120 102
111 120 102
111 121 102
112 121 102
112 122 102
112 122 102
112 123 102
113 123 102
113 124 102
113 124 102
113 125 102
114 125 102
114 126 102
114 126 102
114 127 102
115 127 102
179 192 166
179 192 166
179 193 166
180 193 166
180 194 166
180 194 166
180 195 166
181 195 166
181 196 166
181 196 166
181 197 166
182 197 166
182 198 166
182 198 166
182 199 166
183 199 166
183 200 166
183 200 166
183 201 166
184 201 166
184 202 166
184 202 166
184 203 166
185 203 166
185 204 166
185 204 166
185 205 166
186 205 166
186 206 166
186 206 166
186 207 166
187 207 166
123 144 102
123 144 102
123 145 102
124 145 102
124 146 102
124 146 102
124 147 102
125 147 102
125 148 102
125 148 102
125 149 102
126 149 102
126 150 102
126 150 102
126 151 102
127 151 102
127 152 102
127 152 102
127 153 102
128 153 102
128 154 102
128 154 102
128 155 102
129 155 102
129 156 102
129 156 102
129 157 102
130 157 102
130 158 102
130 158 102
130 159 102
131 159 102
195 224 166
195 224 166
195 225 166
196 225 166
196 226 166
196 226 166
196 227 166
197 227 166
197 228 166
197 228 166
197 229 166
198 229 166
198 230 166
198 230 166
198 231 166
199 231 166
199 232 166
199 232 166
199 233 166
200 233 166
200 234 166
200 234 166
200 235 166
201 235 166
201 236 166
201 236 166
201 237 166
202 237 166
202 238 166
202 238 166
202 239 166
203 239 166
139 176 102
139 176 102
139 177 102
140 177 102
140 178 102
140 178 102
140 179 102
141 179 102
141 180 102
141 180 102
141 181 102
142 181 102
142 182 102
142 182 102
142 183 102
143 183 102
143 184 102
143 184 102
143 185 102
144 185 102
144 186 102
144 186 102
144 187 102
145 187 102
145 188 102
145 188 102
145 189 102
146 189 102
146 190 102
146 190 102
146 191 102
147 191 102
147 128 167
147 128 167
148 129 167
148 129 167
148 130 167
148 130 167
149 131 167
149 131 167
149 132 167
149 132 167
150 133 167
150 133 167
150 134 167
150 134 167
151 135 167
151 135 167
151 136 167
151 136 167
152 137 167
152 137 167
152 138 167
152 138 167
153 139 167
153 139 167
153 140 167
153 140 167
154 141 167
154 141 167
154 142 167
154 142 167
155 143 167
155 143 167
91 80 103
91 80 103
92 81 103
92 81 103
92 82 103
92 82 103
93 83 103
93 83 103
93 84 103
93 84 103
94 85 103
94 85 103
94 86 103
94 86 103
95 87 103
95 87 103
95 88 103
95 88 103
96 89 103
96 89 103
96 90 103
96 90 103
97 91 103
97 91 103
97 92 103
97 92 103
98 93 103
98 93 103
98 94 103
98 94 103
99 95 103
99 95 103
163 160 167
163 160 167
164 161 167
164 161 167
164 162 167
164 162 167
165 163 167
165 163 167
165 164 167
165 164 167
166 165 167
166 165 167
166 166 167
166 166 167
167 167 167
167 167 167
167 168 167
167 168 167
168 169 167
168 169 167
168 170 167
168 170 167
169 171 167
169 171 167
169 172 167
169 172 167
170 173 167
170 173 167
170 174 167
170 174 167
171 175 167
171 175 167
107 112 103
107 112 103
108 113 103
108 113 103
108 114 103
108 114 103
109 115 103
109 115 103
109 116 103
109 116 103
110 117 103
110 117 103
110 118 103
110 118 103
111 119 103
111 119 103
111 120 103
111 120 103
112 121 103
112 121 103
112 122 103
112 122 103
113 123 103
113 123 103
113 124 103
113 124 103
114 125 103
114 125 103
114 126 103
114 126 103
115 127 103
115 127 103
179 192 167
179 192 167
180 193 167
180 193 167
180 194 167
180 194 167
181 195 167
181 195 167
181 196 167
181 196 167
182 197 167
182 197 167
182 198 167
182 198 167
183 199 167
183 199 167
183 200 167
183 200 167
184 201 167
184 201 167
184 202 167
184 202 167
185 203 167
185 203 167
185 204 167
185 204 167
186 205 167
186 205 167
186 206 167
186 206 167
187 207 167
187 207 167
123 144 103
123 144 103
124 145 103
124 145 103
124 146 103
124 146 103
125 147 103
125 147 103
125 148 103
125 148 103
126 149 103
126 149 103
126 150 103
126 150 103
127 151 103
127 151 103
127 152 103
127 152 103
128 153 103
128 153 103
128 154 103
128 154 103
129 155 103
129 155 103
129 156 103
129 156 103
130 157 103
130 157 103
130 158 103
130 158 103
131 159 103
131 159 103
195 224 167
195 224 167
196 225 167
196 225 167
196 226 167
196 226 167
197 227 167
197 227 167
197 228 167
197 228 167
198 229 167
198 229 167
198 230 167
198 230 167
199 231 167
199 231 167
199 232 167
199 232 167
200 233 167
200 233 167
200 234 167
200 234 167
201 235 167
201 235 167
201 236 167
201 236 167
202 237 167
202 237 167
202 238 167
202 238 167
203 239 167
203 239 167
139 176 103
139 176 103
140 177 103
140 177 103
140 178 103
140 178 103
141 179 103
141 179 103
141 180 103
141 180 103
142 181 103
142 181 103
142 182 103
142 182 103
143 183 103
143 183 103
143 184 103
143 184 103
144 185 103
144 185 103
144 186 103
144 186 103
145 187 103
145 187 103
145 188 103
145 188 103
146 189 103
146 189 103
146 190 103
146 190 103
147 191 103
147 191 103
147 128 167
148 128 167
148 129 167
148 129 167
148 130 167
149 130 167
149 131 167
149 131 167
149 132 167
150 132 167
150 133 167
150 133 167
150 134 167
151 134 167
151 135 167
151 135 167
151 136 167
152 136 167
152 137 167
152 137 167
152 138 167
153 138 167
153 139 167
153 139 167
153 140 167
154 140 167
154 141 167
154 141 167
154 142 167
155 142 167
155 143 167
155 143 167
91 80 103
92 80 103
92 81 103
92 81 103
92 82 103
93 82 103
93 83 103
93 83 103
93 84 103
94 84 103
94 85 103
94 85 103
94 86 103
95 86 103
95 87 103
95 87 103
95 88 103
96 88 103
96 89 103
96 89 103
96 90 103
97 90 103
97 91 103
97 91 103
97 92 103
98 92 103
98 93 103
98 93 103
98 94 103
99 94 103
99 95 103
99 95 103
163 160 167
164 160 167
164 161 167
164 161 167
164 162 167
165 162 167
165 163 167
165 163 167
165 164 167
166 164 167
166 165 167
166 165 167
166 166 167
167 166 167
167 167 167
167 167 167
167 168 167
168 168 167
168 169 167
168 169 167
168 170 167
169 170 167
169 171 167
169 171 167
169 172 167
170 172 167
170 173 167
170 173 167
170 174 167
171 174 167
171 175 167
171 175 167
107 112 103
108 112 103
108 113 103
108 113 103
108 114 103
109 114 103
109 115 103
109 115 103
109 116 103
110 116 103
110 117 103
110 117 103
110 118 103
111 118 103
111 119 103
111 119 103
111 120 103
112 120 103
112 121 103
112 121 103
112 122 103
113 122 103
113 123 103
113 123 103
113 124 103
114 124 103
114 125 103
114 125 103
114 126 103
115 126 103
115 127 103
115 127 103
179 192 167
180 192 167
180 193 167
180 193 167
180 194 167
181 194 167
181 195 167
181 195 167
181 196 167
182 196 167
182 197 167
182 197 167
182 198 167
183 198 167
183 199 167
183 199 167
183 200 167
184 200 167
184 201 167
184 201 167
184 202 167
185 202 167
185 203 167
185 203 167
185 204 167
186 204 167
186 205 167
186 205 167
186 206 167
187 206 167
187 207 167
187 207 167
123 144 103
124 144 103
124 145 103
124 145 103
124 146 103
125 146 103
125 147 103
125 147 103
125 148 103
126 148 103
126 149 103
126 149 103
126 150 103
127 150 103
127 151 103
127 151 103
127 152 103
128 152 103
128 153 103
128 153 103
128 154 103
129 154 103
129 155 103
129 155 103
129 156 103
130 156 103
130 157 103
130 157 103
130 158 103
131 158 103
131 159 103
131 159 103
195 224 167
196 224 167
196 225 167
196 225 167
196 226 167
197 226 167
197 227 167
197 227 167
197 228 167
198 228 167
198 229 167
198 229 167
198 230 167
199 230 167
199 231 167
199 231 167
199 232 167
200 232 167
200 233 167
200 233 167
200 234 167
201 234 167
201 235 167
201 235 167
201 236 167
202 236 167
202 237 167
202 237 167
202 238 167
203 238 167
203 239 167
203 239 167
139 176 103
140 176 103
140 177 103
140 177 103
140 178 103
141 178 103
141 179 103
141 179 103
141 180 103
142 180 103
142 181 103
142 181 103
142 182 103
143 182 103
143 183 103
143 183 103
143 184 103
144 184 103
144 185 103
144 185 103
144 186 103
145 186 103
145 187 103
145 187 103
145 188 103
146 188 103
146 189 103
146 189 103
146 190 103
147 190 103
147 191 103
147 191 103
148 128 168
148 128 168
148 129 168
148 129 168
149 130 168
149 130 168
149 131 168
149 131 168
150 132 168
150 132 168
150 133 168
150 133 168
151 134 168
151 134 168
151 135 168
151 135 168
152 136 168
152 136 168
152 137 168
152 137 168
153 138 168
153 138 168
153 139 168
153 139 168
154 140 168
154 140 168
154 141 168
154 141 168
155 142 168
155 142 168
155 143 168
155 143 168
92 80 104
92 80 104
92 81 104
92 81 104
93 82 104
93 82 104
93 83 104
93 83 104
94 84 104
94 84 104
94 85 104
94 85 104
95 86 104
95 86 104
95 87 104
95 87 104
96 88 104
96 88 104
96 89 104
96 89 104
97 90 104
97 90 104
97 91 104
97 91 104
98 92 104
98 92 104
98 93 104
98 93 104
99 94 104
99 94 104
99 95 104
99 95 104
164 160 168
164 160 168
164 161 168
164 161 168
165 162 168
165 162 168
165 163 168
165 163 168
166 164 168
166 164 168
166 165 168
166 165 168
167 166 168
167 166 168
167 167 168
167 167 168
168 168 168
168 168 168
168 169 168
168 169 168
169 170 168
169 170 168
169 171 168
169 171 168
170 172 168
170 172 168
170 173 168
170 173 168
171 174 168
171 174 168
171 175 168
171 175 168
108 112 104
108 112 104
108 113 104
108 113 104
109 114 104
109 114 104
109 115 104
109 115 104
110 116 104
110 116 104
110 117 104
110 117 104
111 118 104
111 118 104
111 119 104
111 119 104
112 120 104
112 120 104
112 121 104
112 121 104
113 122 104
113 122 104
113 123 104
113 123 104
114 124 104
114 124 104
114 125 104
114 125 104
115 126 104
115 126 104
115 127 104
115 127 104
180 192 168
180 192 168
180 193 168
180 193 168
181 194 168
181 194 168
181 195 168
181 195 168
182 196 168
182 196 168
182 197 168
182 197 168
183 198 168
183 198 168
183 199 168
183 199 168
184 200 168
184 200 168
184 201 168
184 201 168
185 202 168
185 202 168
185 203 168
185 203 168
186 204 168
186 204 168
186 205 168
186 205 168
187 206 168
187 206 168
187 207 168
187 207 168
124 144 104
124 144 104
124 145 104
124 145 104
125 146 104
125 146 104
125 147 104
125 147 104
126 148 104
126 148 104
126 149 104
126 149 104
127 150 104
127 150 104
127 151 104
127 151 104
128 152 104
128 152 104
128 153 104
128 153 104
129 154 104
129 154 104
129 155 104
129 155 104
130 156 104
130 156 104
130 157 104
130 157 104
131 158 104
131 158 104
131 159 104
131 159 104
196 224 168
196 224 168
196 225 168
196 225 168
197 226 168
197 226 168
197 227 168
197 227 168
198 228 168
198 228 168
198 229 168
198 229 168
199 230 168
199 230 168
199 231 168
199 231 168
200 232 168
200 232 168
200 233 168
200 233 168
201 234 168
201 234 168
201 235 168
201 235 168
202 236 168
202 236 168
202 237 168
202 237 168
203 238 168
203 238 168
203 239 168
203 239 168
140 176 104
140 176 104
140 177 104
140 177 104
141 178 104
141 178 104
141 179 104
141 179 104
142 180 104
142 180 104
142 181 104
142 181 104
143 182 104
143 182 104
143 183 104
143 183 104
144 184 104
144 184 104
144 185 104
144 185 104
145 186 104
145 186 104
145 187 104
145 187 104
146 188 104
146 188 104
146 189 104
146 189 104
147 190 104
147 190 104
147 191 104
147 191 104
148 128 168
148 128 168
148 129 168
149 129 168
149 130 168
149 130 168
149 131 168
150 131 168
150 132 168
150 132 168
150 133 168
151 133 168
151 134 168
151 134 168
151 135 168
152 135 168
152 136 168
152 136 168
152 137 168
153 137 168
153 138 168
153 138 168
153 139 168
154 139 168
154 140 168
154 140 168
154 141 168
155 141 168
155 142 168
155 142 168
155 143 168
156 143 168
92 80 104
92 80 104
92 81 104
93 81 104
93 82 104
93 82 104
93 83 104
94 83 104
94 84 104
94 84 104
94 85 104
95 85 104
95 86 104
95 86 104
95 87 104
96 87 104
96 88 104
96 88 104
96 89 104
97 89 104
97 90 104
97 90 104
97 91 104
98 91 104
98 92 104
98 92 104
98 93 104
99 93 104
99 94 104
99 94 104
99 95 104
100 95 104
164 160 168
164 160 168
164 161 168
165 161 168
165 162 168
165 162 168
165 163 168
166 163 168
166 164 168
166 164 168
166 165 168
167 165 168
167 166 168
167 166 168
167 167 168
168 167 168
168 168 168
168 168 168
168 169 168
169 169 168
169 170 168
169 170 168
169 171 168
170 171 168
170 172 168
170 172 168
170 173 168
171 173 168
171 174 168
171 174 168
171 175 168
172 175 168
108 112 104
108 112 104
108 113 104
109 113 104
109 114 104
109 114 104
109 115 104
110 115 104
110 116 104
110 116 104
110 117 104
111 117 104
111 118 104
111 118 104
111 119 104
112 119 104
112 120 104
112 120 104
112 121 104
113 121 104
113 122 104
113 122 104
113 123 104
114 123 104
114 124 104
114 124 104
114 125 104
115 125 104
115 126 104
115 126 104
115 127 104
116 127 104
180 192 168
180 192 168
180 193 168
181 193 168
181 194 168
181 194 168
181 195 168
182 195 168
182 196 168
182 196 168
182 197 168
183 197 168
183 198 168
183 198 168
183 199 168
184 199 168
184 200 168
184 200 168
184 201 168
185 201 168
185 202 168
185 202 168
185 203 168
186 203 168
186 204 168
186 204 168
186 205 168
187 205 168
187 206 168
187 206 168
187 207 168
188 207 168
124 144 104
124 144 104
124 145 104
125 145 104
125 146 104
125 146 104
125 147 104
126 147 104
126 148 104
126 148 104
126 149 104
127 149 104
127 150 104
127 150 104
127 151 104
128 151 104
128 152 104
128 152 104
128 153 104
129 153 104
129 154 104
129 154 104
129 155 104
130 155 104
130 156 104
130 156 104
130 157 104
131 157 104
131 158 104
131 158 104
131 159 104
132 159 104
196 224 168
196 224 168
196 225 168
197 225 168
197 226 168
197 226 168
197 227 168
198 227 168
198 228 168
198 228 168
198 229 168
199 229 168
199 230 168
199 230 168
199 231 168
200 231 168
200 232 168
200 232 168
200 233 168
201 233 168
201 234 168
201 234 168
201 235 168
202 235 168
202 236 168
202 236 168
202 237 168
203 237 168
203 238 168
203 238 168
203 239 168
204 239 168
140 176 104
140 176 104
140 177 104
141 177 104
141 178 104
141 178 104
141 179 104
142 179 104
142 180 104
142 180 104
142 181 104
143 181 104
143 182 104
143 182 104
143 183 104
144 183 104
144 184 104
144 184 104
144 185 104
145 185 104
145 186 104
145 186 104
145 187 104
146 187 104
146 188 104
146 188 104
146 189 104
147 189 104
147 190 104
147 190 104
147 191 104
148 191 104
148 128 169
148 128 169
149 129 169
149 129 169
149 130 169
149 130 169
150 131 169
150 131 169
150 132 169
150 132 169
151 133 169
151 133 169
151 134 169
151 134 169
152 135 169
152 135 169
152 136 169
152 136 169
153 137 169
153 137 169
153 138 169
153 138 169
154 139 169
154 139 169
154 140 169
154 140 169
155 141 169
155 141 169
155 142 169
155 142 169
156 143 169
156 143 169
92 80 105
92 80 105
93 81 105
93 81 105
93 82 105
93 82 105
94 83 105
94 83 105
94 84 105
94 84 105
95 85 105
95 85 105
95 86 105
95 86 105
96 87 105
96 87 105
96 88 105
96 88 105
97 89 105
97 89 105
97 90 105
97 90 105
98 91 105
98 91 105
98 92 105
98 92 105
99 93 105
99 93 105
99 94 105
99 94 105
100 95 105
100 95 105
164 160 169
164 160 169
165 161 169
165 161 169
165 162 169
165 162 169
166 163 169
166 163 169
166 164 169
166 164 169
167 165 169
167 165 169
167 166 169
167 166 169
168 167 169
168 167 169
168 168 169
168 168 169
169 169 169
169 169 169
169 170 169
169 170 169
170 171 169
170 171 169
170 172 169
170 172 169
171 173 169
171 173 169
171 174 169
171 174 169
172 175 169
172 175 169
108 112 105
108 112 105
109 113 105
109 113 105
109 114 105
109 114 105
110 115 105
110 115 105
110 116 105
110 116 105
111 117 105
111 117 105
111 118 105
111 118 105
112 119 105
112 119 105
112 120 105
112 120 105
113 121 105
113 121 105
113 122 105
113 122 105
114 123 105
114 123 105
114 124 105
114 124 105
115 125 105
115 125 105
115 126 105
115 126 105
116 127 105
116 127 105
180 192 169
180 192 169
181 193 169
181 193 169
181 194 169
181 194 169
182 195 169
182 195 169
182 196 169
182 196 169
183 197 169
183 197 169
183 198 169
183 198 169
184 199 169
184 199 169
184 200 169
184 200 169
185 201 169
185 201 169
185 202 169
185 202 169
186 203 169
186 203 169
186 204 169
186 204 169
187 205 169
187 205 169
187 206 169
187 206 169
188 207 169
188 207 169
124 144 105
124 144 105
125 145 105
125 145 105
125 146 105
125 146 105
126 147 105
126 147 105
126 148 105
126 148 105
127 149 105
127 149 105
127 150 105
127 150 105
128 151 105
128 151 105
128 152 105
128 152 105
129 153 105
129 153 105
129 154 105
129 154 105
130 155 105
130 155 105
130 156 105
130 156 105
131 157 105
131 157 105
131 158 105
131 158 105
132 159 105
132 159 105
196 224 169
196 224 169
197 225 169
197 225 169
197 226 169
197 226 169
198 227 169
198 227 169
198 228 169
198 228 169
199 229 169
199 229 169
199 230 169
199 230 169
200 231 169
200 231 169
200 232 169
200 232 169
201 233 169
201 233 169
201 234 169
201 234 169
202 235 169
202 235 169
202 236 169
202 236 169
203 237 169
203 237 169
203 238 169
203 238 169
204 239 169
204 239 169
140 176 105
140 176 105
141 177 105
141 177 105
141 178 105
141 178 105
142 179 105
142 179 105
142 180 105
142 180 105
143 181 105
143 181 105
143 182 105
143 182 105
144 183 105
144 183 105
144 184 105
144 184 105
145 185 105
145 185 105
145 186 105
145 186 105
146 187 105
146 187 105
146 188 105
146 188 105
147 189 105
147 189 105
147 190 105
147 190 105
148 191 105
148 191 105
148 128 169
149 128 169
149 129 169
149 129 169
149 130 169
150 130 169
150 131 169
150 131 169
150 132 169
151 132 169
151 133 169
151 133 169
151 134 169
152 134 169
152 135 169
152 135 169
152 136 169
153 136 169
153 137 169
153 137 169
153 138 169
154 138 169
154 139 169
154 139 169
154 140 169
155 140 169
155 141 169
155 141 169
155 142 169
156 142 169
156 143 169
156 143 169
92 80 105
93 80 105
93 81 105
93 81 105
93 82 105
94 82 105
94 83 105
94 83 105
94 84 105
95 84 105
95 85 105
95 85 105
95 86 105
96 86 105
96 87 105
96 87 105
96 88 105
97 88 105
97 89 105
97 89 105
97 90 105
98 90 105
98 91 105
98 91 105
98 92 105
99 92 105
99 93 105
99 93 105
99 94 105
100 94 105
100 95 105
100 95 105
164 160 169
165 160 169
165 161 169
165 161 169
165 162 169
166 162 169
166 163 169
166 163 169
166 164 169
167 164 169
167 165 169
167 165 169
167 166 169
168 166 169
168 167 169
168 167 169
168 168 169
169 168 169
169 169 169
169 169 169
169 170 169
170 170 169
170 171 169
170 171 169
170 172 169
171 172 169
171 173 169
171 173 169
171 174 169
172 174 169
172 175 169
172 175 169
108 112 105
109 112 105
109 113 105
109 113 105
109 114 105
110 114 105
110 115 105
110 115 105
110 116 105
111 116 105
111 117 105
111 117 105
111 118 105
112 118 105
112 119 105
112 119 105
112 120 105
113 120 105
113 121 105
113 121 105
113 122 105
114 122 105
114 123 105
114 123 105
114 124 105
115 124 105
115 125 105
115 125 105
115 126 105
116 126 105
116 127 105
116 127 105
180 192 169
181 192 169
181 193 169
181 193 169
181 194 169
182 194 169
182 195 169
182 195 169
182 196 169
183 196 169
183 197 169
183 197 169
183 198 169
184 198 169
184 199 169
184 199 169
184 200 169
185 200 169
185 201 169
185 201 169
185 202 169
186 202 169
186 203 169
186 203 169
186 204 169
187 204 169
187 205 169
187 205 169
187 206 169
188 206 169
188 207 169
188 207 169
124 144 105
125 144 105
125 145 105
125 145 105
125 146 105
126 146 105
126 147 105
126 147 105
126 148 105
127 148 105
127 149 105
127 149 105
127 150 105
128 150 105
128 151 105
128 151 105
128 152 105
129 152 105
129 153 105
129 153 105
129 154 105
130 154 105
130 155 105
130 155 105
130 156 105
131 156 105
131 157 105
131 157 105
131 158 105
132 158 105
132 159 105
132 159 105
196 224 169
197 224 169
197 225 169
197 225 169
197 226 169
198 226 169
198 227 169
198 227 169
198 228 169
199 228 169
199 229 169
199 229 169
199 230 169
200 230 169
200 231 169
200 231 169
200 232 169
201 232 169
201 233 169
201 233 169
201 234 169
202 234 169
202 235 169
202 235 169
202 236 169
203 236 169
203 237 169
203 237 169
203 238 169
204 238 169
204 239 169
204 239 169
140 176 105
141 176 105
141 177 105
141 177 105
141 178 105
142 178 105
142 179 105
142 179 105
142 180 105
143 180 105
143 181 105
143 181 105
143 182 105
144 182 105
144 183 105
144 183 105
144 184 105
145 184 105
145 185 105
145 185 105
145 186 105
146 186 105
146 187 105
146 187 105
146 188 105
147 188 105
147 189 105
147 189 105
147 190 105
148 190 105
148 191 105
148 191 105
149 128 170
149 128 170
149 129 170
149 129 170
150 130 170
150 130 170
150 131 170
150 131 170
151 132 170
151 132 170
151 133 170
151 133 170
152 134 170
152 134 170
152 135 170
152 135 170
153 136 170
153 136 170
153 137 170
153 137 170
154 138 170
154 138 170
154 139 170
154 139 170
155 140 170
155 140 170
155 141 170
155 141 170
156 142 170
156 142 170
156 143 170
156 143 170
93 80 106
93 80 106
93 81 106
93 81 106
94 82 106
94 82 106
94 83 106
94 83 106
95 84 106
95 84 106
95 85 106
95 85 106
96 86 106
96 86 106
96 87 106
96 87 106
97 88 106
97 88 106
97 89 106
97 89 106
98 90 106
98 90 106
98 91 106
98 91 106
99 92 106
99 92 106
99 93 106
99 93 106
100 94 106
100 94 106
100 95 106
100 95 106
165 160 170
165 160 170
165 161 170
165 161 170
166 162 170
166 162 170
166 163 170
166 163 170
167 164 170
167 164 170
167 165 170
167 165 170
168 166 170
168 166 170
168 167 170
168 167 170
169 168 170
169 168 170
169 169 170
169 169 170
170 170 170
170 170 170
170 171 170
170 171 170
171 172 170
171 172 170
171 173 170
171 173 170
172 174 170
172 174 170
172 175 170
172 175 170
109 112 106
109 112 106
109 113 106
109 113 106
110 114 106
110 114 106
110 115 106
110 115 106
111 116 106
111 116 106
111 117 106
111 117 106
112 118 106
112 118 106
112 119 106
112 119 106
113 120 106
113 120 106
113 121 106
113 121 106
114 122 106
114 122 106
114 123 106
114 123 106
115 124 106
115 124 106
115 125 106
115 125 106
116 126 106
116 126 106
116 127 106
116 127 106
181 192 170
181 192 170
181 193 170
181 193 170
182 194 170
182 194 170
182 195 170
182 195 170
183 196 170
183 196 170
183 197 170
183 197 170
184 198 170
184 198 170
184 199 170
184 199 170
185 200 170
185 200 170
185 201 170
185 201 170
186 202 170
186 202 170
186 203 170
186 203 170
187 204 170
187 204 170
187 205 170
187 205 170
188 206 170
188 206 170
188 207 170
188 207 170
125 144 106
125 144 106
125 145 106
125 145 106
126 146 106
126 146 106
126 147 106
126 147 106
127 148 106
127 148 106
127 149 106
127 149 106
128 150 106
128 150 106
128 151 106
128 151 106
129 152 106
129 152 106
129 153 106
129 153 106
130 154 106
130 154 106
130 155 106
130 155 106
131 156 106
131 156 106
131 157 106
131 157 106
132 158 106
132 158 106
132 159 106
132 159 106
197 224 170
197 224 170
197 225 170
197 225 170
198 226 170
198 226 170
198 227 170
198 227 170
199 228 170
199 228 170
199 229 170
199 229 170
200 230 170
200 230 170
200 231 170
200 231 170
201 232 170
201 232 170
201 233 170
201 233 170
202 234 170
202 234 170
202 235 170
202 235 170
203 236 170
203 236 170
203 237 170
203 237 170
204 238 170
204 238 170
204 239 170
204 239 170
141 176 106
141 176 106
141 177 106
141 177 106
142 178 106
142 178 106
142 179 106
142 179 106
143 180 106
143 180 106
143 181 106
143 181 106
144 182 106
144 182 106
144 183 106
144 183 106
145 184 106
145 184 106
145 185 106
145 185 106
146 186 106
146 186 106
146 187 106
146 187 106
147 188 106
147 188 106
147 189 106
147 189 106
148 190 106
148 190 106
148 191 106
148 191 106
149 128 170
149 128 170
149 129 170
150 129 170
150 130 170
150 130 170
150 131 170
151 131 170
151 132 170
151 132 170
151 133 170
152 133 170
152 134 170
152 134 170
152 135 170
153 135 170
153 136 170
153 136 170
153 137 170
154 137 170
154 138 170
154 138 170
154 139 170
155 139 170
155 140 170
155 140 170
155 141 170
156 141 170
156 142 170
156 142 170
156 143 170
157 143 170
93 80 106
93 80 106
93 81 106
94 81 106
94 82 106
94 82 106
94 83 106
95 83 106
95 84 106
95 84 106
95 85 106
96 85 106
96 86 106
96 86 106
96 87 106
97 87 106
97 88 106
97 88 106
97 89 106
98 89 106
98 90 106
98 90 106
98 91 106
99 91 106
99 92 106
99 92 106
99 93 106
100 93 106
100 94 106
100 94 106
100 95 106
101 95 106
165 160 170
165 160 170
165 161 170
166 161 170
166 162 170
166 162 170
166 163 170
167 163 170
167 164 170
167 164 170
167 165 170
168 165 170
168 166 170
168 166 170
168 167 170
169 167 170
169 168 170
169 168 170
169 169 170
170 169 170
170 170 170
170 170 170
170 171 170
171 171 170
171 172 170
171 172 170
171 173 170
172 173 170
172 174 170
172 174 170
172 175 170
173 175 170
109 112 106
109 112 106
109 113 106
110 113 106
110 114 106
110 114 106
110 115 106
111 115 106
111 116 106
111 116 106
111 117 106
112 117 106
112 118 106
112 118 106
112 119 106
113 119 106
113 120 106
113 120 106
113 121 106
114 121 106
114 122 106
114 122 106
114 123 106
115 123 106
115 124 106
115 124 106
115 125 106
116 125 106
116 126 106
116 126 106
116 127 106
117 127 106
181 192 170
181 192 170
181 193 170
182 193 170
182 194 170
182 194 170
182 195 170
183 195 170
183 196 170
183 196 170
183 197 170
184 197 170
184 198 170
184 198 170
184 199 170
185 199 170
185 200 170
185 200 170
185 201 170
186 201 170
186 202 170
186 202 170
186 203 170
187 203 170
187 204 170
187 204 170
187 205 170
188 205 170
188 206 170
188 206 170
188 207 170
189 207 170
125 144 106
125 144 106
125 145 106
126 145 106
126 146 106
126 146 106
126 147 106
127 147 106
127 148 106
127 148 106
127 149 106
128 149 106
128 150 106
128 150 106
128 151 106
129 151 106
129 152 106
129 152 106
129 153 106
130 153 106
130 154 106
130 154 106
130 155 106
131 155 106
131 156 106
131 156 106
131 157 106
132 157 106
132 158 106
132 158 106
132 159 106
133 159 106
197 224 170
197 224 170
197 225 170
198 225 170
198 226 170
198 226 170
198 227 170
199 227 170
199 228 170
199 228 170
199 229 170
200 229 170
200 230 170
200 230 170
200 231 170
201 231 170
201 232 170
201 232 170
201 233 170
202 233 170
202 234 170
202 234 170
202 235 170
203 235 170
203 236 170
203 236 170
203 237 170
204 237 170
204 238 170
204 238 170
204 239 170
205 239 170
141 176 106
141 176 106
141 177 106
142 177 106
142 178 106
142 178 106
142 179 106
143 179 106
143 180 106
143 180 106
143 181 106
144 181 106
144 182 106
144 182 106
144 183 106
145 183 106
145 184 106
145 184 106
145 185 106
146 185 106
146 186 106
146 186 106
146 187 106
147 187 106
147 188 106
147 188 106
147 189 106
148 189 106
148 190 106
148 190 106
148 191 106
149 191 106
149 128 171
149 128 171
150 129 171
150 129 171
150 130 171
150 130 171
151 131 171
151 131 171
151 132 171
151 132 171
152 133 171
152 133 171
152 134 171
152 134 171
153 135 171
153 135 171
153 136 171
153 136 171
154 137 171
154 137 171
154 138 171
154 138 171
155 139 171
155 139 171
155 140 171
155 140 171
156 141 171
156 141 171
156 142 171
156 142 171
157 143 171
157 143 171
93 80 107
93 80 107
94 81 107
94 81 107
94 82 107
94 82 107
95 83 107
95 83 107
95 84 107
95 84 107
96 85 107
96 85 107
96 86 107
96 86 107
97 87 107
97 87 107
97 88 107
97 88 107
98 89 107
98 89 107
98 90 107
98 90 107
99 91 107
99 91 107
99 92 107
99 92 107
100 93 107
100 93 107
100 94 107
100 94 107
101 95 107
101 95 107
165 160 171
165 160 171
166 161 171
166 161 171
166 162 171
166 162 171
167 163 171
167 163 171
167 164 171
167 164 171
168 165 171
168 165 171
168 166 171
168 166 171
169 167 171
169 167 171
169 168 171
169 168 171
170 169 171
170 169 171
170 170 171
170 170 171
171 171 171
171 171 171
171 172 171
171 172 171
172 173 171
172 173 171
172 174 171
172 174 171
173 175 171
173 175 171
109 112 107
109 112 107
110 113 107
110 113 107
110 114 107
110 114 107
111 115 107
111 115 107
111 116 107
111 116 107
112 117 107
112 117 107
112 118 107
112 118 107
113 119 107
113 119 107
113 120 107
113 120 107
114 121 107
114 121 107
114 122 107
114 122 107
115 123 107
115 123 107
115 124 107
115 124 107
116 125 107
116 125 107
116 126 107
116 126 107
117 127 107
117 127 107
181 192 171
181 192 171
182 193 171
182 193 171
182 194 171
182 194 171
183 195 171
183 195 171
183 196 171
183 196 171
184 197 171
184 197 171
184 198 171
184 198 171
185 199 171
185 199 171
185 200 171
185 200 171
186 201 171
186 201 171
186 202 171
186 202 171
187 203 171
187 203 171
187 204 171
187 204 171
188 205 171
188 205 171
188 206 171
188 206 171
189 207 171
189 207 171
125 144 107
125 144 107
126 145 107
126 145 107
126 146 107
126 146 107
127 147 107
127 147 107
127 148 107
127 148 107
128 149 107
128 149 107
128 150 107
128 150 107
129 151 107
129 151 107
129 152 107
129 152 107
130 153 107
130 153 107
130 154 107
130 154 107
131 155 107
131 155 107
131 156 107
131 156 107
132 157 107
132 157 107
132 158 107
132 158 107
133 159 107
133 159 107
197 224 171
197 224 171
198 225 171
198 225 171
198 226 171
198 226 171
199 227 171
199 227 171
199 228 171
199 228 171
200 229 171
200 229 171
200 230 171
200 230 171
201 231 171
201 231 171
201 232 171
201 232 171
202 233 171
202 233 171
202 234 171
202 234 171
203 235 171
203 235 171
203 236 171
203 236 171
204 237 171
204 237 171
204 238 171
204 238 171
205 239 171
205 239 171
141 176 107
141 176 107
142 177 107
142 177 107
142 178 107
142 178 107
143 179 107
143 179 107
143 180 107
143 180 107
144 181 107
144 181 107
144 182 107
144 182 107
145 183 107
145 183 107
145 184 107
145 184 107
146 185 107
146 185 107
146 186 107
146 186 107
147 187 107
147 187 107
147 188 107
147 188 107
148 189 107
148 189 107
148 190 107
148 190 107
149 191 107
149 191 107
149 128 171
150 128 171
150 129 171
150 129 171
150 130 171
151 130 171
151 131 171
151 131 171
151 132 171
152 132 171
152 133 171
152 133 171
152 134 171
153 134 171
153 135 171
153 135 171
153 136 171
154 136 171
154 137 171
154 137 171
154 138 171
155 138 171
155 139 171
155 139 171
155 140 171
156 140 171
156 141 171
156 141 171
156 142 171
157 142 171
157 143 171
157 143 171
93 80 107
94 80 107
94 81 107
94 81 107
94 82 107
95 82 107
95 83 107
95 83 107
95 84 107
96 84 107
96 85 107
96 85 107
96 86 107
97 86 107
97 87 107
97 87 107
97 88 107
98 88 107
98 89 107
98 89 107
98 90 107
99 90 107
99 91 107
99 91 107
99 92 107
100 92 107
100 93 107
100 93 107
100 94 107
101 94 107
101 95 107
101 95 107
165 160 171
166 160 171
166 161 171
166 161 171
166 162 171
167 162 171
167 163 171
167 163 171
167 164 171
168 164 171
168 165 171
168 165 171
168 166 171
169 166 171
169 167 171
169 167 171
169 168 171
170 168 171
170 169 171
170 169 171
170 170 171
171 170 171
171 171 171
171 171 171
171 172 171
172 172 171
172 173 171
172 173 171
172 174 171
173 174 171
173 175 171
173 175 171
109 112 107
110 112 107
110 113 107
110 113 107
110 114 107
111 114 107
111 115 107
111 115 107
111 116 107
112 116 107
112 117 107
112 117 107
112 118 107
113 118 107
113 119 107
113 119 107
113 120 107
114 120 107
114 121 107
114 121 107
114 122 107
115 122 107
115 123 107
115 123 107
115 124 107
116 124 107
116 125 107
116 125 107
116 126 107
117 126 107
117 127 107
117 127 107
181 192 171
182 192 171
182 193 171
182 193 171
182 194 171
183 194 171
183 195 171
183 195 171
183 196 171
184 196 171
184 197 171
184 197 171
184 198 171
185 198 171
185 199 171
185 199 171
185 200 171
186 200 171
186 201 171
186 201 171
186 202 171
187 202 171
187 203 171
187 203 171
187 204 171
188 204 171
188 205 171
188 205 171
188 206 171
189 206 171
189 207 171
189 207 171
125 144 107
126 144 107
126 145 107
126 145 107
126 146 107
127 146 107
127 147 107
127 147 107
127 148 107
128 148 107
128 149 107
128 149 107
128 150 107
129 150 107
129 151 107
129 151 107
129 152 107
130 152 107
130 153 107
130 153 107
130 154 107
131 154 107
131 155 107
131 155 107
131 156 107
132 156 107
132 157 107
132 157 107
132 158 107
133 158 107
133 159 107
133 159 107
197 224 171
198 224 171
198 225 171
198 225 171
198 226 171
199 226 171
199 227 171
199 227 171
199 228 171
200 228 171
200 229 171
200 229 171
200 230 171
201 230 171
201 231 171
201 231 171
201 232 171
202 232 171
202 233 171
202 233 171
202 234 171
203 234 171
203 235 171
203 235 171
203 236 171
204 236 171
204 237 171
204 237 171
204 238 171
205 238 171
205 239 171
205 239 171
141 176 107
142 176 107
142 177 107
142 177 107
142 178 107
143 178 107
143 179 107
143 179 107
143 180 107
144 180 107
144 181 107
144 181 107
144 182 107
145 182 107
145 183 107
145 183 107
145 184 107
146 184 107
146 185 107
146 185 107
146 186 107
147 186 107
147 187 107
147 187 107
147 188 107
148 188 107
148 189 107
148 189 107
148 190 107
149 190 107
149 191 107
149 191 107
150 128 172
150 128 172
150 129 172
150 129 172
151 130 172
151 130 172
151 131 172
151 131 172
152 132 172
152 132 172
152 133 172
152 133 172
153 134 172
153 134 172
153 135 172
153 135 172
154 136 172
154 136 172
154 137 172
154 137 172
155 138 172
155 138 172
155 139 172
155 139 172
156 140 172
156 140 172
156 141 172
156 141 172
157 142 172
157 142 172
157 143 172
157 143 172
94 80 108
94 80 108
94 81 108
94 81 108
95 82 108
95 82 108
95 83 108
95 83 108
96 84 108
96 84 108
96 85 108
96 85 108
97 86 108
97 86 108
97 87 108
97 87 108
98 88 108
98 88 108
98 89 108
98 89 108
99 90 108
99 90 108
99 91 108
99 91 108
100 92 108
100 92 108
100 93 108
100 93 108
101 94 108
101 94 108
101 95 108
101 95 108
166 160 172
166 160 172
166 161 172
166 161 172
167 162 172
167 162 172
167 163 172
167 163 172
168 164 172
168 164 172
168 165 172
168 165 172
169 166 172
169 166 172
169 167 172
169 167 172
170 168 172
170 168 172
170 169 172
170 169 172
171 170 172
171 170 172
171 171 172
171 171 172
172 172 172
172 172 172
172 173 172
172 173 172
173 174 172
173 174 172
173 175 172
173 175 172
110 112 108
110 112 108
110 113 108
110 113 108
111 114 108
111 114 108
111 115 108
111 115 108
112 116 108
112 116 108
112 117 108
112 117 108
113 118 108
113 118 108
113 119 108
113 119 108
114 120 108
114 120 108
114 121 108
114 121 108
115 122 108
115 122 108
115 123 108
115 123 108
116 124 108
116 124 108
116 125 108
116 125 108
117 126 108
117 126 108
117 127 108
117 127 108
182 192 172
182 192 172
182 193 172
182 193 172
183 194 172
183 194 172
183 195 172
183 195 172
184 196 172
184 196 172
184 197 172
184 197 172
185 198 172
185 198 172
185 199 172
185 199 172
186 200 172
186 200 172
186 201 172
186 201 172
187 202 172
187 202 172
187 203 172
187 203 172
188 204 172
188 204 172
188 205 172
188 205 172
189 206 172
189 206 172
189 207 172
189 207 172
126 144 108
126 144 108
126 145 108
126 145 108
127 146 108
127 146 108
127 147 108
127 147 108
128 148 108
128 148 108
128 149 108
128 149 108
129 150 108
129 150 108
129 151 108
129 151 108
130 152 108
130 152 108
130 153 108
130 153 108
131 154 108
131 154 108
131 155 108
131 155 108
132 156 108
132 156 108
132 157 108
132 157 108
133 158 108
133 158 108
133 159 108
133 159 108
198 224 172
198 224 172
198 225 172
198 225 172
199 226 172
199 226 172
199 227 172
199 227 172
200 228 172
200 228 172
200 229 172
200 229 172
201 230 172
201 230 172
201 231 172
201 231 172
202 232 172
202 232 172
202 233 172
202 233 172
203 234 172
203 234 172
203 235 172
203 235 172
204 236 172
204 236 172
204 237 172
204 237 172
205 238 172
205 238 172
205 239 172
205 239 172
142 176 108
142 176 108
142 177 108
142 177 108
143 178 108
143 178 108
143 179 108
143 179 108
144 180 108
144 180 108
144 181 108
144 181 108
145 182 108
145 182 108
145 183 108
145 183 108
146 184 108
146 184 108
146 185 108
146 185 108
147 186 108
147 186 108
147 187 108
147 187 108
148 188 108
148 188 108
148 189 108
148 189 108
149 190 108
149 190 108
149 191 108
149 191 108
150 128 172
150 128 172
150 129 172
151 129 172
151 130 172
151 130 172
151 131 172
152 131 172
152 132 172
152 132 172
152 133 172
153 133 172
153 134 172
153 134 172
153 135 172
154 135 172
154 136 172
154 136 172
154 137 172
155 137 172
155 138 172
155 138 172
155 139 172
156 139 172
156 140 172
156 140 172
156 141 172
157 141 172
157 142 172
157 142 172
157 143 172
158 143 172
94 80 108
94 80 108
94 81 108
95 81 108
95 82 108
95 82 108
95 83 108
96 83 108
96 84 108
96 84 108
96 85 108
97 85 108
97 86 108
97 86 108
97 87 108
98 87 108
98 88 108
98 88 108
98 89 108
99 89 108
99 90 108
99 90 108
99 91 108
100 91 108
100 92 108
100 92 108
100 93 108
101 93 108
101 94 108
101 94 108
101 95 108
102 95 108
166 160 172
166 160 172
166 161 172
167 161 172
167 162 172
167 162 172
167 163 172
168 163 172
168 164 172
168 164 172
168 165 172
169 165 172
169 166 172
169 166 172
169 167 172
170 167 172
170 168 172
170 168 172
170 169 172
171 169 172
171 170 172
171 170 172
171 171 172
172 171 172
172 172 172
172 172 172
172 173 172
173 173 172
173 174 172
173 174 172
173 175 172
174 175 172
110 112 108
110 112 108
110 113 108
111 113 108
111 114 108
111 114 108
111 115 108
112 115 108
112 116 108
112 116 108
112 117 108
113 117 108
113 118 108
113 118 108
113 119 108
114 119 108
114 120 108
114 120 108
114 121 108
115 121 108
115 122 108
115 122 108
115 123 108
116 123 108
116 124 108
116 124 108
116 125 108
117 125 108
117 126 108
117 126 108
117 127 108
118 127 108
182 192 172
182 192 172
182 193 172
183 193 172
183 194 172
183 194 172
183 195 172
184 195 172
184 196 172
184 196 172
184 197 172
185 197 172
185 198 172
185 198 172
185 199 172
186 199 172
186 200 172
186 200 172
186 201 172
187 201 172
187 202 172
187 202 172
187 203 172
188 203 172
188 204 172
188 204 172
188 205 172
189 205 172
189 206 172
189 206 172
189 207 172
190 207 172
126 144 108
126 144 108
126 145 108
127 145 108
127 146 108
127 146 108
127 147 108
128 147 108
128 148 108
128 148 108
128 149 108
129 149 108
129 150 108
129 150 108
129 151 108
130 151 108
130 152 108
130 152 108
130 153 108
131 153 108
131 154 108
131 154 108
131 155 108
132 155 108
132 156 108
132 156 108
132 157 108
133 157 108
133 158 108
133 158 108
133 159 108
134 159 108
198 224 172
198 224 172
198 225 172
199 225 172
199 226 172
199 226 172
199 227 172
200 227 172
200 228 172
200 228 172
200 229 172
201 229 172
201 230 172
201 230 172
201 231 172
202 231 172
202 232 172
202 232 172
202 233 172
203 233 172
203 234 172
203 234 172
203 235 172
204 235 172
204 236 172
204 236 172
204 237 172
205 237 172
205 238 172
205 238 172
205 239 172
206 239 172
142 176 108
142 176 108
142 177 108
143 177 108
143 178 108
143 178 108
143 179 108
144 179 108
144 180 108
144 180 108
144 181 108
145 181 108
145 182 108
145 182 108
145 183 108
146 183 108
146 184 108
146 184 108
146 185 108
147 185 108
147 186 108
147 186 108
147 187 108
148 187 108
148 188 108
148 188 108
148 189 108
149 189 108
149 190 108
149 190 108
149 191 108
150 191 108
150 128 173
150 128 173
151 129 173
151 129 173
151 130 173
151 130 173
152 131 173
152 131 173
152 132 173
152 132 173
153 133 173
153 133 173
153 134 173
153 134 173
154 135 173
154 135 173
154 136 173
154 136 173
155 137 173
155 137 173
155 138 173
155 138 173
156 139 173
156 139 173
156 140 173
156 140 173
157 141 173
157 141 173
157 142 173
157 142 173
158 143 173
158 143 173
94 80 109
94 80 109
95 81 109
95 81 109
95 82 109
95 82 109
96 83 109
96 83 109
96 84 109
96 84 109
97 85 109
97 85 109
97 86 109
97 86 109
98 87 109
98 87 109
98 88 109
98 88 109
99 89 109
99 89 109
99 90 109
99 90 109
100 91 109
100 91 109
100 92 109
100 92 109
101 93 109
101 93 109
101 94 109
101 94 109
102 95 109
102 95 109
166 160 173
166 160 173
167 161 173
167 161 173
167 162 173
167 162 173
168 163 173
168 163 173
168 164 173
168 164 173
169 165 173
169 165 173
169 166 173
169 166 173
170 167 173
170 167 173
170 168 173
170 168 173
171 169 173
171 169 173
171 170 173
171 170 173
172 171 173
172 171 173
172 172 173
172 172 173
173 173 173
173 173 173
173 174 173
173 174 173
174 175 173
174 175 173
110 112 109
110 112 109
111 113 109
111 113 109
111 114 109
111 114 109
112 115 109
112 115 109
112 116 109
112 116 109
113 117 109
113 117 109
113 118 109
113 118 109
114 119 109
114 119 109
114 120 109
114 120 109
115 121 109
115 121 109
115 122 109
115 122 109
116 123 109
116 123 109
116 124 109
116 124 109
117 125 109
117 125 109
117 126 109
117 126 109
118 127 109
118 127 109
182 192 173
182 192 173
183 193 173
183 193 173
183 194 173
183 194 173
184 195 173
184 195 173
184 196 173
184 196 173
185 197 173
185 197 173
185 198 173
185 198 173
186 199 173
186 199 173
186 200 173
186 200 173
187 201 173
187 201 173
187 202 173
187 202 173
188 203 173
188 203 173
188 204 173
188 204 173
189 205 173
189 205 173
189 206 173
189 206 173
190 207 173
190 207 173
126 144 109
126 144 109
127 145 109
127 145 109
127 146 109
127 146 109
128 147 109
128 147 109
128 148 109
128 148 109
129 149 109
129 149 109
129 150 109
129 150 109
130 151 109
130 151 109
130 152 109
130 152 109
131 153 109
131 153 109
131 154 109
131 154 109
132 155 109
132 155 109
132 156 109
132 156 109
133 157 109
133 157 109
133 158 109
133 158 109
134 159 109
134 159 109
198 224 173
198 224 173
199 225 173
199 225 173
199 226 173
199 226 173
200 227 173
200 227 173
200 228 173
200 228 173
201 229 173
201 229 173
201 230 173
201 230 173
202 231 173
202 231 173
202 232 173
202 232 173
203 233 173
203 233 173
203 234 173
203 234 173
204 235 173
204 235 173
204 236 173
204 236 173
205 237 173
205 237 173
205 238 173
205 238 173
206 239 173
206 239 173
142 176 109
142 176 109
143 177 109
143 177 109
143 178 109
143 178 109
144 179 109
144 179 109
144 180 109
144 180 109
145 181 109
145 181 109
145 182 109
145 182 109
146 183 109
146 183 109
146 184 109
146 184 109
147 185 109
147 185 109
147 186 109
147 186 109
148 187 109
148 187 109
148 188 109
148 188 109
149 189 109
149 189 109
149 190 109
149 190 109
150 191 109
150 191 109
150 128 173
151 128 173
151 129 173
151 129 173
151 130 173
152 130 173
152 131 173
152 131 173
152 132 173
153 132 173
153 133 173
153 133 173
153 134 173
154 134 173
154 135 173
154 135 173
154 136 173
155 136 173
155 137 173
155 137 173
155 138 173
156 138 173
156 139 173
156 139 173
156 140 173
157 140 173
157 141 173
157 141 173
157 142 173
158 142 173
158 143 173
158 143 173
94 80 109
95 80 109
95 81 109
95 81 109
95 82 109
96 82 109
96 83 109
96 83 109
96 84 109
97 84 109
97 85 109
97 85 109
97 86 109
98 86 109
98 87 109
98 87 109
98 88 109
99 88 109
99 89 109
99 89 109
99 90 109
100 90 109
100 91 109
100 91 109
100 92 109
101 92 109
101 93 109
101 93 109
101 94 109
102 94 109
102 95 109
102 95 109
166 160 173
167 160 173
167 161 173
167 161 173
167 162 173
168 162 173
168 163 173
168 163 173
168 164 173
169 164 173
169 165 173
169 165 173
169 166 173
170 166 173
170 167 173
170 167 173
170 168 173
171 168 173
171 169 173
171 169 173
171 170 173
172 170 173
172 171 173
172 171 173
172 172 173
173 172 173
173 173 173
173 173 173
173 174 173
174 174 173
174 175 173
174 175 173
110 112 109
111 112 109
111 113 109
111 113 109
111 114 109
112 114 109
112 115 109
112 115 109
112 116 109
113 116 109
113 117 109
113 117 109
113 118 109
114 118 109
114 119 109
114 119 109
114 120 109
115 120 109
115 121 109
115 121 109
115 122 109
116 122 109
116 123 109
116 123 109
116 124 109
117 124 109
117 125 109
117 125 109
117 126 109
118 126 109
118 127 109
118 127 109
182 192 173
183 192 173
183 193 173
183 193 173
183 194 173
184 194 173
184 195 173
184 195 173
184 196 173
185 196 173
185 197 173
185 197 173
185 198 173
186 198 173
186 199 173
186 199 173
186 200 173
187 200 173
187 201 173
187 201 173
187 202 173
188 202 173
188 203 173
188 203 173
188 204 173
189 204 173
189 205 173
189 205 173
189 206 173
190 206 173
190 207 173
190 207 173
126 144 109
127 144 109
127 145 109
127 145 109
127 146 109
128 146 109
128 147 109
128 147 109
128 148 109
129 148 109
129 149 109
129 149 109
129 150 109
130 150 109
130 151 109
130 151 109
130 152 109
131 152 109
131 153 109
131 153 109
131 154 109
132 154 109
132 155 109
132 155 109
132 156 109
133 156 109
133 157 109
133 157 109
133 158 109
134 158 109
134 159 109
134 159 109
198 224 173
199 224 173
199 225 173
199 225 173
199 226 173
200 226 173
200 227 173
200 227 173
200 228 173
201 228 173
201 229 173
201 229 173
201 230 173
202 230 173
202 231 173
202 231 173
202 232 173
203 232 173
203 233 173
203 233 173
203 234 173
204 234 173
204 235 173
204 235 173
204 236 173
205 236 173
205 237 173
205 237 173
205 238 173
206 238 173
206 239 173
206 239 173
142 176 109
143 176 109
143 177 109
143 177 109
143 178 109
144 178 109
144 179 109
144 179 109
144 180 109
145 180 109
145 181 109
145 181 109
145 182 109
146 182 109
146 183 109
146 183 109
146 184 109
147 184 109
147 185 109
147 185 109
147 186 109
148 186 109
148 187 109
148 187 109
148 188 109
149 188 109
149 189 109
149 189 109
149 190 109
150 190 109
150 191 109
150 191 109
151 128 174
151 128 174
151 129 174
151 129 174
152 130 174
152 130 174
152 131 174
152 131 174
153 132 174
153 132 174
153 133 174
153 133 174
154 134 174
154 134 174
154 135 174
154 135 174
155 136 174
155 136 174
155 137 174
155 137 174
156 138 174
156 138 174
156 139 174
156 139 174
157 140 174
157 140 174
157 141 174
157 141 174
158 142 174
158 142 174
158 143 174
158 143 174
95 80 110
95 80 110
95 81 110
95 81 110
96 82 110
96 82 110
96 83 110
96 83 110
97 84 110
97 84 110
97 85 110
97 85 110
98 86 110
98 86 110
98 87 110
98 87 110
99 88 110
99 88 110
99 89 110
99 89 110
100 90 110
100 90 110
100 91 110
100 91 110
101 92 110
101 92 110
101 93 110
101 93 110
102 94 110
102 94 110
102 95 110
102 95 110
167 160 174
167 160 174
167 161 174
167 161 174
168 162 174
168 162 174
168 163 174
168 163 174
169 164 174
169 164 174
169 165 174
169 165 174
170 166 174
170 166 174
170 167 174
170 167 174
171 168 174
171 168 174
171 169 174
171 169 174
172 170 174
172 170 174
172 171 174
172 171 174
173 172 174
173 172 174
173 173 174
173 173 174
174 174 174
174 174 174
174 175 174
174 175 174
111 112 110
111 112 110
111 113 110
111 113 110
112 114 110
112 114 110
112 115 110
112 115 110
113 116 110
113 116 110
113 117 110
113 117 110
114 118 110
114 118 110
114 119 110
114 119 110
115 120 110
115 120 110
115 121 110
115 121 110
116 122 110
116 122 110
116 123 110
116 123 110
117 124 110
117 124 110
117 125 110
117 125 110
118 126 110
118 126 110
118 127 110
118 127 110
183 192 174
183 192 174
183 193 174
183 193 174
184 194 174
184 194 174
184 195 174
184 195 174
185 196 174
185 196 174
185 197 174
185 197 174
186 198 174
186 198 174
186 199 174
186 199 174
187 200 174
187 200 174
187 201 174
187 201 174
188 202 174
188 202 174
188 203 174
188 203 174
189 204 174
189 204 174
189 205 174
189 205 174
190 206 174
190 206 174
190 207 174
190 207 174
127 144 110
127 144 110
127 145 110
127 145 110
128 146 110
128 146 110
128 147 110
128 147 110
129 148 110
129 148 110
129 149 110
129 149 110
130 150 110
130 150 110
130 151 110
130 151 110
131 152 110
131 152 110
131 153 110
131 153 110
132 154 110
132 154 110
132 155 110
132 155 110
133 156 110
133 156 110
133 157 110
133 157 110
134 158 110
134 158 110
134 159 110
134 159 110
199 224 174
199 224 174
199 225 174
199 225 174
200 226 174
200 226 174
200 227 174
200 227 174
201 228 174
201 228 174
201 229 174
201 229 174
202 230 174
202 230 174
202 231 174
202 231 174
203 232 174
203 232 174
203 233 174
203 233 174
204 234 174
204 234 174
204 235 174
204 235 174
205 236 174
205 236 174
205 237 174
205 237 174
206 238 174
206 238 174
206 239 174
206 239 174
143 176 110
143 176 110
143 177 110
143 177 110
144 178 110
144 178 110
144 179 110
144 179 110
145 180 110
145 180 110
145 181 110
145 181 110
146 182 110
146 182 110
146 183 110
146 183 110
147 184 110
147 184 110
147 185 110
147 185 110
148 186 110
148 186 110
148 187 110
148 187 110
149 188 110
149 188 110
149 189 110
149 189 110
150 190 110
150 190 110
150 191 110
150 191 110
151 128 174
151 128 174
151 129 174
152 129 174
152 130 174
152 130 174
152 131 174
153 131 174
153 132 174
153 132 174
153 133 174
154 133 174
154 134 174
154 134 174
154 135 174
155 135 174
155 136 174
155 136 174
155 137 174
156 137 174
156 138 174
156 138 174
156 139 174
157 139 174
157 140 174
157 140 174
157 141 174
158 141 174
158 142 174
158 142 174
158 143 174
159 143 174
95 80 110
95 80 110
95 81 110
96 81 110
96 82 110
96 82 110
96 83 110
97 83 110
97 84 110
97 84 110
97 85 110
98 85 110
98 86 110
98 86 110
98 87 110
99 87 110
99 88 110
99 88 110
99 89 110
100 89 110
100 90 110
100 90 110
100 91 110
101 91 110
101 92 110
101 92 110
101 93 110
102 93 110
102 94 110
102 94 110
102 95 110
103 95 110
167 160 174
167 160 174
167 161 174
168 161 174
168 162 174
168 162 174
168 163 174
169 163 174
169 164 174
169 164 174
169 165 174
170 165 174
170 166 174
170 166 174
170 167 174
171 167 174
171 168 174
171 168 174
171 169 174
172 169 174
172 170 174
172 170 174
172 171 174
173 171 174
173 172 174
173 172 174
173 173 174
174 173 174
174 174 174
174 174 174
174 175 174
175 175 174
111 112 110
111 112 110
111 113 110
112 113 110
112 114 110
112 114 110
112 115 110
113 115 110
113 116 110
113 116 110
113 117 110
114 117 110
114 118 110
114 118 110
114 119 110
115 119 110
115 120 110
115 120 110
115 121 110
116 121 110
116 122 110
116 122 110
116 123 110
117 123 110
117 124 110
117 124 110
117 125 110
118 125 110
118 126 110
118 126 110
118 127 110
119 127 110
183 192 174
183 192 174
183 193 174
184 193 174
184 194 174
184 194 174
184 195 174
185 195 174
185 196 174
185 196 174
185 197 174
186 197 174
186 198 174
186 198 174
186 199 174
187 199 174
187 200 174
187 200 174
187 201 174
188 201 174
188 202 174
188 202 174
188 203 174
189 203 174
189 204 174
189 204 174
189 205 174
190 205 174
190 206 174
190 206 174
190 207 174
191 207 174
127 144 110
127 144 110
127 145 110
128 145 110
128 146 110
128 146 110
128 147 110
129 147 110
129 148 110
129 148 110
129 149 110
130 149 110
130 150 110
130 150 110
130 151 110
131 151 110
131 152 110
131 152 110
131 153 110
132 153 110
132 154 110
132 154 110
132 155 110
133 155 110
133 156 110
133 156 110
133 157 110
134 157 110
134 158 110
134 158 110
134 159 110
135 159 110
199 224 174
199 224 174
199 225 174
200 225 174
200 226 174
200 226 174
200 227 174
201 227 174
201 228 174
201 228 174
201 229 174
202 229 174
202 230 174
202 230 174
202 231 174
203 231 174
203 232 174
203 232 174
203 233 174
204 233 174
204 234 174
204 234 174
204 235 174
205 235 174
205 236 174
205 236 174
205 237 174
206 237 174
206 238 174
206 238 174
206 239 174
207 239 174
143 176 110
143 176 110
143 177 110
144 177 110
144 178 110
144 178 110
144 179 110
145 179 110
145 180 110
145 180 110
145 181 110
146 181 110
146 182 110
146 182 110
146 183 110
147 183 110
147 184 110
147 184 110
147 185 110
148 185 110
148 186 110
148 186 110
148 187 110
149 187 110
149 188 110
149 188 110
149 189 110
150 189 110
150 190 110
150 190 110
150 191 110
151 191 110
151 128 175
151 128 175
152 129 175
152 129 175
152 130 175
152 130 175
153 131 175
153 131 175
153 132 175
153 132 175
154 133 175
154 133 175
154 134 175
154 134 175
155 135 175
155 135 175
155 136 175
155 136 175
156 137 175
156 137 175
156 138 175
156 138 175
157 139 175
157 139 175
157 140 175
157 140 175
158 141 175
158 141 175
158 142 175
158 142 175
159 143 175
159 143 175
95 80 111
95 80 111
96 81 111
96 81 111
96 82 111
96 82 111
97 83 111
97 83 111
97 84 111
97 84 111
98 85 111
98 85 111
98 86 111
98 86 111
99 87 111
99 87 111
99 88 111
99 88 111
100 89 111
100 89 111
100 90 111
100 90 111
101 91 111
101 91 111
101 92 111
101 92 111
102 93 111
102 93 111
102 94 111
102 94 111
103 95 111
103 95 111
167 160 175
167 160 175
168 161 175
168 161 175
168 162 175
168 162 175
169 163 175
169 163 175
169 164 175
169 164 175
170 165 175
170 165 175
170 166 175
170 166 175
171 167 175
171 167 175
171 168 175
171 168 175
172 169 175
172 169 175
172 170 175
172 170 175
173 171 175
173 171 175
173 172 175
173 172 175
174 173 175
174 173 175
174 174 175
174 174 175
175 175 175
175 175 175
111 112 111
111 112 111
112 113 111
112 113 111
112 114 111
112 114 111
113 115 111
113 115 111
113 116 111
113 116 111
114 117 111
114 117 111
114 118 111
114 118 111
115 119 111
115 119 111
115 120 111
115 120 111
116 121 111
116 121 111
116 122 111
116 122 111
117 123 111
117 123 111
117 124 111
117 124 111
118 125 111
118 125 111
118 126 111
118 126 111
119 127 111
119 127 111
183 192 175
183 192 175
184 193 175
184 193 175
184 194 175
184 194 175
185 195 175
185 195 175
185 196 175
185 196 175
186 197 175
186 197 175
186 198 175
186 198 175
187 199 175
187 199 175
187 200 175
187 200 175
188 201 175
188 201 175
188 202 175
188 202 175
189 203 175
189 203 175
189 204 175
189 204 175
190 205 175
190 205 175
190 206 175
190 206 175
191 207 175
191 207 175
127 144 111
127 144 111
128 145 111
128 145 111
128 146 111
128 146 111
129 147 111
129 147 111
129 148 111
129 148 111
130 149 111
130 149 111
130 150 111
130 150 111
131 151 111
131 151 111
131 152 111
131 152 111
132 153 111
132 153 111
132 154 111
132 154 111
133 155 111
133 155 111
133 156 111
133 156 111
134 157 111
134 157 111
134 158 111
134 158 111
135 159 111
135 159 111
199 224 175
199 224 175
200 225 175
200 225 175
200 226 175
200 226 175
201 227 175
201 227 175
201 228 175
201 228 175
202 229 175
202 229 175
202 230 175
202 230 175
203 231 175
203 231 175
203 232 175
203 232 175
204 233 175
204 233 175
204 234 175
204 234 175
205 235 175
205 235 175
205 236 175
205 236 175
206 237 175
206 237 175
206 238 175
206 238 175
207 239 175
207 239 175
143 176 111
143 176 111
144 177 111
144 177 111
144 178 111
144 178 111
145 179 111
145 179 111
145 180 111
145 180 111
146 181 111
146 181 111
146 182 111
146 182 111
147 183 111
147 183 111
147 184 111
147 184 111
148 185 111
148 185 111
148 186 111
148 186 111
149 187 111
149 187 111
149 188 111
149 188 111
150 189 111
150 189 111
150 190 111
150 190 111
151 191 111
151 191 111
151 128 175
152 128 175
152 129 175
152 129 175
152 130 175
153 130 175
153 131 175
153 131 175
153 132 175
154 132 175
154 133 175
154 133 175
154 134 175
155 134 175
155 135 175
155 135 175
155 136 175
156 136 175
156 137 175
156 137 175
156 138 175
157 138 175
157 139 175
157 139 175
157 140 175
158 140 175
158 141 175
158 141 175
158 142 175
159 142 175
159 143 175
159 143 175
95 80 111
96 80 111
96 81 111
96 81 111
96 82 111
97 82 111
97 83 111
97 83 111
97 84 111
98 84 111
98 85 111
98 85 111
98 86 111
99 86 111
99 87 111
99 87 111
99 88 111
100 88 111
100 89 111
100 89 111
100 90 111
101 90 111
101 91 111
101 91 111
101 92 111
102 92 111
102 93 111
102 93 111
102 94 111
103 94 111
103 95 111
103 95 111
167 160 175
168 160 175
168 161 175
168 161 175
168 162 175
169 162 175
169 163 175
169 163 175
169 164 175
170 164 175
170 165 175
170 165 175
170 166 175
171 166 175
171 167 175
171 167 175
171 168 175
172 168 175
172 169 175
172 169 175
172 170 175
173 170 175
173 171 175
173 171 175
173 172 175
174 172 175
174 173 175
174 173 175
174 174 175
175 174 175
175 175 175
175 175 175
111 112 111
112 112 111
112 113 111
112 113 111
112 114 111
113 114 111
113 115 111
113 115 111
113 116 111
114 116 111
114 117 111
114 117 111
114 118 111
115 118 111
115 119 111
115 119 111
115 120 111
116 120 111
116 121 111
116 121 111
116 122 111
117 122 111
117 123 111
117 123 111
117 124 111
118 124 111
118 125 111
118 125 111
118 126 111
119 126 111
119 127 111
119 127 111
183 192 175
184 192 175
184 193 175
184 193 175
184 194 175
185 194 175
185 195 175
185 195 175
185 196 175
186 196 175
186 197 175
186 197 175
186 198 175
187 198 175
187 199 175
187 199 175
187 200 175
188 200 175
188 201 175
188 201 175
188 202 175
189 202 175
189 203 175
189 203 175
189 204 175
190 204 175
190 205 175
190 205 175
190 206 175
191 206 175
191 207 175
191 207 175
127 144 111
128 144 111
128 145 111
128 145 111
128 146 111
129 146 111
129 147 111
129 147 111
129 148 111
130 148 111
130 149 111
130 149 111
130 150 111
131 150 111
131 151 111
131 151 111
131 152 111
132 152 111
132 153 111
132 153 111
132 154 111
133 154 111
133 155 111
133 155 111
133 156 111
134 156 111
134 157 111
134 157 111
134 158 111
135 158 111
135 159 111
135 159 111
199 224 175
200 224 175
200 225 175
200 225 175
200 226 175
201 226 175
201 227 175
201 227 175
201 228 175
202 228 175
202 229 175
202 229 175
202 230 175
203 230 175
203 231 175
203 231 175
203 232 175
204 232 175
204 233 175
204 233 175
204 234 175
205 234 175
205 235 175
205 235 175
205 236 175
206 236 175
206 237 175
206 237 175
206 238 175
207 238 175
207 239 175
207 239 175
143 176 111
144 176 111
144 177 111
144 177 111
144 178 111
145 178 111
145 179 111
145 179 111
145 180 111
146 180 111
146 181 111
146 181 111
146 182 111
147 182 111
147 183 111
147 183 111
147 184 111
148 184 111
148 185 111
148 185 111
148 186 111
149 186 111
149 187 111
149 187 111
149 188 111
150 188 111
150 189 111
150 189 111
150 190 111
151 190 111
151 191 111
151 191 111
88 64 112
88 64 112
88 65 112
88 65 112
89 66 112
89 66 112
89 67 112
89 67 112
90 68 112
90 68 112
90 69 112
90 69 112
91 70 112
91 70 112
91 71 112
91 71 112
92 72 112
92 72 112
92 73 112
92 73 112
93 74 112
93 74 112
93 75 112
93 75 112
94 76 112
94 76 112
94 77 112
94 77 112
95 78 112
95 78 112
95 79 112
95 79 112
160 144 176
160 144 176
160 145 176
160 145 176
161 146 176
161 146 176
161 147 176
161 147 176
162 148 176
162 148 176
162 149 176
162 149 176
163 150 176
163 150 176
163 151 176
163 151 176
164 152 176
164 152 176
164 153 176
164 153 176
165 154 176
165 154 176
165 155 176
165 155 176
166 156 176
166 156 176
166 157 176
166 157 176
167 158 176
167 158 176
167 159 176
167 159 176
104 96 112
104 96 112
104 97 112
104 97 112
105 98 112
105 98 112
105 99 112
105 99 112
106 100 112
106 100 112
106 101 112
106 101 112
107 102 112
107 102 112
107 103 112
107 103 112
108 104 112
108 104 112
108 105 112
108 105 112
109 106 112
109 106 112
109 107 112
109 107 112
110 108 112
110 108 112
110 109 112
110 109 112
111 110 112
111 110 112
111 111 112
111 111 112
176 176 176
176 176 176
176 177 176
176 177 176
177 178 176
177 178 176
177 179 176
177 179 176
178 180 176
178 180 176
178 181 176
178 181 176
179 182 176
179 182 176
179 183 176
179 183 176
180 184 176
180 184 176
180 185 176
180 185 176
181 186 176
181 186 176
181 187 176
181 187 176
182 188 176
182 188 176
182 189 176
182 189 176
183 190 176
183 190 176
183 191 176
183 191 176
120 128 112
120 128 112
120 129 112
120 129 112
121 130 112
121 130 112
121 131 112
121 131 112
122 132 112
122 132 112
122 133 112
122 133 112
123 134 112
123 134 112
123 135 112
123 135 112
124 136 112
124 136 112
124 137 112
124 137 112
125 138 112
125 138 112
125 139 112
125 139 112
126 140 112
126 140 112
126 141 112
126 141 112
127 142 112
127 142 112
127 143 112
127 143 112
192 208 176
192 208 176
192 209 176
192 209 176
193 210 176
193 210 176
193 211 176
193 211 176
194 212 176
194 212 176
194 213 176
194 213 176
195 214 176
195 214 176
195 215 176
195 215 176
196 216 176
196 216 176
196 217 176
196 217 176
197 218 176
197 218 176
197 219 176
197 219 176
198 220 176
198 220 176
198 221 176
198 221 176
199 222 176
199 222 176
199 223 176
199 223 176
136 160 112
136 160 112
136 161 112
136 161 112
137 162 112
137 162 112
137 163 112
137 163 112
138 164 112
138 164 112
138 165 112
138 165 112
139 166 112
139 166 112
139 167 112
139 167 112
140 168 112
140 168 112
140 169 112
140 169 112
141 170 112
141 170 112
141 171 112
141 171 112
142 172 112
142 172 112
142 173 112
142 173 112
143 174 112
143 174 112
143 175 112
143 175 112
208 240 176
208 240 176
208 241 176
208 241 176
209 242 176
209 242 176
209 243 176
209 243 176
210 244 176
210 244 176
210 245 176
210 245 176
211 246 176
211 246 176
211 247 176
211 247 176
212 248 176
212 248 176
212 249 176
212 249 176
213 250 176
213 250 176
213 251 176
213 251 176
214 252 176
214 252 176
214 253 176
214 253 176
215 254 176
215 254 176
215 255 176
215 255 176
88 64 112
88 64 112
88 65 112
89 65 112
89 66 112
89 66 112
89 67 112
90 67 112
90 68 112
90 68 112
90 69 112
91 69 112
91 70 112
91 70 112
91 71 112
92 71 112
92 72 112
92 72 112
92 73 112
93 73 112
93 74 112
93 74 112
93 75 112
94 75 112
94 76 112
94 76 112
94 77 112
95 77 112
95 78 112
95 78 112
95 79 112
96 79 112
160 144 176
160 144 176
160 145 176
161 145 176
161 146 176
161 146 176
161 147 176
162 147 176
162 148 176
162 148 176
162 149 176
163 149 176
163 150 176
163 150 176
163 151 176
164 151 176
164 152 176
164 152 176
164 153 176
165 153 176
165 154 176
165 154 176
165 155 176
166 155 176
166 156 176
166 156 176
166 157 176
167 157 176
167 158 176
167 158 176
167 159 176
168 159 176
104 96 112
104 96 112
104 97 112
105 97 112
105 98 112
105 98 112
105 99 112
106 99 112
106 100 112
106 100 112
106 101 112
107 101 112
107 102 112
107 102 112
107 103 112
108 103 112
108 104 112
108 104 112
108 105 112
109 105 112
109 106 112
109 106 112
109 107 112
110 107 112
110 108 112
110 108 112
110 109 112
111 109 112
111 110 112
111 110 112
111 111 112
112 111 112
176 176 176
176 176 176
176 177 176
177 177 176
177 178 176
177 178 176
177 179 176
178 179 176
178 180 176
178 180 176
178 181 176
179 181 176
179 182 176
179 182 176
179 183 176
180 183 176
180 184 176
180 184 176
180 185 176
181 185 176
181 186 176
181 186 176
181 187 176
182 187 176
182 188 176
182 188 176
182 189 176
183 189 176
183 190 176
183 190 176
183 191 176
184 191 176
120 128 112
120 128 112
120 129 112
121 129 112
121 130 112
121 130 112
121 131 112
122 131 112
122 132 112
122 132 112
122 133 112
123 133 112
123 134 112
123 134 112
123 135 112
124 135 112
124 136 112
124 136 112
124 137 112
125 137 112
125 138 112
125 138 112
125 139 112
126 139 112
126 140 112
126 140 112
126 141 112
127 141 112
127 142 112
127 142 112
127 143 112
128 143 112
192 208 176
192 208 176
192 209 176
193 209 176
193 210 176
193 210 176
193 211 176
194 211 176
194 212 176
194 212 176
194 213 176
195 213 176
195 214 176
195 214 176
195 215 176
196 215 176
196 216 176
196 216 176
196 217 176
197 217 176
197 218 176
197 218 176
197 219 176
198 219 176
198 220 176
198 220 176
198 221 176
199 221 176
199 222 176
199 222 176
199 223 176
200 223 176
136 160 112
136 160 112
136 161 112
137 161 112
137 162 112
137 162 112
137 163 112
138 163 112
138 164 112
138 164 112
138 165 112
139 165 112
139 166 112
139 166 112
139 167 112
140 167 112
140 168 112
140 168 112
140 169 112
141 169 112
141 170 112
141 170 112
141 171 112
142 171 112
142 172 112
142 172 112
142 173 112
143 173 112
143 174 112
143 174 112
143 175 112
144 175 112
208 240 176
208 240 176
208 241 176
209 241 176
209 242 176
209 242 176
209 243 176
210 243 176
210 244 176
210 244 176
210 245 176
211 245 176
211 246 176
211 246 176
211 247 176
212 247 176
212 248 176
212 248 176
212 249 176
213 249 176
213 250 176
213 250 176
213 251 176
214 251 176
214 252 176
214 252 176
214 253 176
215 253 176
215 254 176
215 254 176
215 255 176
216 255 176
88 64 113
88 64 113
89 65 113
89 65 113
89 66 113
89 66 113
90 67 113
90 67 113
90 68 113
90 68 113
91 69 113
91 69 113
91 70 113
91 70 113
92 71 113
92 71 113
92 72 113
92 72 113
93 73 113
93 73 113
93 74 113
93 74 113
94 75 113
94 75 113
94 76 113
94 76 113
95 77 113
95 77 113
95 78 113
95 78 113
96 79 113
96 79 113
160 144 177
160 144 177
161 145 177
161 145 177
161 146 177
161 146 177
162 147 177
162 147 177
162 148 177
162 148 177
163 149 177
163 149 177
163 150 177
163 150 177
164 151 177
164 151 177
164 152 177
164 152 177
165 153 177
165 153 177
165 154 177
165 154 177
166 155 177
166 155 177
166 156 177
166 156 177
167 157 177
167 157 177
167 158 177
167 158 177
168 159 177
168 159 177
104 96 113
104 96 113
105 97 113
105 97 113
105 98 113
105 98 113
106 99 113
106 99 113
106 100 113
106 100 113
107 101 113
107 101 113
107 102 113
107 102 113
108 103 113
108 103 113
108 104 113
108 104 113
109 105 113
109 105 113
109 106 113
109 106 113
110 107 113
110 107 113
110 108 113
110 108 113
111 109 113
111 109 113
111 110 113
111 110 113
112 111 113
112 111 113
176 176 177
176 176 177
177 177 177
177 177 177
177 178 177
177 178 177
178 179 177
178 179 177
178 180 177
178 180 177
179 181 177
179 181 177
179 182 177
179 182 177
180 183 177
180 183 177
180 184 177
180 184 177
181 185 177
181 185 177
181 186 177
181 186 177
182 187 177
182 187 177
182 188 177
182 188 177
183 189 177
183 189 177
183 190 177
183 190 177
184 191 177
184 191 177
120 128 113
120 128 113
121 129 113
121 129 113
121 130 113
121 130 113
122 131 113
122 131 113
122 132 113
122 132 113
123 133 113
123 133 113
123 134 113
123 134 113
124 135 113
124 135 113
124 136 113
124 136 113
125 137 113
125 137 113
125 138 113
125 138 113
126 139 113
126 139 113
126 140 113
126 140 113
127 141 113
127 141 113
127 142 113
127 142 113
128 143 113
128 143 113
192 208 177
192 208 177
193 209 177
193 209 177
193 210 177
193 210 177
194 211 177
194 211 177
194 212 177
194 212 177
195 213 177
195 213 177
195 214 177
195 214 177
196 215 177
196 215 177
196 216 177
196 216 177
197 217 177
197 217 177
197 218 177
197 218 177
198 219 177
198 219 177
198 220 177
198 220 177
199 221 177
199 221 177
199 222 177
199 222 177
200 223 177
200 223 177
136 160 113
136 160 113
137 161 113
137 161 113
137 162 113
137 162 113
138 163 113
138 163 113
138 164 113
138 164 113
139 165 113
139 165 113
139 166 113
139 166 113
140 167 113
140 167 113
140 168 113
140 168 113
141 169 113
141 169 113
141 170 113
141 170 113
142 171 113
142 171 113
142 172 113
142 172 113
143 173 113
143 173 113
143 174 113
143 174 113
144 175 113
144 175 113
208 240 177
208 240 177
209 241 177
209 241 177
209 242 177
209 242 177
210 243 177
210 243 177
210 244 177
210 244 177
211 245 177
211 245 177
211 246 177
211 246 177
212 247 177
212 247 177
212 248 177
212 248 177
213 249 177
213 249 177
213 250 177
213 250 177
214 251 177
214 251 177
214 252 177
214 252 177
215 253 177
215 253 177
215 254 177
215 254 177
216 255 177
216 255 177
88 64 113
89 64 113
89 65 113
89 65 113
89 66 113
90 66 113
90 67 113
90 67 113
90 68 113
91 68 113
91 69 113
91 69 113
91 70 113
92 70 113
92 71 113
92 71 113
92 72 113
93 72 113
93 73 113
93 73 113
93 74 113
94 74 113
94 75 113
94 75 113
94 76 113
95 76 113
95 77 113
95 77 113
95 78 113
96 78 113
96 79 113
96 79 113
160 144 177
161 144 177
161 145 177
161 145 177
161 146 177
162 146 177
162 147 177
162 147 177
162 148 177
163 148 177
163 149 177
163 149 177
163 150 177
164 150 177
164 151 177
164 151 177
164 152 177
165 152 177
165 153 177
165 153 177
165 154 177
166 154 177
166 155 177
166 155 177
166 156 177
167 156 177
167 157 177
167 157 177
167 158 177
168 158 177
168 159 177
168 159 177
104 96 113
105 96 113
105 97 113
105 97 113
105 98 113
106 98 113
106 99 113
106 99 113
106 100 113
107 100 113
107 101 113
107 101 113
107 102 113
108 102 113
108 103 113
108 103 113
108 104 113
109 104 113
109 105 113
109 105 113
109 106 113
110 106 113
110 107 113
110 107 113
110 108 113
111 108 113
111 109 113
111 109 113
111 110 113
112 110 113
112 111 113
112 111 113
176 176 177
177 176 177
177 177 177
177 177 177
177 178 177
178 178 177
178 179 177
178 179 177
178 180 177
179 180 177
179 181 177
179 181 177
179 182 177
180 182 177
180 183 177
180 183 177
180 184 177
181 184 177
181 185 177
181 185 177
181 186 177
182 186 177
182 187 177
182 187 177
182 188 177
183 188 177
183 189 177
183 189 177
183 190 177
184 190 177
184 191 177
184 191 177
120 128 113
121 128 113
121 129 113
121 129 113
121 130 113
122 130 113
122 131 113
122 131 113
122 132 113
123 132 113
123 133 113
123 133 113
123 134 113
124 134 113
124 135 113
124 135 113
124 136 113
125 136 113
125 137 113
125 137 113
125 138 113
126 138 113
126 139 113
126 139 113
126 140 113
127 140 113
127 141 113
127 141 113
127 142 113
128 142 113
128 143 113
128 143 113
192 208 177
193 208 177
193 209 177
193 209 177
193 210 177
194 210 177
194 211 177
194 211 177
194 212 177
195 212 177
195 213 177
195 213 177
195 214 177
196 214 177
196 215 177
196 215 177
196 216 177
197 216 177
197 217 177
197 217 177
197 218 177
198 218 177
198 219 177
198 219 177
198 220 177
199 220 177
199 221 177
199 221 177
199 222 177
200 222 177
200 223 177
200 223 177
136 160 113
137 160 113
137 161 113
137 161 113
137 162 113
138 162 113
138 163 113
138 163 113
138 164 113
139 164 113
139 165 113
139 165 113
139 166 113
140 166 113
140 167 113
140 167 113
140 168 113
141 168 113
141 169 113
141 169 113
141 170 113
142 170 113
142 171 113
142 171 113
142 172 113
143 172 113
143 173 113
143 173 113
143 174 113
144 174 113
144 175 113
144 175 113
208 240 177
209 240 177
209 241 177
209 241 177
209 242 177
210 242 177
210 243 177
210 243 177
210 244 177
211 244 177
211 245 177
211 245 177
211 246 177
212 246 177
212 247 177
212 247 177
212 248 177
213 248 177
213 249 177
213 249 177
213 250 177
214 250 177
214 251 177
214 251 177
214 252 177
215 252 177
215 253 177
215 253 177
215 254 177
216 254 177
216 255 177
216 255 177
89 64 114
89 64 114
89 65 114
89 65 114
90 66 114
90 66 114
90 67 114
90 67 114
91 68 114
91 68 114
91 69 114
91 69 114
92 70 114
92 70 114
92 71 114
92 71 114
93 72 114
93 72 114
93 73 114
93 73 114
94 74 114
94 74 114
94 75 114
94 75 114
95 76 114
95 76 114
95 77 114
95 77 114
96 78 114
96 78 114
96 79 114
96 79 114
161 144 178
161 144 178
161 145 178
161 145 178
162 146 178
162 146 178
162 147 178
162 147 178
163 148 178
163 148 178
163 149 178
163 149 178
164 150 178
164 150 178
164 151 178
164 151 178
165 152 178
165 152 178
165 153 178
165 153 178
166 154 178
166 154 178
166 155 178
166 155 178
167 156 178
167 156 178
167 157 178
167 157 178
168 158 178
168 158 178
168 159 178
168 159 178
105 96 114
105 96 114
105 97 114
105 97 114
106 98 114
106 98 114
106 99 114
106 99 114
107 100 114
107 100 114
107 101 114
107 101 114
108 102 114
108 102 114
108 103 114
108 103 114
109 104 114
109 104 114
109 105 114
109 105 114
110 106 114
110 106 114
110 107 114
110 107 114
111 108 114
111 108 114
111 109 114
111 109 114
112 110 114
112 110 114
112 111 114
112 111 114
177 176 178
177 176 178
177 177 178
177 177 178
178 178 178
178 178 178
178 179 178
178 179 178
179 180 178
179 180 178
179 181 178
179 181 178
180 182 178
180 182 178
180 183 178
180 183 178
181 184 178
181 184 178
181 185 178
181 185 178
182 186 178
182 186 178
182 187 178
182 187 178
183 188 178
183 188 178
183 189 178
183 189 178
184 190 178
184 190 178
184 191 178
184 191 178
121 128 114
121 128 114
121 129 114
121 129 114
122 130 114
122 130 114
122 131 114
122 131 114
123 132 114
123 132 114
123 133 114
123 133 114
124 134 114
124 134 114
124 135 114
124 135 114
125 136 114
125 136 114
125 137 114
125 137 114
126 138 114
126 138 114
126 139 114
126 139 114
127 140 114
127 140 114
127 141 114
127 141 114
128 142 114
128 142 114
128 143 114
128 143 114
193 208 178
193 208 178
193 209 178
193 209 178
194 210 178
194 210 178
194 211 178
194 211 178
195 212 178
195 212 178
195 213 178
195 213 178
196 214 178
196 214 178
196 215 178
196 215 178
197 216 178
197 216 178
197 217 178
197 217 178
198 218 178
198 218 178
198 219 178
198 219 178
199 220 178
199 220 178
199 221 178
199 221 178
200 222 178
200 222 178
200 223 178
200 223 178
137 160 114
137 160 114
137 161 114
137 161 114
138 162 114
138 162 114
138 163 114
138 163 114
139 164 114
139 164 114
139 165 114
139 165 114
140 166 114
140 166 114
140 167 114
140 167 114
141 168 114
141 168 114
141 169 114
141 169 114
142 170 114
142 170 114
142 171 114
142 171 114
143 172 114
143 172 114
143 173 114
143 173 114
144 174 114
144 174 114
144 175 114
144 175 114
209 240 178
209 240 178
209 241 178
209 241 178
210 242 178
210 242 178
210 243 178
210 243 178
211 244 178
211 244 178
211 245 178
211 245 178
212 246 178
212 246 178
212 247 178
212 247 178
213 248 178
213 248 178
213 249 178
213 249 178
214 250 178
214 250 178
214 251 178
214 251 178
215 252 178
215 252 178
215 253 178
215 253 178
216 254 178
216 254 178
216 255 178
216 255 178
89 64 114
89 64 114
89 65 114
90 65 114
90 66 114
90 66 114
90 67 114
91 67 114
91 68 114
91 68 114
91 69 114
92 69 114
92 70 114
92 70 114
92 71 114
93 71 114
93 72 114
93 72 114
93 73 114
94 73 114
94 74 114
94 74 114
94 75 114
95 75 114
95 76 114
95 76 114
95 77 114
96 77 114
96 78 114
96 78 114
96 79 114
97 79 114
161 144 178
161 144 178
161 145 178
162 145 178
162 146 178
162 146 178
162 147 178
163 147 178
163 148 178
163 148 178
163 149 178
164 149 178
164 150 178
164 150 178
164 151 178
165 151 178
165 152 178
165 152 178
165 153 178
166 153 178
166 154 178
166 154 178
166 155 178
167 155 178
167 156 178
167 156 178
167 157 178
168 157 178
168 158 178
168 158 178
168 159 178
169 159 178
105 96 114
105 96 114
105 97 114
106 97 114
106 98 114
106 98 114
106 99 114
107 99 114
107 100 114
107 100 114
107 101 114
108 101 114
108 102 114
108 102 114
108 103 114
109 103 114
109 104 114
109 104 114
109 105 114
110 105 114
110 106 114
110 106 114
110 107 114
111 107 114
111 108 114
111 108 114
111 109 114
112 109 114
112 110 114
112 110 114
112 111 114
113 111 114
177 176 178
177 176 178
177 177 178
178 177 178
178 178 178
178 178 178
178 179 178
179 179 178
179 180 178
179 180 178
179 181 178
180 181 178
180 182 178
180 182 178
180 183 178
181 183 178
181 184 178
181 184 178
181 185 178
182 185 178
182 186 178
182 186 178
182 187 178
183 187 178
183 188 178
183 188 178
183 189 178
184 189 178
184 190 178
184 190 178
184 191 178
185 191 178
121 128 114
121 128 114
121 129 114
122 129 114
122 130 114
122 130 114
122 131 114
123 131 114
123 132 114
123 132 114
123 133 114
124 133 114
124 134 114
124 134 114
124 135 114
125 135 114
125 136 114
125 136 114
125 137 114
126 137 114
126 138 114
126 138 114
126 139 114
127 139 114
127 140 114
127 140 114
127 141 114
128 141 114
128 142 114
128 142 114
128 143 114
129 143 114
193 208 178
193 208 178
193 209 178
194 209 178
194 210 178
194 210 178
194 211 178
195 211 178
195 212 178
195 212 178
195 213 178
196 213 178
196 214 178
196 214 178
196 215 178
197 215 178
197 216 178
197 216 178
197 217 178
198 217 178
198 218 178
198 218 178
198 219 178
199 219 178
199 220 178
199 220 178
199 221 178
200 221 178
200 222 178
200 222 178
200 223 178
201 223 178
137 160 114
137 160 114
137 161 114
138 161 114
138 162 114
138 162 114
138 163 114
139 163 114
139 164 114
139 164 114
139 165 114
140 165 114
140 166 114
140 166 114
140 167 114
141 167 114
141 168 114
141 168 114
141 169 114
142 169 114
142 170 114
142 170 114
142 171 114
143 171 114
143 172 114
143 172 114
143 173 114
144 173 114
144 174 114
144 174 114
144 175 114
145 175 114
209 240 178
209 240 178
209 241 178
210 241 178
210 242 178
210 242 178
210 243 178
211 243 178
211 244 178
211 244 178
211 245 178
212 245 178
212 246 178
212 246 178
212 247 178
213 247 178
213 248 178
213 248 178
213 249 178
214 249 178
214 250 178
214 250 178
214 251 178
215 251 178
215 252 178
215 252 178
215 253 178
216 253 178
216 254 178
216 254 178
216 255 178
217 255 178
89 64 115
89 64 115
90 65 115
90 65 115
90 66 115
90 66 115
91 67 115
91 67 115
91 68 115
91 68 115
92 69 115
92 69 115
92 70 115
92 70 115
93 71 115
93 71 115
93 72 115
93 72 115
94 73 115
94 73 115
94 74 115
94 74 115
95 75 115
95 75 115
95 76 115
95 76 115
96 77 115
96 77 115
96 78 115
96 78 115
97 79 115
97 79 115
161 144 179
161 144 179
162 145 179
162 145 179
162 146 179
162 146 179
163 147 179
163 147 179
163 148 179
163 148 179
164 149 179
164 149 179
164 150 179
164 150 179
165 151 179
165 151 179
165 152 179
165 152 179
166 153 179
166 153 179
166 154 179
166 154 179
167 155 179
167 155 179
167 156 179
167 156 179
168 157 179
168 157 179
168 158 179
168 158 179
169 159 179
169 159 179
105 96 115
105 96 115
106 97 115
106 97 115
106 98 115
106 98 115
107 99 115
107 99 115
107 100 115
107 100 115
108 101 115
108 101 115
108 102 115
108 102 115
109 103 115
109 103 115
109 104 115
109 104 115
110 105 115
110 105 115
110 106 115
110 106 115
111 107 115
111 107 115
111 108 115
111 108 115
112 109 115
112 109 115
112 110 115
112 110 115
113 111 115
113 111 115
177 176 179
177 176 179
178 177 179
178 177 179
178 178 179
178 178 179
179 179 179
179 179 179
179 180 179
179 180 179
180 181 179
180 181 179
180 182 179
180 182 179
181 183 179
181 183 179
181 184 179
181 184 179
182 185 179
182 185 179
182 186 179
182 186 179
183 187 179
183 187 179
183 188 179
183 188 179
184 189 179
184 189 179
184 190 179
184 190 179
185 191 179
185 191 179
121 128 115
121 128 115
122 129 115
122 129 115
122 130 115
122 130 115
123 131 115
123 131 115
123 132 115
123 132 115
124 133 115
124 133 115
124 134 115
124 134 115
125 135 115
125 135 115
125 136 115
125 136 115
126 137 115
126 137 115
126 138 115
126 138 115
127 139 115
127 139 115
127 140 115
127 140 115
128 141 115
128 141 115
128 142 115
128 142 115
129 143 115
129 143 115
193 208 179
193 208 179
194 209 179
194 209 179
194 210 179
194 210 179
195 211 179
195 211 179
195 212 179
195 212 179
196 213 179
196 213 179
196 214 179
196 214 179
197 215 179
197 215 179
197 216 179
197 216 179
198 217 179
198 217 179
198 218 179
198 218 179
199 219 179
199 219 179
199 220 179
199 220 179
200 221 179
200 221 179
200 222 179
200 222 179
201 223 179
201 223 179
137 160 115
137 160 115
138 161 115
138 161 115
138 162 115
138 162 115
139 163 115
139 163 115
139 164 115
139 164 115
140 165 115
140 165 115
140 166 115
140 166 115
141 167 115
141 167 115
141 168 115
141 168 115
142 169 115
142 169 115
142 170 115
142 170 115
143 171 115
143 171 115
143 172 115
143 172 115
144 173 115
144 173 115
144 174 115
144 174 115
145 175 115
145 175 115
209 240 179
209 240 179
210 241 179
210 241 179
210 242 179
210 242 179
211 243 179
211 243 179
211 244 179
211 244 179
212 245 179
212 245 179
212 246 179
212 246 179
213 247 179
213 247 179
213 248 179
213 248 179
214 249 179
214 249 179
214 250 179
214 250 179
215 251 179
215 251 179
215 252 179
215 252 179
216 253 179
216 253 179
216 254 179
216 254 179
217 255 179
217 255 179
89 64 115
90 64 115
90 65 115
90 65 115
90 66 115
91 66 115
91 67 115
91 67 115
91 68 115
92 68 115
92 69 115
92 69 115
92 70 115
93 70 115
93 71 115
93 71 115
93 72 115
94 72 115
94 73 115
94 73 115
94 74 115
95 74 115
95 75 115
95 75 115
95 76 115
96 76 115
96 77 115
96 77 115
96 78 115
97 78 115
97 79 115
97 79 115
161 144 179
162 144 179
162 145 179
162 145 179
162 146 179
163 146 179
163 147 179
163 147 179
163 148 179
164 148 179
164 149 179
164 149 179
164 150 179
165 150 179
165 151 179
165 151 179
165 152 179
166 152 179
166 153 179
166 153 179
166 154 179
167 154 179
167 155 179
167 155 179
167 156 179
168 156 179
168 157 179
168 157 179
168 158 179
169 158 179
169 159 179
169 159 179
105 96 115
106 96 115
106 97 115
106 97 115
106 98 115
107 98 115
107 99 115
107 99 115
107 100 115
108 100 115
108 101 115
108 101 115
108 102 115
109 102 115
109 103 115
109 103 115
109 104 115
110 104 115
110 105 115
110 105 115
110 106 115
111 106 115
111 107 115
111 107 115
111 108 115
112 108 115
112 109 115
112 109 115
112 110 115
113 110 115
113 111 115
113 111 115
177 176 179
178 176 179
178 177 179
178 177 179
178 178 179
179 178 179
179 179 179
179 179 179
179 180 179
180 180 179
180 181 179
180 181 179
180 182 179
181 182 179
181 183 179
181 183 179
181 184 179
182 184 179
182 185 179
182 185 179
182 186 179
183 186 179
183 187 179
183 187 179
183 188 179
184 188 179
184 189 179
184 189 179
184 190 179
185 190 179
185 191 179
185 191 179
121 128 115
122 128 115
122 129 115
122 129 115
122 130 115
123 130 115
123 131 115
123 131 115
123 132 115
124 132 115
124 133 115
124 133 115
124 134 115
125 134 115
125 135 115
125 135 115
125 136 115
126 136 115
126 137 115
126 137 115
126 138 115
127 138 115
127 139 115
127 139 115
127 140 115
128 140 115
128 141 115
128 141 115
128 142 115
129 142 115
129 143 115
129 143 115
193 208 179
194 208 179
194 209 179
194 209 179
194 210 179
195 210 179
195 211 179
195 211 179
195 212 179
196 212 179
196 213 179
196 213 179
196 214 179
197 214 179
197 215 179
197 215 179
197 216 179
198 216 179
198 217 179
198 217 179
198 218 179
199 218 179
199 219 179
199 219 179
199 220 179
200 220 179
200 221 179
200 221 179
200 222 179
201 222 179
201 223 179
201 223 179
137 160 115
138 160 115
138 161 115
138 161 115
138 162 115
139 162 115
139 163 115
139 163 115
139 164 115
140 164 115
140 165 115
140 165 115
140 166 115
141 166 115
141 167 115
141 167 115
141 168 115
142 168 115
142 169 115
142 169 115
142 170 115
143 170 115
143 171 115
143 171 115
143 172 115
144 172 115
144 173 115
144 173 115
144 174 115
145 174 115
145 175 115
145 175 115
209 240 179
210 240 179
210 241 179
210 241 179
210 242 179
211 242 179
211 243 179
211 243 179
211 244 179
212 244 179
212 245 179
212 245 179
212 246 179
213 246 179
213 247 179
213 247 179
213 248 179
214 248 179
214 249 179
214 249 179
214 250 179
215 250 179
215 251 179
215 251 179
215 252 179
216 252 179
216 253 179
216 253 179
216 254 179
217 254 179
217 255 179
217 255 179
90 64 116
90 64 116
90 65 116
90 65 116
91 66 116
91 66 116
91 67 116
91 67 116
92 68 116
92 68 116
92 69 116
92 69 116
93 70 116
93 70 116
93 71 116
93 71 116
94 72 116
94 72 116
94 73 116
94 73 116
95 74 116
95 74 116
95 75 116
95 75 116
96 76 116
96 76 116
96 77 116
96 77 116
97 78 116
97 78 116
97 79 116
97 79 116
162 144 180
162 144 180
162 145 180
162 145 180
163 146 180
163 146 180
163 147 180
163 147 180
164 148 180
164 148 180
164 149 180
164 149 180
165 150 180
165 150 180
165 151 180
165 151 180
166 152 180
166 152 180
166 153 180
166 153 180
167 154 180
167 154 180
167 155 180
167 155 180
168 156 180
168 156 180
168 157 180
168 157 180
169 158 180
169 158 180
169 159 180
169 159 180
106 96 116
106 96 116
106 97 116
106 97 116
107 98 116
107 98 116
107 99 116
107 99 116
108 100 116
108 100 116
108 101 116
108 101 116
109 102 116
109 102 116
109 103 116
109 103 116
110 104 116
110 104 116
110 105 116
110 105 116
111 106 116
111 106 116
111 107 116
111 107 116
112 108 116
112 108 116
112 109 116
112 109 116
113 110 116
113 110 116
113 111 116
113 111 116
178 176 180
178 176 180
178 177 180
178 177 180
179 178 180
179 178 180
179 179 180
179 179 180
180 180 180
180 180 180
180 181 180
180 181 180
181 182 180
181 182 180
181 183 180
181 183 180
182 184 180
182 184 180
182 185 180
182 185 180
183 186 180
183 186 180
183 187 180
183 187 180
184 188 180
184 188 180
184 189 180
184 189 180
185 190 180
185 190 180
185 191 180
185 191 180
122 128 116
122 128 116
122 129 116
122 129 116
123 130 116
123 130 116
123 131 116
123 131 116
124 132 116
124 132 116
124 133 116
124 133 116
125 134 116
125 134 116
125 135 116
125 135 116
126 136 116
126 136 116
126 137 116
126 137 116
127 138 116
127 138 116
127 139 116
127 139 116
128 140 116
128 140 116
128 141 116
128 141 116
129 142 116
129 142 116
129 143 116
129 143 116
194 208 180
194 208 180
194 209 180
194 209 180
195 210 180
195 210 180
195 211 180
195 211 180
196 212 180
196 212 180
196 213 180
196 213 180
197 214 180
197 214 180
197 215 180
197 215 180
198 216 180
198 216 180
198 217 180
198 217 180
199 218 180
199 218 180
199 219 180
199 219 180
200 220 180
200 220 180
200 221 180
200 221 180
201 222 180
201 222 180
201 223 180
201 223 180
138 160 116
138 160 116
138 161 116
138 161 116
139 162 116
139 162 116
139 163 116
139 163 116
140 164 116
140 164 116
140 165 116
140 165 116
141 166 116
141 166 116
141 167 116
141 167 116
142 168 116
142 168 116
142 169 116
142 169 116
143 170 116
143 170 116
143 171 116
143 171 116
144 172 116
144 172 116
144 173 116
144 173 116
145 174 116
145 174 116
145 175 116
145 175 116
210 240 180
210 240 180
210 241 180
210 241 180
211 242 180
211 242 180
211 243 180
211 243 180
212 244 180
212 244 180
212 245 180
212 245 180
213 246 180
213 246 180
213 247 180
213 247 180
214 248 180
214 248 180
214 249 180
214 249 180
215 250 180
215 250 180
215 251 180
215 251 180
216 252 180
216 252 180
216 253 180
216 253 180
217 254 180
217 254 180
217 255 180
217 255 180
90 64 116
90 64 116
90 65 116
91 65 116
91 66 116
91 66 116
91 67 116
92 67 116
92 68 116
92 68 116
92 69 116
93 69 116
93 70 116
93 70 116
93 71 116
94 71 116
94 72 116
94 72 116
94 73 116
95 73 116
95 74 116
95 74 116
95 75 116
96 75 116
96 76 116
96 76 116
96 77 116
97 77 116
97 78 116
97 78 116
97 79 116
98 79 116
162 144 180
162 144 180
162 145 180
163 145 180
163 146 180
163 146 180
163 147 180
164 147 180
164 148 180
164 148 180
164 149 180
165 149 180
165 150 180
165 150 180
165 151 180
166 151 180
166 152 180
166 152 180
166 153 180
167 153 180
167 154 180
167 154 180
167 155 180
168 155 180
168 156 180
168 156 180
168 157 180
169 157 180
169 158 180
169 158 180
169 159 180
170 159 180
106 96 116
106 96 116
106 97 116
107 97 116
107 98 116
107 98 116
107 99 116
108 99 116
108 100 116
108 100 116
108 101 116
109 101 116
109 102 116
109 102 116
109 103 116
110 103 116
110 104 116
110 104 116
110 105 116
111 105 116
111 106 116
111 106 116
111 107 116
112 107 116
112 108 116
112 108 116
112 109 116
113 109 116
113 110 116
113 110 116
113 111 116
114 111 116
178 176 180
178 176 180
178 177 180
179 177 180
179 178 180
179 178 180
179 179 180
180 179 180
180 180 180
180 180 180
180 181 180
181 181 180
181 182 180
181 182 180
181 183 180
182 183 180
182 184 180
182 184 180
182 185 180
183 185 180
183 186 180
183 186 180
183 187 180
184 187 180
184 188 180
184 188 180
184 189 180
185 189 180
185 190 180
185 190 180
185 191 180
186 191 180
122 128 116
122 128 116
122 129 116
123 129 116
123 130 116
123 130 116
123 131 116
124 131 116
124 132 116
124 132 116
124 133 116
125 133 116
125 134 116
125 134 116
125 135 116
126 135 116
126 136 116
126 136 116
126 137 116
127 137 116
127 138 116
127 138 116
127 139 116
128 139 116
128 140 116
128 140 116
128 141 116
129 141 116
129 142 116
129 142 116
129 143 116
130 143 116
194 208 180
194 208 180
194 209 180
195 209 180
195 210 180
195 210 180
195 211 180
196 211 180
196 212 180
196 212 180
196 213 180
197 213 180
197 214 180
197 214 180
197 215 180
198 215 180
198 216 180
198 216 180
198 217 180
199 217 180
199 218 180
199 218 180
199 219 180
200 219 180
200 220 180
200 220 180
200 221 180
201 221 180
201 222 180
201 222 180
201 223 180
202 223 180
138 160 116
138 160 116
138 161 116
139 161 116
139 162 116
139 162 116
139 163 116
140 163 116
140 164 116
140 164 116
140 165 116
141 165 116
141 166 116
141 166 116
141 167 116
142 167 116
142 168 116
142 168 116
142 169 116
143 169 116
143 170 116
143 170 116
143 171 116
144 171 116
144 172 116
144 172 116
144 173 116
145 173 116
145 174 116
145 174 116
145 175 116
146 175 116
210 240 180
210 240 180
210 241 180
211 241 180
211 242 180
211 242 180
211 243 180
212 243 180
212 244 180
212 244 180
212 245 180
213 245 180
213 246 180
213 246 180
213 247 180
214 247 180
214 248 180
214 248 180
214 249 180
215 249 180
215 250 180
215 250 180
215 251 180
216 251 180
216 252 180
216 252 180
216 253 180
217 253 180
217 254 180
217 254 180
217 255 180
218 255 180
90 64 117
90 64 117
91 65 117
91 65 117
91 66 117
91 66 117
92 67 117
92 67 117
92 68 117
92 68 117
93 69 117
93 69 117
93 70 117
93 70 117
94 71 117
94 71 117
94 72 117
94 72 117
95 73 117
95 73 117
95 74 117
95 74 117
96 75 117
96 75 117
96 76 117
96 76 117
97 77 117
97 77 117
97 78 117
97 78 117
98 79 117
98 79 117
162 144 181
162 144 181
163 145 181
163 145 181
163 146 181
163 146 181
164 147 181
164 147 181
164 148 181
164 148 181
165 149 181
165 149 181
165 150 181
165 150 181
166 151 181
166 151 181
166 152 181
166 152 181
167 153 181
167 153 181
167 154 181
167 154 181
168 155 181
168 155 181
168 156 181
168 156 181
169 157 181
169 157 181
169 158 181
169 158 181
170 159 181
170 159 181
106 96 117
106 96 117
107 97 117
107 97 117
107 98 117
107 98 117
108 99 117
108 99 117
108 100 117
108 100 117
109 101 117
109 101 117
109 102 117
109 102 117
110 103 117
110 103 117
110 104 117
110 104 117
111 105 117
111 105 117
111 106 117
111 106 117
112 107 117
112 107 117
112 108 117
112 108 117
113 109 117
113 109 117
113 110 117
113 110 117
114 111 117
114 111 117
178 176 181
178 176 181
179 177 181
179 177 181
179 178 181
179 178 181
180 179 181
180 179 181
180 180 181
180 180 181
181 181 181
181 181 181
181 182 181
181 182 181
182 183 181
182 183 181
182 184 181
182 184 181
183 185 181
183 185 181
183 186 181
183 186 181
184 187 181
184 187 181
184 188 181
184 188 181
185 189 181
185 189 181
185 190 181
185 190 181
186 191 181
186 191 181
122 128 117
122 128 117
123 129 117
123 129 117
123 130 117
123 130 117
124 131 117
124 131 117
124 132 117
124 132 117
125 133 117
125 133 117
125 134 117
125 134 117
126 135 117
126 135 117
126 136 117
126 136 117
127 137 117
127 137 117
127 138 117
127 138 117
128 139 117
128 139 117
128 140 117
128 140 117
129 141 117
129 141 117
129 142 117
129 142 117
130 143 117
130 143 117
194 208 181
194 208 181
195 209 181
195 209 181
195 210 181
195 210 181
196 211 181
196 211 181
196 212 181
196 212 181
197 213 181
197 213 181
197 214 181
197 214 181
198 215 181
198 215 181
198 216 181
198 216 181
199 217 181
199 217 181
199 218 181
199 218 181
200 219 181
200 219 181
200 220 181
200 220 181
201 221 181
201 221 181
201 222 181
201 222 181
202 223 181
202 223 181
138 160 117
138 160 117
139 161 117
139 161 117
139 162 117
139 162 117
140 163 117
140 163 117
140 164 117
140 164 117
141 165 117
141 165 117
141 166 117
141 166 117
142 167 117
142 167 117
142 168 117
142 168 117
143 169 117
143 169 117
143 170 117
143 170 117
144 171 117
144 171 117
144 172 117
144 172 117
145 173 117
145 173 117
145 174 117
145 174 117
146 175 117
146 175 117
210 240 181
210 240 181
211 241 181
211 241 181
211 242 181
211 242 181
212 243 181
212 243 181
212 244 181
212 244 181
213 245 181
213 245 181
213 246 181
213 246 181
214 247 181
214 247 181
214 248 181
214 248 181
215 249 181
215 249 181
215 250 181
215 250 181
216 251 181
216 251 181
216 252 181
216 252 181
217 253 181
217 253 181
217 254 181
217 254 181
218 255 181
218 255 181
90 64 117
91 64 117
91 65 117
91 65 117
91 66 117
92 66 117
92 67 117
92 67 117
92 68 117
93 68 117
93 69 117
93 69 117
93 70 117
94 70 117
94 71 117
94 71 117
94 72 117
95 72 117
95 73 117
95 73 117
95 74 117
96 74 117
96 75 117
96 75 117
96 76 117
97 76 117
97 77 117
97 77 117
97 78 117
98 78 117
98 79 117
98 79 117
162 144 181
163 144 181
163 145 181
163 145 181
163 146 181
164 146 181
164 147 181
164 147 181
164 148 181
165 148 181
165 149 181
165 149 181
165 150 181
166 150 181
166 151 181
166 151 181
166 152 181
167 152 181
167 153 181
167 153 181
167 154 181
168 154 181
168 155 181
168 155 181
168 156 181
169 156 181
169 157 181
169 157 181
169 158 181
170 158 181
170 159 181
170 159 181
106 96 117
107 96 117
107 97 117
107 97 117
107 98 117
108 98 117
108 99 117
108 99 117
108 100 117
109 100 117
109 101 117
109 101 117
109 102 117
110 102 117
110 103 117
110 103 117
110 104 117
111 104 117
111 105 117
111 105 117
111 106 117
112 106 117
112 107 117
112 107 117
112 108 117
113 108 117
113 109 117
113 109 117
113 110 117
114 110 117
114 111 117
114 111 117
178 176 181
179 176 181
179 177 181
179 177 181
179 178 181
180 178 181
180 179 181
180 179 181
180 180 181
181 180 181
181 181 181
181 181 181
181 182 181
182 182 181
182 183 181
182 183 181
182 184 181
183 184 181
183 185 181
183 185 181
183 186 181
184 186 181
184 187 181
184 187 181
184 188 181
185 188 181
185 189 181
185 189 181
185 190 181
186 190 181
186 191 181
186 191 181
122 128 117
123 128 117
123 129 117
123 129 117
123 130 117
124 130 117
124 131 117
124 131 117
124 132 117
125 132 117
125 133 117
125 133 117
125 134 117
126 134 117
126 135 117
126 135 117
126 136 117
127 136 117
127 137 117
127 137 117
127 138 117
128 138 117
128 139 117
128 139 117
128 140 117
129 140 117
129 141 117
129 141 117
129 142 117
130 142 117
130 143 117
130 143 117
194 208 181
195 208 181
195 209 181
195 209 181
195 210 181
196 210 181
196 211 181
196 211 181
196 212 181
197 212 181
197 213 181
197 213 181
197 214 181
198 214 181
198 215 181
198 215 181
198 216 181
199 216 181
199 217 181
199 217 181
199 218 181
200 218 181
200 219 181
200 219 181
200 220 181
201 220 181
201 221 181
201 221 181
201 222 181
202 222 181
202 223 181
202 223 181
138 160 117
139 160 117
139 161 117
139 161 117
139 162 117
140 162 117
140 163 117
140 163 117
140 164 117
141 164 117
141 165 117
141 165 117
141 166 117
142 166 117
142 167 117
142 167 117
142 168 117
143 168 117
143 169 117
143 169 117
143 170 117
144 170 117
144 171 117
144 171 117
144 172 117
145 172 117
145 173 117
145 173 117
145 174 117
146 174 117
146 175 117
146 175 117
210 240 181
211 240 181
211 241 181
211 241 181
211 242 181
212 242 181
212 243 181
212 243 181
212 244 181
213 244 181
213 245 181
213 245 181
213 246 181
214 246 181
214 247 181
214 247 181
214 248 181
215 248 181
215 249 181
215 249 181
215 250 181
216 250 181
216 251 181
216 251 181
216 252 181
217 252 181
217 253 181
217 253 181
217 254 181
218 254 181
218 255 181
218 255 181
91 64 118
91 64 118
91 65 118
91 65 118
92 66 118
92 66 118
92 67 118
92 67 118
93 68 118
93 68 118
93 69 118
93 69 118
94 70 118
94 70 118
94 71 118
94 71 118
95 72 118
95 72 118
95 73 118
95 73 118
96 74 118
96 74 118
96 75 118
96 75 118
97 76 118
97 76 118
97 77 118
97 77 118
98 78 118
98 78 118
98 79 118
98 79 118
163 144 182
163 144 182
163 145 182
163 145 182
164 146 182
164 146 182
164 147 182
164 147 182
165 148 182
165 148 182
165 149 182
165 149 182
166 150 182
166 150 182
166 151 182
166 151 182
167 152 182
167 152 182
167 153 182
167 153 182
168 154 182
168 154 182
168 155 182
168 155 182
169 156 182
169 156 182
169 157 182
169 157 182
170 158 182
170 158 182
170 159 182
170 159 182
107 96 118
107 96 118
107 97 118
107 97 118
108 98 118
108 98 118
108 99 118
108 99 118
109 100 118
109 100 118
109 101 118
109 101 118
110 102 118
110 102 118
110 103 118
110 103 118
111 104 118
111 104 118
111 105 118
111 105 118
112 106 118
112 106 118
112 107 118
112 107 118
113 108 118
113 108 118
113 109 118
113 109 118
114 110 118
114 110 118
114 111 118
114 111 118
179 176 182
179 176 182
179 177 182
179 177 182
180 178 182
180 178 182
180 179 182
180 179 182
181 180 182
181 180 182
181 181 182
181 181 182
182 182 182
182 182 182
182 183 182
182 183 182
183 184 182
183 184 182
183 185 182
183 185 182
184 186 182
184 186 182
184 187 182
184 187 182
185 188 182
185 188 182
185 189 182
185 189 182
186 190 182
186 190 182
186 191 182
186 191 182
123 128 118
123 128 118
123 129 118
123 129 118
124 130 118
124 130 118
124 131 118
124 131 118
125 132 118
125 132 118
125 133 118
125 133 118
126 134 118
126 134 118
126 135 118
126 135 118
127 136 118
127 136 118
127 137 118
127 137 118
128 138 118
128 138 118
128 139 118
128 139 118
129 140 118
129 140 118
129 141 118
129 141 118
130 142 118
130 142 118
130 143 118
130 143 118
195 208 182
195 208 182
195 209 182
195 209 182
196 210 182
196 210 182
196 211 182
196 211 182
197 212 182
197 212 182
197 213 182
197 213 182
198 214 182
198 214 182
198 215 182
198 215 182
199 216 182
199 216 182
199 217 182
199 217 182
200 218 182
200 218 182
200 219 182
200 219 182
201 220 182
201 220 182
201 221 182
201 221 182
202 222 182
202 222 182
202 223 182
202 223 182
139 160 118
139 160 118
139 161 118
139 161 118
140 162 118
140 162 118
140 163 118
140 163 118
141 164 118
141 164 118
141 165 118
141 165 118
142 166 118
142 166 118
142 167 118
142 167 118
143 168 118
143 168 118
143 169 118
143 169 118
144 170 118
144 170 118
144 171 118
144 171 118
145 172 118
145 172 118
145 173 118
145 173 118
146 174 118
146 174 118
146 175 118
146 175 118
211 240 182
211 240 182
211 241 182
211 241 182
212 242 182
212 242 182
212 243 182
212 243 182
213 244 182
213 244 182
213 245 182
213 245 182
214 246 182
214 246 182
214 247 182
214 247 182
215 248 182
215 248 182
215 249 182
215 249 182
216 250 182
216 250 182
216 251 182
216 251 182
217 252 182
217 252 182
217 253 182
217 253 182
218 254 182
218 254 182
218 255 182
218 255 182
91 64 118
91 64 118
91 65 118
92 65 118
92 66 118
92 66 118
92 67 118
93 67 118
93 68 118
93 68 118
93 69 118
94 69 118
94 70 118
94 70 118
94 71 118
95 71 118
95 72 118
95 72 118
95 73 118
96 73 118
96 74 118
96 74 118
96 75 118
97 75 118
97 76 118
97 76 118
97 77 118
98 77 118
98 78 118
98 78 118
98 79 118
99 79 118
163 144 182
163 144 182
163 145 182
164 145 182
164 146 182
164 146 182
164 147 182
165 147 182
165 148 182
165 148 182
165 149 182
166 149 182
166 150 182
166 150 182
166 151 182
167 151 182
167 152 182
167 152 182
167 153 182
168 153 182
168 154 182
168 154 182
168 155 182
169 155 182
169 156 182
169 156 182
169 157 182
170 157 182
170 158 182
170 158 182
170 159 182
171 159 182
107 96 118
107 96 118
107 97 118
108 97 118
108 98 118
108 98 118
108 99 118
109 99 118
109 100 118
109 100 118
109 101 118
110 101 118
110 102 118
110 102 118
110 103 118
111 103 118
111 104 118
111 104 118
111 105 118
112 105 118
112 106 118
112 106 118
112 107 118
113 107 118
113 108 118
113 108 118
113 109 118
114 109 118
114 110 118
114 110 118
114 111 118
115 111 118
179 176 182
179 176 182
179 177 182
180 177 182
180 178 182
180 178 182
180 179 182
181 179 182
181 180 182
181 180 182
181 181 182
182 181 182
182 182 182
182 182 182
182 183 182
183 183 182
183 184 182
183 184 182
183 185 182
184 185 182
184 186 182
184 186 182
184 187 182
185 187 182
185 188 182
185 188 182
185 189 182
186 189 182
186 190 182
186 190 182
186 191 182
187 191 182
123 128 118
123 128 118
123 129 118
124 129 118
124 130 118
124 130 118
124 131 118
125 131 118
125 132 118
125 132 118
125 133 118
126 133 118
126 134 118
126 134 118
126 135 118
127 135 118
127 136 118
127 136 118
127 137 118
128 137 118
128 138 118
128 138 118
128 139 118
129 139 118
129 140 118
129 140 118
129 141 118
130 141 118
130 142 118
130 142 118
130 143 118
131 143 118
195 208 182
195 208 182
195 209 182
196 209 182
196 210 182
196 210 182
196 211 182
197 211 182
197 212 182
197 212 182
197 213 182
198 213 182
198 214 182
198 214 182
198 215 182
199 215 182
199 216 182
199 216 182
199 217 182
200 217 182
200 218 182
200 218 182
200 219 182
201 219 182
201 220 182
201 220 182
201 221 182
202 221 182
202 222 182
202 222 182
202 223 182
203 223 182
139 160 118
139 160 118
139 161 118
140 161 118
140 162 118
140 162 118
140 163 118
141 163 118
141 164 118
141 164 118
141 165 118
142 165 118
142 166 118
142 166 118
142 167 118
143 167 118
143 168 118
143 168 118
143 169 118
144 169 118
144 170 118
144 170 118
144 171 118
145 171 118
145 172 118
145 172 118
145 173 118
146 173 118
146 174 118
146 174 118
146 175 118
147 175 118
211 240 182
211 240 182
211 241 182
212 241 182
212 242 182
212 242 182
212 243 182
213 243 182
213 244 182
213 244 182
213 245 182
214 245 182
214 246 182
214 246 182
214 247 182
215 247 182
215 248 182
215 248 182
215 249 182
216 249 182
216 250 182
216 250 182
216 251 182
217 251 182
217 252 182
217 252 182
217 253 182
218 253 182
218 254 182
218 254 182
218 255 182
219 255 182
91 64 119
91 64 119
92 65 119
92 65 119
92 66 119
92 66 119
93 67 119
93 67 119
93 68 119
93 68 119
94 69 119
94 69 119
94 70 119
94 70 119
95 71 119
95 71 119
95 72 119
95 72 119
96 73 119
96 73 119
96 74 119
96 74 119
97 75 119
97 75 119
97 76 119
97 76 119
98 77 119
98 77 119
98 78 119
98 78 119
99 79 119
99 79 119
163 144 183
163 144 183
164 145 183
164 145 183
164 146 183
164 146 183
165 147 183
165 147 183
165 148 183
165 148 183
166 149 183
166 149 183
166 150 183
166 150 183
167 151 183
167 151 183
167 152 183
167 152 183
168 153 183
168 153 183
168 154 183
168 154 183
169 155 183
169 155 183
169 156 183
169 156 183
170 157 183
170 157 183
170 158 183
170 158 183
171 159 183
171 159 183
107 96 119
107 96 119
108 97 119
108 97 119
108 98 119
108 98 119
109 99 119
109 99 119
109 100 119
109 100 119
110 101 119
110 101 119
110 102 119
110 102 119
111 103 119
111 103 119
111 104 119
111 104 119
112 105 119
112 105 119
112 106 119
112 106 119
113 107 119
113 107 119
113 108 119
113 108 119
114 109 119
114 109 119
114 110 119
114 110 119
115 111 119
115 111 119
179 176 183
179 176 183
180 177 183
180 177 183
180 178 183
180 178 183
181 179 183
181 179 183
181 180 183
181 180 183
182 181 183
182 181 183
182 182 183
182 182 183
183 183 183
183 183 183
183 184 183
183 184 183
184 185 183
184 185 183
184 186 183
184 186 183
185 187 183
185 187 183
185 188 183
185 188 183
186 189 183
186 189 183
186 190 183
186 190 183
187 191 183
187 191 183
123 128 119
123 128 119
124 129 119
124 129 119
124 130 119
124 130 119
125 131 119
125 131 119
125 132 119
125 132 119
126 133 119
126 133 119
126 134 119
126 134 119
127 135 119
127 135 119
127 136 119
127 136 119
128 137 119
128 137 119
128 138 119
128 138 119
129 139 119
129 139 119
129 140 119
129 140 119
130 141 119
130 141 119
130 142 119
130 142 119
131 143 119
131 143 119
195 208 183
195 208 183
196 209 183
196 209 183
196 210 183
196 210 183
197 211 183
197 211 183
197 212 183
197 212 183
198 213 183
198 213 183
198 214 183
198 214 183
199 215 183
199 215 183
199 216 183
199 216 183
200 217 183
200 217 183
200 218 183
200 218 183
201 219 183
201 219 183
201 220 183
201 220 183
202 221 183
202 221 183
202 222 183
202 222 183
203 223 183
203 223 183
139 160 119
139 160 119
140 161 119
140 161 119
140 162 119
140 162 119
141 163 119
141 163 119
141 164 119
141 164 119
142 165 119
142 165 119
142 166 119
142 166 119
143 167 119
143 167 119
143 168 119
143 168 119
144 169 119
144 169 119
144 170 119
144 170 119
145 171 119
145 171 119
145 172 119
145 172 119
146 173 119
146 173 119
146 174 119
146 174 119
147 175 119
147 175 119
211 240 183
211 240 183
212 241 183
212 241 183
212 242 183
212 242 183
213 243 183
213 243 183
213 244 183
213 244 183
214 245 183
214 245 183
214 246 183
214 246 183
215 247 183
215 247 183
215 248 183
215 248 183
216 249 183
216 249 183
216 250 183
216 250 183
217 251 183
217 251 183
217 252 183
217 252 183
218 253 183
218 253 183
218 254 183
218 254 183
219 255 183
219 255 183
91 64 119
92 64 119
92 65 119
92 65 119
92 66 119
93 66 119
93 67 119
93 67 119
93 68 119
94 68 119
94 69 119
94 69 119
94 70 119
95 70 119
95 71 119
95 71 119
95 72 119
96 72 119
96 73 119
96 73 119
96 74 119
97 74 119
97 75 119
97 75 119
97 76 119
98 76 119
98 77 119
98 77 119
98 78 119
99 78 119
99 79 119
99 79 119
163 144 183
164 144 183
164 145 183
164 145 183
164 146 183
165 146 183
165 147 183
165 147 183
165 148 183
166 148 183
166 149 183
166 149 183
166 150 183
167 150 183
167 151 183
167 151 183
167 152 183
168 152 183
168 153 183
168 153 183
168 154 183
169 154 183
169 155 183
169 155 183
169 156 183
170 156 183
170 157 183
170 157 183
170 158 183
171 158 183
171 159 183
171 159 183
107 96 119
108 96 119
108 97 119
108 97 119
108 98 119
109 98 119
109 99 119
109 99 119
109 100 119
110 100 119
110 101 119
110 101 119
110 102 119
111 102 119
111 103 119
111 103 119
111 104 119
112 104 119
112 105 119
112 105 119
112 106 119
113 106 119
113 107 119
113 107 119
113 108 119
114 108 119
114 109 119
114 109 119
114 110 119
115 110 119
115 111 119
115 111 119
179 176 183
180 176 183
180 177 183
180 177 183
180 178 183
181 178 183
181 179 183
181 179 183
181 180 183
182 180 183
182 181 183
182 181 183
182 182 183
183 182 183
183 183 183
183 183 183
183 184 183
184 184 183
184 185 183
184 185 183
184 186 183
185 186 183
185 187 183
185 187 183
185 188 183
186 188 183
186 189 183
186 189 183
186 190 183
187 190 183
187 191 183
187 191 183
123 128 119
124 128 119
124 129 119
124 129 119
124 130 119
125 130 119
125 131 119
125 131 119
125 132 119
126 132 119
126 133 119
126 133 119
126 134 119
127 134 119
127 135 119
127 135 119
127 136 119
128 136 119
128 137 119
128 137 119
128 138 119
129 138 119
129 139 119
129 139 119
129 140 119
130 140 119
130 141 119
130 141 119
130 142 119
131 142 119
131 143 119
131 143 119
195 208 183
196 208 183
196 209 183
196 209 183
196 210 183
197 210 183
197 211 183
197 211 183
197 212 183
198 212 183
198 213 183
198 213 183
198 214 183
199 214 183
199 215 183
199 215 183
199 216 183
200 216 183
200 217 183
200 217 183
200 218 183
201 218 183
201 219 183
201 219 183
201 220 183
202 220 183
202 221 183
202 221 183
202 222 183
203 222 183
203 223 183
203 223 183
139 160 119
140 160 119
140 161 119
140 161 119
140 162 119
141 162 119
141 163 119
141 163 119
141 164 119
142 164 119
142 165 119
142 165 119
142 166 119
143 166 119
143 167 119
143 167 119
143 168 119
144 168 119
144 169 119
144 169 119
144 170 119
145 170 119
145 171 119
145 171 119
145 172 119
146 172 119
146 173 119
146 173 119
146 174 119
147 174 119
147 175 119
147 175 119
211 240 183
212 240 183
212 241 183
212 241 183
212 242 183
213 242 183
213 243 183
213 243 183
213 244 183
214 244 183
214 245 183
214 245 183
214 246 183
215 246 183
215 247 183
215 247 183
215 248 183
216 248 183
216 249 183
216 249 183
216 250 183
217 250 183
217 251 183
217 251 183
217 252 183
218 252 183
218 253 183
218 253 183
218 254 183
219 254 183
219 255 183
219 255 183
92 64 120
92 64 120
92 65 120
92 65 120
93 66 120
93 66 120
93 67 120
93 67 120
94 68 120
94 68 120
94 69 120
94 69 120
95 70 120
95 70 120
95 71 120
95 71 120
96 72 120
96 72 120
96 73 120
96 73 120
97 74 120
97 74 120
97 75 120
97 75 120
98 76 120
98 76 120
98 77 120
98 77 120
99 78 120
99 78 120
99 79 120
99 79 120
164 144 184
164 144 184
164 145 184
164 145 184
165 146 184
165 146 184
165 147 184
165 147 184
166 148 184
166 148 184
166 149 184
166 149 184
167 150 184
167 150 184
167 151 184
167 151 184
168 152 184
168 152 184
168 153 184
168 153 184
169 154 184
169 154 184
169 155 184
169 155 184
170 156 184
170 156 184
170 157 184
170 157 184
171 158 184
171 158 184
171 159 184
171 159 184
108 96 120
108 96 120
108 97 120
108 97 120
109 98 120
109 98 120
109 99 120
109 99 120
110 100 120
110 100 120
110 101 120
110 101 120
111 102 120
111 102 120
111 103 120
111 103 120
112 104 120
112 104 120
112 105 120
112 105 120
113 106 120
113 106 120
113 107 120
113 107 120
114 108 120
114 108 120
114 109 120
114 109 120
115 110 120
115 110 120
115 111 120
115 111 120
180 176 184
180 176 184
180 177 184
180 177 184
181 178 184
181 178 184
181 179 184
181 179 184
182 180 184
182 180 184
182 181 184
182 181 184
183 182 184
183 182 184
183 183 184
183 183 184
184 184 184
184 184 184
184 185 184
184 185 184
185 186 184
185 186 184
185 187 184
185 187 184
186 188 184
186 188 184
186 189 184
186 189 184
187 190 184
187 190 184
187 191 184
187 191 184
124 128 120
124 128 120
124 129 120
124 129 120
125 130 120
125 130 120
125 131 120
125 131 120
126 132 120
126 132 120
126 133 120
126 133 120
127 134 120
127 134 120
127 135 120
127 135 120
128 136 120
128 136 120
128 137 120
128 137 120
129 138 120
129 138 120
129 139 120
129 139 120
130 140 120
130 140 120
130 141 120
130 141 120
131 142 120
131 142 120
131 143 120
131 143 120
196 208 184
196 208 184
196 209 184
196 209 184
197 210 184
197 210 184
197 211 184
197 211 184
198 212 184
198 212 184
198 213 184
198 213 184
199 214 184
199 214 184
199 215 184
199 215 184
200 216 184
200 216 184
200 217 184
200 217 184
201 218 184
201 218 184
201 219 184
201 219 184
202 220 184
202 220 184
202 221 184
202 221 184
203 222 184
203 222 184
203 223 184
203 223 184
140 160 120
140 160 120
140 161 120
140 161 120
141 162 120
141 162 120
141 163 120
141 163 120
142 164 120
142 164 120
142 165 120
142 165 120
143 166 120
143 166 120
143 167 120
143 167 120
144 168 120
144 168 120
144 169 120
144 169 120
145 170 120
145 170 120
145 171 120
145 171 120
146 172 120
146 172 120
146 173 120
146 173 120
147 174 120
147 174 120
147 175 120
147 175 120
212 240 184
212 240 184
212 241 184
212 241 184
213 242 184
213 242 184
213 243 184
213 243 184
214 244 184
214 244 184
214 245 184
214 245 184
215 246 184
215 246 184
215 247 184
215 247 184
216 248 184
216 248 184
216 249 184
216 249 184
217 250 184
217 250 184
217 251 184
217 251 184
218 252 184
218 252 184
218 253 184
218 253 184
219 254 184
219 254 184
219 255 184
219 255 184
92 64 120
92 64 120
92 65 120
93 65 120
93 66 120
93 66 120
93 67 120
94 67 120
94 68 120
94 68 120
94 69 120
95 69 120
95 70 120
95 70 120
95 71 120
96 71 120
96 72 120
96 72 120
96 73 120
97 73 120
97 74 120
97 74 120
97 75 120
98 75 120
98 76 120
98 76 120
98 77 120
99 77 120
99 78 120
99 78 120
99 79 120
100 79 120
164 144 184
164 144 184
164 145 184
165 145 184
165 146 184
165 146 184
165 147 184
166 147 184
166 148 184
166 148 184
166 149 184
167 149 184
167 150 184
167 150 184
167 151 184
168 151 184
168 152 184
168 152 184
168 153 184
169 153 184
169 154 184
169 154 184
169 155 184
170 155 184
170 156 184
170 156 184
170 157 184
171 157 184
171 158 184
171 158 184
171 159 184
172 159 184
108 96 120
108 96 120
108 97 120
109 97 120
109 98 120
109 98 120
109 99 120
110 99 120
110 100 120
110 100 120
110 101 120
111 101 120
111 102 120
111 102 120
111 103 120
112 103 120
112 104 120
112 104 120
112 105 120
113 105 120
113 106 120
113 106 120
113 107 120
114 107 120
114 108 120
114 108 120
114 109 120
115 109 120
115 110 120
115 110 120
115 111 120
116 111 120
180 176 184
180 176 184
180 177 184
181 177 184
181 178 184
181 178 184
181 179 184
182 179 184
182 180 184
182 180 184
182 181 184
183 181 184
183 182 184
183 182 184
183 183 184
184 183 184
184 184 184
184 184 184
184 185 184
185 185 184
185 186 184
185 186 184
185 187 184
186 187 184
186 188 184
186 188 184
186 189 184
187 189 184
187 190 184
187 190 184
187 191 184
188 191 184
124 128 120
124 128 120
124 129 120
125 129 120
125 130 120
125 130 120
125 131 120
126 131 120
126 132 120
126 132 120
126 133 120
127 133 120
127 134 120
127 134 120
127 135 120
128 135 120
128 136 120
128 136 120
128 137 120
129 137 120
129 138 120
129 138 120
129 139 120
130 139 120
130 140 120
130 140 120
130 141 120
131 141 120
131 142 120
131 142 120
131 143 120
132 143 120
196 208 184
196 208 184
196 209 184
197 209 184
197 210 184
197 210 184
197 211 184
198 211 184
198 212 184
198 212 184
198 213 184
199 213 184
199 214 184
199 214 184
199 215 184
200 215 184
200 216 184
200 216 184
200 217 184
201 217 184
201 218 184
201 218 184
201 219 184
202 219 184
202 220 184
202 220 184
202 221 184
203 221 184
203 222 184
203 222 184
203 223 184
204 223 184
140 160 120
140 160 120
140 161 120
141 161 120
141 162 120
141 162 120
141 163 120
142 163 120
142 164 120
142 164 120
142 165 120
143 165 120
143 166 120
143 166 120
143 167 120
144 167 120
144 168 120
144 168 120
144 169 120
145 169 120
145 170 120
145 170 120
145 171 120
146 171 120
146 172 120
146 172 120
146 173 120
147 173 120
147 174 120
147 174 120
147 175 120
148 175 120
212 240 184
212 240 184
212 241 184
213 241 184
213 242 184
213 242 184
213 243 184
214 243 184
214 244 184
214 244 184
214 245 184
215 245 184
215 246 184
215 246 184
215 247 184
216 247 184
216 248 184
216 248 184
216 249 184
217 249 184
217 250 184
217 250 184
217 251 184
218 251 184
218 252 184
218 252 184
218 253 184
219 253 184
219 254 184
219 254 184
219 255 184
220 255 184
92 64 121
92 64 121
93 65 121
93 65 121
93 66 121
93 66 121
94 67 121
94 67 121
94 68 121
94 68 121
95 69 121
95 69 121
95 70 121
95 70 121
96 71 121
96 71 121
96 72 121
96 72 121
97 73 121
97 73 121
97 74 121
97 74 121
98 75 121
98 75 121
98 76 121
98 76 121
99 77 121
99 77 121
99 78 121
99 78 121
100 79 121
100 79 121
164 144 185
164 144 185
165 145 185
165 145 185
165 146 185
165 146 185
166 147 185
166 147 185
166 148 185
166 148 185
167 149 185
167 149 185
167 150 185
167 150 185
168 151 185
168 151 185
168 152 185
168 152 185
169 153 185
169 153 185
169 154 185
169 154 185
170 155 185
170 155 185
170 156 185
170 156 185
171 157 185
171 157 185
171 158 185
171 158 185
172 159 185
172 159 185
108 96 121
108 96 121
109 97 121
109 97 121
109 98 121
109 98 121
110 99 121
110 99 121
110 100 121
110 100 121
111 101 121
111 101 121
111 102 121
111 102 121
112 103 121
112 103 121
112 104 121
112 104 121
113 105 121
113 105 121
113 106 121
113 106 121
114 107 121
114 107 121
114 108 121
114 108 121
115 109 121
115 109 121
115 110 121
115 110 121
116 111 121
116 111 121
180 176 185
180 176 185
181 177 185
181 177 185
181 178 185
181 178 185
182 179 185
182 179 185
182 180 185
182 180 185
183 181 185
183 181 185
183 182 185
183 182 185
184 183 185
184 183 185
184 184 185
184 184 185
185 185 185
185 185 185
185 186 185
185 186 185
186 187 185
186 187 185
186 188 185
186 188 185
187 189 185
187 189 185
187 190 185
187 190 185
188 191 185
188 191 185
124 128 121
124 128 121
125 129 121
125 129 121
125 130 121
125 130 121
126 131 121
126 131 121
126 132 121
126 132 121
127 133 121
127 133 121
127 134 121
127 134 121
128 135 121
128 135 121
128 136 121
128 136 121
129 137 121
129 137 121
129 138 121
129 138 121
130 139 121
130 139 121
130 140 121
130 140 121
131 141 121
131 141 121
131 142 121
131 142 121
132 143 121
132 143 121
196 208 185
196 208 185
197 209 185
197 209 185
197 210 185
197 210 185
198 211 185
198 211 185
198 212 185
198 212 185
199 213 185
199 213 185
199 214 185
199 214 185
200 215 185
200 215 185
200 216 185
200 216 185
201 217 185
201 217 185
201 218 185
201 218 185
202 219 185
202 219 185
202 220 185
202 220 185
203 221 185
203 221 185
203 222 185
203 222 185
204 223 185
204 223 185
140 160 121
140 160 121
141 161 121
141 161 121
141 162 121
141 162 121
142 163 121
142 163 121
142 164 121
142 164 121
143 165 121
143 165 121
143 166 121
143 166 121
144 167 121
144 167 121
144 168 121
144 168 121
145 169 121
145 169 121
145 170 121
145 170 121
146 171 121
146 171 121
146 172 121
146 172 121
147 173 121
147 173 121
147 174 121
147 174 121
148 175 121
148 175 121
212 240 185
212 240 185
213 241 185
213 241 185
213 242 185
213 242 185
214 243 185
214 243 185
214 244 185
214 244 185
215 245 185
215 245 185
215 246 185
215 246 185
216 247 185
216 247 185
216 248 185
216 248 185
217 249 185
217 249 185
217 250 185
217 250 185
218 251 185
218 251 185
218 252 185
218 252 185
219 253 185
219 253 185
219 254 185
219 254 185
220 255 185
220 255 185
92 64 121
93 64 121
93 65 121
93 65 121
93 66 121
94 66 121
94 67 121
94 67 121
94 68 121
95 68 121
95 69 121
95 69 121
95 70 121
96 70 121
96 71 121
96 71 121
96 72 121
97 72 121
97 73 121
97 73 121
97 74 121
98 74 121
98 75 121
98 75 121
98 76 121
99 76 121
99 77 121
99 77 121
99 78 121
100 78 121
100 79 121
100 79 121
164 144 185
165 144 185
165 145 185
165 145 185
165 146 185
166 146 185
166 147 185
166 147 185
166 148 185
167 148 185
167 149 185
167 149 185
167 150 185
168 150 185
168 151 185
168 151 185
168 152 185
169 152 185
169 153 185
169 153 185
169 154 185
170 154 185
170 155 185
170 155 185
170 156 185
171 156 185
171 157 185
171 157 185
171 158 185
172 158 185
172 159 185
172 159 185
108 96 121
109 96 121
109 97 121
109 97 121
109 98 121
110 98 121
110 99 121
110 99 121
110 100 121
111 100 121
111 101 121
111 101 121
111 102 121
112 102 121
112 103 121
112 103 121
112 104 121
113 104 121
113 105 121
113 105 121
113 106 121
114 106 121
114 107 121
114 107 121
114 108 121
115 108 121
115 109 121
115 109 121
115 110 121
116 110 121
116 111 121
116 111 121
180 176 185
181 176 185
181 177 185
181 177 185
181 178 185
182 178 185
182 179 185
182 179 185
182 180 185
183 180 185
183 181 185
183 181 185
183 182 185
184 182 185
184 183 185
184 183 185
184 184 185
185 184 185
185 185 185
185 185 185
185 186 185
186 186 185
186 187 185
186 187 185
186 188 185
187 188 185
187 189 185
187 189 185
187 190 185
188 190 185
188 191 185
188 191 185
124 128 121
125 128 121
125 129 121
125 129 121
125 130 121
126 130 121
126 131 121
126 131 121
126 132 121
127 132 121
127 133 121
127 133 121
127 134 121
128 134 121
128 135 121
128 135 121
128 136 121
129 136 121
129 137 121
129 137 121
129 138 121
130 138 121
130 139 121
130 139 121
130 140 121
131 140 121
131 141 121
131 141 121
131 142 121
132 142 121
132 143 121
132 143 121
196 208 185
197 208 185
197 209 185
197 209 185
197 210 185
198 210 185
198 211 185
198 211 185
198 212 185
199 212 185
199 213 185
199 213 185
199 214 185
200 214 185
200 215 185
200 215 185
200 216 185
201 216 185
201 217 185
201 217 185
201 218 185
202 218 185
202 219 185
202 219 185
202 220 185
203 220 185
203 221 185
203 221 185
203 222 185
204 222 185
204 223 185
204 223 185
140 160 121
141 160 121
141 161 121
141 161 121
141 162 121
142 162 121
142 163 121
142 163 121
142 164 121
143 164 121
143 165 121
143 165 121
143 166 121
144 166 121
144 167 121
144 167 121
144 168 121
145 168 121
145 169 121
145 169 121
145 170 121
146 170 121
146 171 121
146 171 121
146 172 121
147 172 121
147 173 121
147 173 121
147 174 121
148 174 121
148 175 121
148 175 121
212 240 185
213 240 185
213 241 185
213 241 185
213 242 185
214 242 185
214 243 185
214 243 185
214 244 185
215 244 185
215 245 185
215 245 185
215 246 185
216 246 185
216 247 185
216 247 185
216 248 185
217 248 185
217 249 185
217 249 185
217 250 185
218 250 185
218 251 185
218 251 185
218 252 185
219 252 185
219 253 185
219 253 185
219 254 185
220 254 185
220 255 185
220 255 185
93 64 122
93 64 122
93 65 122
93 65 122
94 66 122
94 66 122
94 67 122
94 67 122
95 68 122
95 68 122
95 69 122
95 69 122
96 70 122
96 70 122
96 71 122
96 71 122
97 72 122
97 72 122
97 73 122
97 73 122
98 74 122
98 74 122
98 75 122
98 75 122
99 76 122
99 76 122
99 77 122
99 77 122
100 78 122
100 78 122
100 79 122
100 79 122
165 144 186
165 144 186
165 145 186
165 145 186
166 146 186
166 146 186
166 147 186
166 147 186
167 148 186
167 148 186
167 149 186
167 149 186
168 150 186
168 150 186
168 151 186
168 151 186
169 152 186
169 152 186
169 153 186
169 153 186
170 154 186
170 154 186
170 155 186
170 155 186
171 156 186
171 156 186
171 157 186
171 157 186
172 158 186
172 158 186
172 159 186
172 159 186
109 96 122
109 96 122
109 97 122
109 97 122
110 98 122
110 98 122
110 99 122
110 99 122
111 100 122
111 100 122
111 101 122
111 101 122
112 102 122
112 102 122
112 103 122
112 103 122
113 104 122
113 104 122
113 105 122
113 105 122
114 106 122
114 106 122
114 107 122
114 107 122
115 108 122
115 108 122
115 109 122
115 109 122
116 110 122
116 110 122
116 111 122
116 111 122
181 176 186
181 176 186
181 177 186
181 177 186
182 178 186
182 178 186
182 179 186
182 179 186
183 180 186
183 180 186
183 181 186
183 181 186
184 182 186
184 182 186
184 183 186
184 183 186
185 184 186
185 184 186
185 185 186
185 185 186
186 186 186
186 186 186
186 187 186
186 187 186
187 188 186
187 188 186
187 189 186
187 189 186
188 190 186
188 190 186
188 191 186
188 191 186
125 128 122
125 128 122
125 129 122
125 129 122
126 130 122
126 130 122
126 131 122
126 131 122
127 132 122
127 132 122
127 133 122
127 133 122
128 134 122
128 134 122
128 135 122
128 135 122
129 136 122
129 136 122
129 137 122
129 137 122
130 138 122
130 138 122
130 139 122
130 139 122
131 140 122
131 140 122
131 141 122
131 141 122
132 142 122
132 142 122
132 143 122
132 143 122
197 208 186
197 208 186
197 209 186
197 209 186
198 210 186
198 210 186
198 211 186
198 211 186
199 212 186
199 212 186
199 213 186
199 213 186
200 214 186
200 214 186
200 215 186
200 215 186
201 216 186
201 216 186
201 217 186
201 217 186
202 218 186
202 218 186
202 219 186
202 219 186
203 220 186
203 220 186
203 221 186
203 221 186
204 222 186
204 222 186
204 223 186
204 223 186
141 160 122
141 160 122
141 161 122
141 161 122
142 162 122
142 162 122
142 163 122
142 163 122
143 164 122
143 164 122
143 165 122
143 165 122
144 166 122
144 166 122
144 167 122
144 167 122
145 168 122
145 168 122
145 169 122
145 169 122
146 170 122
146 170 122
146 171 122
146 171 122
147 172 122
147 172 122
147 173 122
147 173 122
148 174 122
148 174 122
148 175 122
148 175 122
213 240 186
213 240 186
213 241 186
213 241 186
214 242 186
214 242 186
214 243 186
214 243 186
215 244 186
215 244 186
215 245 186
215 245 186
216 246 186
216 246 186
216 247 186
216 247 186
217 248 186
217 248 186
217 249 186
217 249 186
218 250 186
218 250 186
218 251 186
218 251 186
219 252 186
219 252 186
219 253 186
219 253 186
220 254 186
220 254 186
220 255 186
220 255 186
93 64 122
93 64 122
93 65 122
94 65 122
94 66 122
94 66 122
94 67 122
95 67 122
95 68 122
95 68 122
95 69 122
96 69 122
96 70 122
96 70 122
96 71 122
97 71 122
97 72 122
97 72 122
97 73 122
98 73 122
98 74 122
98 74 122
98 75 122
99 75 122
99 76 122
99 76 122
99 77 122
100 77 122
100 78 122
100 78 122
100 79 122
101 79 122
165 144 186
165 144 186
165 145 186
166 145 186
166 146 186
166 146 186
166 147 186
167 147 186
167 148 186
167 148 186
167 149 186
168 149 186
168 150 186
168 150 186
168 151 186
169 151 186
169 152 186
169 152 186
169 153 186
170 153 186
170 154 186
170 154 186
170 155 186
171 155 186
171 156 186
171 156 186
171 157 186
172 157 186
172 158 186
172 158 186
172 159 186
173 159 186
109 96 122
109 96 122
109 97 122
110 97 122
110 98 122
110 98 122
110 99 122
111 99 122
111 100 122
111 100 122
111 101 122
112 101 122
112 102 122
112 102 122
112 103 122
113 103 122
113 104 122
113 104 122
113 105 122
114 105 122
114 106 122
114 106 122
114 107 122
115 107 122
115 108 122
115 108 122
115 109 122
116 109 122
116 110 122
116 110 122
116 111 122
117 111 122
181 176 186
181 176 186
181 177 186
182 177 186
182 178 186
182 178 186
182 179 186
183 179 186
183 180 186
183 180 186
183 181 186
184 181 186
184 182 186
184 182 186
184 183 186
185 183 186
185 184 186
185 184 186
185 185 186
186 185 186
186 186 186
186 186 186
186 187 186
187 187 186
187 188 186
187 188 186
187 189 186
188 189 186
188 190 186
188 190 186
188 191 186
189 191 186
125 128 122
125 128 122
125 129 122
126 129 122
126 130 122
126 130 122
126 131 122
127 131 122
127 132 122
127 132 122
127 133 122
128 133 122
128 134 122
128 134 122
128 135 122
129 135 122
129 136 122
129 136 122
129 137 122
130 137 122
130 138 122
130 138 122
130 139 122
131 139 122
131 140 122
131 140 122
131 141 122
132 141 122
132 142 122
132 142 122
132 143 122
133 143 122
197 208 186
197 208 186
197 209 186
198 209 186
198 210 186
198 210 186
198 211 186
199 211 186
199 212 186
199 212 186
199 213 186
200 213 186
200 214 186
200 214 186
200 215 186
201 215 186
201 216 186
201 216 186
201 217 186
202 217 186
202 218 186
202 218 186
202 219 186
203 219 186
203 220 186
203 220 186
203 221 186
204 221 186
204 222 186
204 222 186
204 223 186
205 223 186
141 160 122
141 160 122
141 161 122
142 161 122
142 162 122
142 162 122
142 163 122
143 163 122
143 164 122
143 164 122
143 165 122
144 165 122
144 166 122
144 166 122
144 167 122
145 167 122
145 168 122
145 168 122
145 169 122
146 169 122
146 170 122
146 170 122
146 171 122
147 171 122
147 172 122
147 172 122
147 173 122
148 173 122
148 174 122
148 174 122
148 175 122
149 175 122
213 240 186
213 240 186
213 241 186
214 241 186
214 242 186
214 242 186
214 243 186
215 243 186
215 244 186
215 244 186
215 245 186
216 245 186
216 246 186
216 246 186
216 247 186
217 247 186
217 248 186
217 248 186
217 249 186
218 249 186
218 250 186
218 250 186
218 251 186
219 251 186
219 252 186
219 252 186
219 253 186
220 253 186
220 254 186
220 254 186
220 255 186
221 255 186
93 64 123
93 64 123
94 65 123
94 65 123
94 66 123
94 66 123
95 67 123
95 67 123
95 68 123
95 68 123
96 69 123
96 69 123
96 70 123
96 70 123
97 71 123
97 71 123
97 72 123
97 72 123
98 73 123
98 73 123
98 74 123
98 74 123
99 75 123
99 75 123
99 76 123
99 76 123
100 77 123
100 77 123
100 78 123
100 78 123
101 79 123
101 79 123
165 144 187
165 144 187
166 145 187
166 145 187
166 146 187
166 146 187
167 147 187
167 147 187
167 148 187
167 148 187
168 149 187
168 149 187
168 150 187
168 150 187
169 151 187
169 151 187
169 152 187
169 152 187
170 153 187
170 153 187
170 154 187
170 154 187
171 155 187
171 155 187
171 156 187
171 156 187
172 157 187
172 157 187
172 158 187
172 158 187
173 159 187
173 159 187
109 96 123
109 96 123
110 97 123
110 97 123
110 98 123
110 98 123
111 99 123
111 99 123
111 100 123
111 100 123
112 101 123
112 101 123
112 102 123
112 102 123
113 103 123
113 103 123
113 104 123
113 104 123
114 105 123
114 105 123
114 106 123
114 106 123
115 107 123
115 107 123
115 108 123
115 108 123
116 109 123
116 109 123
116 110 123
116 110 123
117 111 123
117 111 123
181 176 187
181 176 187
182 177 187
182 177 187
182 178 187
182 178 187
183 179 187
183 179 187
183 180 187
183 180 187
184 181 187
184 181 187
184 182 187
184 182 187
185 183 187
185 183 187
185 184 187
185 184 187
186 185 187
186 185 187
186 186 187
186 186 187
187 187 187
187 187 187
187 188 187
187 188 187
188 189 187
188 189 187
188 190 187
188 190 187
189 191 187
189 191 187
125 128 123
125 128 123
126 129 123
126 129 123
126 130 123
126 130 123
127 131 123
127 131 123
127 132 123
127 132 123
128 133 123
128 133 123
128 134 123
128 134 123
129 135 123
129 135 123
129 136 123
129 136 123
130 137 123
130 137 123
130 138 123
130 138 123
131 139 123
131 139 123
131 140 123
131 140 123
132 141 123
132 141 123
132 142 123
132 142 123
133 143 123
133 143 123
197 208 187
197 208 187
198 209 187
198 209 187
198 210 187
198 210 187
199 211 187
199 211 187
199 212 187
199 212 187
200 213 187
200 213 187
200 214 187
200 214 187
201 215 187
201 215 187
201 216 187
201 216 187
202 217 187
202 217 187
202 218 187
202 218 187
203 219 187
203 219 187
203 220 187
203 220 187
204 221 187
204 221 187
204 222 187
204 222 187
205 223 187
205 223 187
141 160 123
141 160 123
142 161 123
142 161 123
142 162 123
142 162 123
143 163 123
143 163 123
143 164 123
143 164 123
144 165 123
144 165 123
144 166 123
144 166 123
145 167 123
145 167 123
145 168 123
145 168 123
146 169 123
146 169 123
146 170 123
146 170 123
147 171 123
147 171 123
147 172 123
147 172 123
148 173 123
148 173 123
148 174 123
148 174 123
149 175 123
149 175 123
213 240 187
213 240 187
214 241 187
214 241 187
214 242 187
214 242 187
215 243 187
215 243 187
215 244 187
215 244 187
216 245 187
216 245 187
216 246 187
216 246 187
217 247 187
217 247 187
217 248 187
217 248 187
218 249 187
218 249 187
218 250 187
218 250 187
219 251 187
219 251 187
219 252 187
219 252 187
220 253 187
220 253 187
220 254 187
220 254 187
221 255 187
221 255 187
93 64 123
94 64 123
94 65 123
94 65 123
94 66 123
95 66 123
95 67 123
95 67 123
95 68 123
96 68 123
96 69 123
96 69 123
96 70 123
97 70 123
97 71 123
97 71 123
97 72 123
98 72 123
98 73 123
98 73 123
98 74 123
99 74 123
99 75 123
99 75 123
99 76 123
100 76 123
100 77 123
100 77 123
100 78 123
101 78 123
101 79 123
101 79 123
165 144 187
166 144 187
166 145 187
166 145 187
166 146 187
167 146 187
167 147 187
167 147 187
167 148 187
168 148 187
168 149 187
168 149 187
168 150 187
169 150 187
169 151 187
169 151 187
169 152 187
170 152 187
170 153 187
170 153 187
170 154 187
171 154 187
171 155 187
171 155 187
171 156 187
172 156 187
172 157 187
172 157 187
172 158 187
173 158 187
173 159 187
173 159 187
109 96 123
110 96 123
110 97 123
110 97 123
110 98 123
111 98 123
111 99 123
111 99 123
111 100 123
112 100 123
112 101 123
112 101 123
112 102 123
113 102 123
113 103 123
113 103 123
113 104 123
114 104 123
114 105 123
114 105 123
114 106 123
115 106 123
115 107 123
115 107 123
115 108 123
116 108 123
116 109 123
116 109 123
116 110 123
117 110 123
117 111 123
117 111 123
181 176 187
182 176 187
182 177 187
182 177 187
182 178 187
183 178 187
183 179 187
183 179 187
183 180 187
184 180 187
184 181 187
184 181 187
184 182 187
185 182 187
185 183 187
185 183 187
185 184 187
186 184 187
186 185 187
186 185 187
186 186 187
187 186 187
187 187 187
187 187 187
187 188 187
188 188 187
188 189 187
188 189 187
188 190 187
189 190 187
189 191 187
189 191 187
125 128 123
126 128 123
126 129 123
126 129 123
126 130 123
127 130 123
127 131 123
127 131 123
127 132 123
128 132 123
128 133 123
128 133 123
128 134 123
129 134 123
129 135 123
129 135 123
129 136 123
130 136 123
130 137 123
130 137 123
130 138 123
131 138 123
131 139 123
131 139 123
131 140 123
132 140 123
132 141 123
132 141 123
132 142 123
133 142 123
133 143 123
133 143 123
197 208 187
198 208 187
198 209 187
198 209 187
198 210 187
199 210 187
199 211 187
199 211 187
199 212 187
200 212 187
200 213 187
200 213 187
200 214 187
201 214 187
201 215 187
201 215 187
201 216 187
202 216 187
202 217 187
202 217 187
202 218 187
203 218 187
203 219 187
203 219 187
203 220 187
204 220 187
204 221 187
204 221 187
204 222 187
205 222 187
205 223 187
205 223 187
141 160 123
142 160 123
142 161 123
142 161 123
142 162 123
143 162 123
143 163 123
143 163 123
143 164 123
144 164 123
144 165 123
144 165 123
144 166 123
145 166 123
145 167 123
145 167 123
145 168 123
146 168 123
146 169 123
146 169 123
146 170 123
147 170 123
147 171 123
147 171 123
147 172 123
148 172 123
148 173 123
148 173 123
148 174 123
149 174 123
149 175 123
149 175 123
213 240 187
214 240 187
214 241 187
214 241 187
214 242 187
215 242 187
215 243 187
215 243 187
215 244 187
216 244 187
216 245 187
216 245 187
216 246 187
217 246 187
217 247 187
217 247 187
217 248 187
218 248 187
218 249 187
218 249 187
218 250 187
219 250 187
219 251 187
219 251 187
219 252 187
220 252 187
220 253 187
220 253 187
220 254 187
221 254 187
221 255 187
221 255 187
94 64 124
94 64 124
94 65 124
94 65 124
95 66 124
95 66 124
95 67 124
95 67 124
96 68 124
96 68 124
96 69 124
96 69 124
97 70 124
97 70 124
97 71 124
97 71 124
98 72 124
98 72 124
98 73 124
98 73 124
99 74 124
99 74 124
99 75 124
99 75 124
100 76 124
100 76 124
100 77 124
100 77 124
101 78 124
101 78 124
101 79 124
101 79 124
166 144 188
166 144 188
166 145 188
166 145 188
167 146 188
167 146 188
167 147 188
167 147 188
168 148 188
168 148 188
168 149 188
168 149 188
169 150 188
169 150 188
169 151 188
169 151 188
170 152 188
170 152 188
170 153 188
170 153 188
171 154 188
171 154 188
171 155 188
171 155 188
172 156 188
172 156 188
172 157 188
172 157 188
173 158 188
173 158 188
173 159 188
173 159 188
110 96 124
110 96 124
110 97 124
110 97 124
111 98 124
111 98 124
111 99 124
111 99 124
112 100 124
112 100 124
112 101 124
112 101 124
113 102 124
113 102 124
113 103 124
113 103 124
114 104 124
114 104 124
114 105 124
114 105 124
115 106 124
115 106 124
115 107 124
115 107 124
116 108 124
116 108 124
116 109 124
116 109 124
117 110 124
117 110 124
117 111 124
117 111 124
182 176 188
182 176 188
182 177 188
182 177 188
183 178 188
183 178 188
183 179 188
183 179 188
184 180 188
184 180 188
184 181 188
184 181 188
185 182 188
185 182 188
185 183 188
185 183 188
186 184 188
186 184 188
186 185 188
186 185 188
187 186 188
187 186 188
187 187 188
187 187 188
188 188 188
188 188 188
188 189 188
188 189 188
189 190 188
189 190 188
189 191 188
189 191 188
126 128 124
126 128 124
126 129 124
126 129 124
127 130 124
127 130 124
127 131 124
127 131 124
128 132 124
128 132 124
128 133 124
128 133 124
129 134 124
129 134 124
129 135 124
129 135 124
130 136 124
130 136 124
130 137 124
130 137 124
131 138 124
131 138 124
131 139 124
131 139 124
132 140 124
132 140 124
132 141 124
132 141 124
133 142 124
133 142 124
133 143 124
133 143 124
198 208 188
198 208 188
198 209 188
198 209 188
199 210 188
199 210 188
199 211 188
199 211 188
200 212 188
200 212 188
200 213 188
200 213 188
201 214 188
201 214 188
201 215 188
201 215 188
202 216 188
202 216 188
202 217 188
202 217 188
203 218 188
203 218 188
203 219 188
203 219 188
204 220 188
204 220 188
204 221 188
204 221 188
205 222 188
205 222 188
205 223 188
205 223 188
142 160 124
142 160 124
142 161 124
142 161 124
143 162 124
143 162 124
143 163 124
143 163 124
144 164 124
144 164 124
144 165 124
144 165 124
145 166 124
145 166 124
145 167 124
145 167 124
146 168 124
146 168 124
146 169 124
146 169 124
147 170 124
147 170 124
147 171 124
147 171 124
148 172 124
148 172 124
148 173 124
148 173 124
149 174 124
149 174 124
149 175 124
149 175 124
214 240 188
214 240 188
214 241 188
214 241 188
215 242 188
215 242 188
215 243 188
215 243 188
216 244 188
216 244 188
216 245 188
216 245 188
217 246 188
217 246 188
217 247 188
217 247 188
218 248 188
218 248 188
218 249 188
218 249 188
219 250 188
219 250 188
219 251 188
219 251 188
220 252 188
220 252 188
220 253 188
220 253 188
221 254 188
221 254 188
221 255 188
221 255 188
94 64 124
94 64 124
94 65 124
95 65 124
95 66 124
95 66 124
95 67 124
96 67 124
96 68 124
96 68 124
96 69 124
97 69 124
97 70 124
97 70 124
97 71 124
98 71 124
98 72 124
98 72 124
98 73 124
99 73 124
99 74 124
99 74 124
99 75 124
100 75 124
100 76 124
100 76 124
100 77 124
101 77 124
101 78 124
101 78 124
101 79 124
102 79 124
166 144 188
166 144 188
166 145 188
167 145 188
167 146 188
167 146 188
167 147 188
168 147 188
168 148 188
168 148 188
168 149 188
169 149 188
169 150 188
169 150 188
169 151 188
170 151 188
170 152 188
170 152 188
170 153 188
171 153 188
171 154 188
171 154 188
171 155 188
172 155 188
172 156 188
172 156 188
172 157 188
173 157 188
173 158 188
173 158 188
173 159 188
174 159 188
110 96 124
110 96 124
110 97 124
111 97 124
111 98 124
111 98 124
111 99 124
112 99 124
112 100 124
112 100 124
112 101 124
113 101 124
113 102 124
113 102 124
113 103 124
114 103 124
114 104 124
114 104 124
114 105 124
115 105 124
115 106 124
115 106 124
115 107 124
116 107 124
116 108 124
116 108 124
116 109 124
117 109 124
117 110 124
117 110 124
117 111 124
118 111 124
182 176 188
182 176 188
182 177 188
183 177 188
183 178 188
183 178 188
183 179 188
184 179 188
184 180 188
184 180 188
184 181 188
185 181 188
185 182 188
185 182 188
185 183 188
186 183 188
186 184 188
186 184 188
186 185 188
187 185 188
187 186 188
187 186 188
187 187 188
188 187 188
188 188 188
188 188 188
188 189 188
189 189 188
189 190 188
189 190 188
189 191 188
190 191 188
126 128 124
126 128 124
126 129 124
127 129 124
127 130 124
127 130 124
127 131 124
128 131 124
128 132 124
128 132 124
128 133 124
129 133 124
129 134 124
129 134 124
129 135 124
130 135 124
130 136 124
130 136 124
130 137 124
131 137 124
131 138 124
131 138 124
131 139 124
132 139 124
132 140 124
132 140 124
132 141 124
133 141 124
133 142 124
133 142 124
133 143 124
134 143 124
198 208 188
198 208 188
198 209 188
199 209 188
199 210 188
199 210 188
199 211 188
200 211 188
200 212 188
200 212 188
200 213 188
201 213 188
201 214 188
201 214 188
201 215 188
202 215 188
202 216 188
202 216 188
202 217 188
203 217 188
203 218 188
203 218 188
203 219 188
204 219 188
204 220 188
204 220 188
204 221 188
205 221 188
205 222 188
205 222 188
205 223 188
206 223 188
142 160 124
142 160 124
142 161 124
143 161 124
143 162 124
143 162 124
143 163 124
144 163 124
144 164 124
144 164 124
144 165 124
145 165 124
145 166 124
145 166 124
145 167 124
146 167 124
146 168 124
146 168 124
146 169 124
147 169 124
147 170 124
147 170 124
147 171 124
148 171 124
148 172 124
148 172 124
148 173 124
149 173 124
149 174 124
149 174 124
149 175 124
150 175 124
214 240 188
214 240 188
214 241 188
215 241 188
215 242 188
215 242 188
215 243 188
216 243 188
216 244 188
216 244 188
216 245 188
217 245 188
217 246 188
217 246 188
217 247 188
218 247 188
218 248 188
218 248 188
218 249 188
219 249 188
219 250 188
219 250 188
219 251 188
220 251 188
220 252 188
220 252 188
220 253 188
221 253 188
221 254 188
221 254 188
221 255 188
222 255 188
94 64 125
94 64 125
95 65 125
95 65 125
95 66 125
95 66 125
96 67 125
96 67 125
96 68 125
96 68 125
97 69 125
97 69 125
97 70 125
97 70 125
98 71 125
98 71 125
98 72 125
98 72 125
99 73 125
99 73 125
99 74 125
99 74 125
100 75 125
100 75 125
100 76 125
100 76 125
101 77 125
101 77 125
101 78 125
101 78 125
102 79 125
102 79 125
166 144 189
166 144 189
167 145 189
167 145 189
167 146 189
167 146 189
168 147 189
168 147 189
168 148 189
168 148 189
169 149 189
169 149 189
169 150 189
169 150 189
170 151 189
170 151 189
170 152 189
170 152 189
171 153 189
171 153 189
171 154 189
171 154 189
172 155 189
172 155 189
172 156 189
172 156 189
173 157 189
173 157 189
173 158 189
173 158 189
174 159 189
174 159 189
110 96 125
110 96 125
111 97 125
111 97 125
111 98 125
111 98 125
112 99 125
112 99 125
112 100 125
112 100 125
113 101 125
113 101 125
113 102 125
113 102 125
114 103 125
114 103 125
114 104 125
114 104 125
115 105 125
115 105 125
115 106 125
115 106 125
116 107 125
116 107 125
116 108 125
116 108 125
117 109 125
117 109 125
117 110 125
117 110 125
118 111 125
118 111 125
182 176 189
182 176 189
183 177 189
183 177 189
183 178 189
183 178 189
184 179 189
184 179 189
184 180 189
184 180 189
185 181 189
185 181 189
185 182 189
185 182 189
186 183 189
186 183 189
186 184 189
186 184 189
187 185 189
187 185 189
187 186 189
187 186 189
188 187 189
188 187 189
188 188 189
188 188 189
189 189 189
189 189 189
189 190 189
189 190 189
190 191 189
190 191 189
126 128 125
126 128 125
127 129 125
127 129 125
127 130 125
127 130 125
128 131 125
128 131 125
128 132 125
128 132 125
129 133 125
129 133 125
129 134 125
129 134 125
130 135 125
130 135 125
130 136 125
130 136 125
131 137 125
131 137 125
131 138 125
131 138 125
132 139 125
132 139 125
132 140 125
132 140 125
133 141 125
133 141 125
133 142 125
133 142 125
134 143 125
134 143 125
198 208 189
198 208 189
199 209 189
199 209 189
199 210 189
199 210 189
200 211 189
200 211 189
200 212 189
200 212 189
201 213 189
201 213 189
201 214 189
201 214 189
202 215 189
202 215 189
202 216 189
202 216 189
203 217 189
203 217 189
203 218 189
203 218 189
204 219 189
204 219 189
204 220 189
204 220 189
205 221 189
205 221 189
205 222 189
205 222 189
206 223 189
206 223 189
142 160 125
142 160 125
143 161 125
143 161 125
143 162 125
143 162 125
144 163 125
144 163 125
144 164 125
144 164 125
145 165 125
145 165 125
145 166 125
145 166 125
146 167 125
146 167 125
146 168 125
146 168 125
147 169 125
147 169 125
147 170 125
147 170 125
148 171 125
148 171 125
148 172 125
148 172 125
149 173 125
149 173 125
149 174 125
149 174 125
150 175 125
150 175 125
214 240 189
214 240 189
215 241 189
215 241 189
215 242 189
215 242 189
216 243 189
216 243 189
216 244 189
216 244 189
217 245 189
217 245 189
217 246 189
217 246 189
218 247 189
218 247 189
218 248 189
218 248 189
219 249 189
219 249 189
219 250 189
219 250 189
220 251 189
220 251 189
220 252 189
220 252 189
221 253 189
221 253 189
221 254 189
221 254 189
222 255 189
222 255 189
94 64 125
95 64 125
95 65 125
95 65 125
95 66 125
96 66 125
96 67 125
96 67 125
96 68 125
97 68 125
97 69 125
97 69 125
97 70 125
98 70 125
98 71 125
98 71 125
98 72 125
99 72 125
99 73 125
99 73 125
99 74 125
100 74 125
100 75 125
100 75 125
100 76 125
101 76 125
101 77 125
101 77 125
101 78 125
102 78 125
102 79 125
102 79 125
166 144 189
167 144 189
167 145 189
167 145 189
167 146 189
168 146 189
168 147 189
168 147 189
168 148 189
169 148 189
169 149 189
169 149 189
169 150 189
170 150 189
170 151 189
170 151 189
170 152 189
171 152 189
171 153 189
171 153 189
171 154 189
172 154 189
172 155 189
172 155 189
172 156 189
173 156 189
173 157 189
173 157 189
173 158 189
174 158 189
174 159 189
174 159 189
110 96 125
111 96 125
111 97 125
111 97 125
111 98 125
112 98 125
112 99 125
112 99 125
112 100 125
113 100 125
113 101 125
113 101 125
113 102 125
114 102 125
114 103 125
114 103 125
114 104 125
115 104 125
115 105 125
115 105 125
115 106 125
116 106 125
116 107 125
116 107 125
116 108 125
117 108 125
117 109 125
117 109 125
117 110 125
118 110 125
118 111 125
118 111 125
182 176 189
183 176 189
183 177 189
183 177 189
183 178 189
184 178 189
184 179 189
184 179 189
184 180 189
185 180 189
185 181 189
185 181 189
185 182 189
186 182 189
186 183 189
186 183 189
186 184 189
187 184 189
187 185 189
187 185 189
187 186 189
188 186 189
188 187 189
188 187 189
188 188 189
189 188 189
189 189 189
189 189 189
189 190 189
190 190 189
190 191 189
190 191 189
126 128 125
127 128 125
127 129 125
127 129 125
127 130 125
128 130 125
128 131 125
128 131 125
128 132 125
129 132 125
129 133 125
129 133 125
129 134 125
130 134 125
130 135 125
130 135 125
130 136 125
131 136 125
131 137 125
131 137 125
131 138 125
132 138 125
132 139 125
132 139 125
132 140 125
133 140 125
133 141 125
133 141 125
133 142 125
134 142 125
134 143 125
134 143 125
198 208 189
199 208 189
199 209 189
199 209 189
199 210 189
200 210 189
200 211 189
200 211 189
200 212 189
201 212 189
201 213 189
201 213 189
201 214 189
202 214 189
202 215 189
202 215 189
202 216 189
203 216 189
203 217 189
203 217 189
203 218 189
204 218 189
204 219 189
204 219 189
204 220 189
205 220 189
205 221 189
205 221 189
205 222 189
206 222 189
206 223 189
206 223 189
142 160 125
143 160 125
143 161 125
143 161 125
143 162 125
144 162 125
144 163 125
144 163 125
144 164 125
145 164 125
145 165 125
145 165 125
145 166 125
146 166 125
146 167 125
146 167 125
146 168 125
147 168 125
147 169 125
147 169 125
147 170 125
148 170 125
148 171 125
148 171 125
148 172 125
149 172 125
149 173 125
149 173 125
149 174 125
150 174 125
150 175 125
150 175 125
214 240 189
215 240 189
215 241 189
215 241 189
215 242 189
216 242 189
216 243 189
216 243 189
216 244 189
217 244 189
217 245 189
217 245 189
217 246 189
218 246 189
218 247 189
218 247 189
218 248 189
219 248 189
219 249 189
219 249 189
219 250 189
220 250 189
220 251 189
220 251 189
220 252 189
221 252 189
221 253 189
221 253 189
221 254 189
222 254 189
222 255 189
222 255 189
95 64 126
95 64 126
95 65 126
95 65 126
96 66 126
96 66 126
96 67 126
96 67 126
97 68 126
97 68 126
97 69 126
97 69 126
98 70 126
98 70 126
98 71 126
98 71 126
99 72 126
99 72 126
99 73 126
99 73 126
100 74 126
100 74 126
100 75 126
100 75 126
101 76 126
101 76 126
101 77 126
101 77 126
102 78 126
102 78 126
102 79 126
102 79 126
167 144 190
167 144 190
167 145 190
167 145 190
168 146 190
168 146 190
168 147 190
168 147 190
169 148 190
169 148 190
169 149 190
169 149 190
170 150 190
170 150 190
170 151 190
170 151 190
171 152 190
171 152 190
171 153 190
171 153 190
172 154 190
172 154 190
172 155 190
172 155 190
173 156 190
173 156 190
173 157 190
173 157 190
174 158 190
174 158 190
174 159 190
174 159 190
111 96 126
111 96 126
111 97 126
111 97 126
112 98 126
112 98 126
112 99 126
112 99 126
113 100 126
113 100 126
113 101 126
113 101 126
114 102 126
114 102 126
114 103 126
114 103 126
115 104 126
115 104 126
115 105 126
115 105 126
116 106 126
116 106 126
116 107 126
116 107 126
117 108 126
117 108 126
117 109 126
117 109 126
118 110 126
118 110 126
118 111 126
118 111 126
183 176 190
183 176 190
183 177 190
183 177 190
184 178 190
184 178 190
184 179 190
184 179 190
185 180 190
185 180 190
185 181 190
185 181 190
186 182 190
186 182 190
186 183 190
186 183 190
187 184 190
187 184 190
187 185 190
187 185 190
188 186 190
188 186 190
188 187 190
188 187 190
189 188 190
189 188 190
189 189 190
189 189 190
190 190 190
190 190 190
190 191 190
190 191 190
127 128 126
127 128 126
127 129 126
127 129 126
128 130 126
128 130 126
128 131 126
128 131 126
129 132 126
129 132 126
129 133 126
129 133 126
130 134 126
130 134 126
130 135 126
130 135 126
131 136 126
131 136 126
131 137 126
131 137 126
132 138 126
132 138 126
132 139 126
132 139 126
133 140 126
133 140 126
133 141 126
133 141 126
134 142 126
134 142 126
134 143 126
134 143 126
199 208 190
199 208 190
199 209 190
199 209 190
200 210 190
200 210 190
200 211 190
200 211 190
201 212 190
201 212 190
201 213 190
201 213 190
202 214 190
202 214 190
202 215 190
202 215 190
203 216 190
203 216 190
203 217 190
203 217 190
204 218 190
204 218 190
204 219 190
204 219 190
205 220 190
205 220 190
205 221 190
205 221 190
206 222 190
206 222 190
206 223 190
206 223 190
143 160 126
143 160 126
143 161 126
143 161 126
144 162 126
144 162 126
144 163 126
144 163 126
145 164 126
145 164 126
145 165 126
145 165 126
146 166 126
146 166 126
146 167 126
146 167 126
147 168 126
147 168 126
147 169 126
147 169 126
148 170 126
148 170 126
148 171 126
148 171 126
149 172 126
149 172 126
149 173 126
149 173 126
150 174 126
150 174 126
150 175 126
150 175 126
215 240 190
215 240 190
215 241 190
215 241 190
216 242 190
216 242 190
216 243 190
216 243 190
217 244 190
217 244 190
217 245 190
217 245 190
218 246 190
218 246 190
218 247 190
218 247 190
219 248 190
219 248 190
219 249 190
219 249 190
220 250 190
220 250 190
220 251 190
220 251 190
221 252 190
221 252 190
221 253 190
221 253 190
222 254 190
222 254 190
222 255 190
222 255 190
95 64 126
95 64 126
95 65 126
96 65 126
96 66 126
96 66 126
96 67 126
97 67 126
97 68 126
97 68 126
97 69 126
98 69 126
98 70 126
98 70 126
98 71 126
99 71 126
99 72 126
99 72 126
99 73 126
100 73 126
100 74 126
100 74 126
100 75 126
101 75 126
101 76 126
101 76 126
101 77 126
102 77 126
102 78 126
102 78 126
102 79 126
103 79 126
167 144 190
167 144 190
167 145 190
168 145 190
168 146 190
168 146 190
168 147 190
169 147 190
169 148 190
169 148 190
169 149 190
170 149 190
170 150 190
170 150 190
170 151 190
171 151 190
171 152 190
171 152 190
171 153 190
172 153 190
172 154 190
172 154 190
172 155 190
173 155 190
173 156 190
173 156 190
173 157 190
174 157 190
174 158 190
174 158 190
174 159 190
175 159 190
111 96 126
111 96 126
111 97 126
112 97 126
112 98 126
112 98 126
112 99 126
113 99 126
113 100 126
113 100 126
113 101 126
114 101 126
114 102 126
114 102 126
114 103 126
115 103 126
115 104 126
115 104 126
115 105 126
116 105 126
116 106 126
116 106 126
116 107 126
117 107 126
117 108 126
117 108 126
117 109 126
118 109 126
118 110 126
118 110 126
118 111 126
119 111 126
183 176 190
183 176 190
183 177 190
184 177 190
184 178 190
184 178 190
184 179 190
185 179 190
185 180 190
185 180 190
185 181 190
186 181 190
186 182 190
186 182 190
186 183 190
187 183 190
187 184 190
187 184 190
187 185 190
188 185 190
188 186 190
188 186 190
188 187 190
189 187 190
189 188 190
189 188 190
189 189 190
190 189 190
190 190 190
190 190 190
190 191 190
191 191 190
127 128 126
127 128 126
127 129 126
128 129 126
128 130 126
128 130 126
128 131 126
129 131 126
129 132 126
129 132 126
129 133 126
130 133 126
130 134 126
130 134 126
130 135 126
131 135 126
131 136 126
131 136 126
131 137 126
132 137 126
132 138 126
132 138 126
132 139 126
133 139 126
133 140 126
133 140 126
133 141 126
134 141 126
134 142 126
134 142 126
134 143 126
135 143 126
199 208 190
199 208 190
199 209 190
200 209 190
200 210 190
200 210 190
200 211 190
201 211 190
201 212 190
201 212 190
201 213 190
202 213 190
202 214 190
202 214 190
202 215 190
203 215 190
203 216 190
203 216 190
203 217 190
204 217 190
204 218 190
204 218 190
204 219 190
205 219 190
205 220 190
205 220 190
205 221 190
206 221 190
206 222 190
206 222 190
206 223 190
207 223 190
143 160 126
143 160 126
143 161 126
144 161 126
144 162 126
144 162 126
144 163 126
145 163 126
145 164 126
145 164 126
145 165 126
146 165 126
146 166 126
146 166 126
146 167 126
147 167 126
147 168 126
147 168 126
147 169 126
148 169 126
148 170 126
148 170 126
148 171 126
149 171 126
149 172 126
149 172 126
149 173 126
150 173 126
150 174 126
150 174 126
150 175 126
151 175 126
215 240 190
215 240 190
215 241 190
216 241 190
216 242 190
216 242 190
216 243 190
217 243 190
217 244 190
217 244 190
217 245 190
218 245 190
218 246 190
218 246 190
218 247 190
219 247 190
219 248 190
219 248 190
219 249 190
220 249 190
220 250 190
220 250 190
220 251 190
221 251 190
221 252 190
221 252 190
221 253 190
222 253 190
222 254 190
222 254 190
222 255 190
223 255 190
95 64 127
95 64 127
96 65 127
96 65 127
96 66 127
96 66 127
97 67 127
97 67 127
97 68 127
97 68 127
98 69 127
98 69 127
98 70 127
98 70 127
99 71 127
99 71 127
99 72 127
99 72 127
100 73 127
100 73 127
100 74 127
100 74 127
101 75 127
101 75 127
101 76 127
101 76 127
102 77 127
102 77 127
102 78 127
102 78 127
103 79 127
103 79 127
167 144 191
167 144 191
168 145 191
168 145 191
168 146 191
168 146 191
169 147 191
169 147 191
169 148 191
169 148 191
170 149 191
170 149 191
170 150 191
170 150 191
171 151 191
171 151 191
171 152 191
171 152 191
172 153 191
172 153 191
172 154 191
172 154 191
173 155 191
173 155 191
173 156 191
173 156 191
174 157 191
174 157 191
174 158 191
174 158 191
175 159 191
175 159 191
111 96 127
111 96 127
112 97 127
112 97 127
112 98 127
112 98 127
113 99 127
113 99 127
113 100 127
113 100 127
114 101 127
114 101 127
114 102 127
114 102 127
115 103 127
115 103 127
115 104 127
115 104 127
116 105 127
116 105 127
116 106 127
116 106 127
117 107 127
117 107 127
117 108 127
117 108 127
118 109 127
118 109 127
118 110 127
118 110 127
119 111 127
119 111 127
183 176 191
183 176 191
184 177 191
184 177 191
184 178 191
184 178 191
185 179 191
185 179 191
185 180 191
185 180 191
186 181 191
186 181 191
186 182 191
186 182 191
187 183 191
187 183 191
187 184 191
187 184 191
188 185 191
188 185 191
188 186 191
188 186 191
189 187 191
189 187 191
189 188 191
189 188 191
190 189 191
190 189 191
190 190 191
190 190 191
191 191 191
191 191 191
127 128 127
127 128 127
128 129 127
128 129 127
128 130 127
128 130 127
129 131 127
129 131 127
129 132 127
129 132 127
130 133 127
130 133 127
130 134 127
130 134 127
131 135 127
131 135 127
131 136 127
131 136 127
132 137 127
132 137 127
132 138 127
132 138 127
133 139 127
133 139 127
133 140 127
133 140 127
134 141 127
134 141 127
134 142 127
134 142 127
135 143 127
135 143 127
199 208 191
199 208 191
200 209 191
200 209 191
200 210 191
200 210 191
201 211 191
201 211 191
201 212 191
201 212 191
202 213 191
202 213 191
202 214 191
202 214 191
203 215 191
203 215 191
203 216 191
203 216 191
204 217 191
204 217 191
204 218 191
204 218 191
205 219 191
205 219 191
205 220 191
205 220 191
206 221 191
206 221 191
206 222 191
206 222 191
207 223 191
207 223 191
143 160 127
143 160 127
144 161 127
144 161 127
144 162 127
144 162 127
145 163 127
145 163 127
145 164 127
145 164 127
146 165 127
146 165 127
146 166 127
146 166 127
147 167 127
147 167 127
147 168 127
147 168 127
148 169 127
148 169 127
148 170 127
148 170 127
149 171 127
149 171 127
149 172 127
149 172 127
150 173 127
150 173 127
150 174 127
150 174 127
151 175 127
151 175 127
215 240 191
215 240 191
216 241 191
216 241 191
216 242 191
216 242 191
217 243 191
217 243 191
217 244 191
217 244 191
218 245 191
218 245 191
218 246 191
218 246 191
219 247 191
219 247 191
219 248 191
219 248 191
220 249 191
220 249 191
220 250 191
220 250 191
221 251 191
221 251 191
221 252 191
221 252 191
222 253 191
222 253 191
222 254 191
222 254 191
223 255 191
223 255 191
95 64 127
96 64 127
96 65 127
96 65 127
96 66 127
97 66 127
97 67 127
97 67 127
97 68 127
98 68 127
98 69 127
98 69 127
98 70 127
99 70 127
99 71 127
99 71 127
99 72 127
100 72 127
100 73 127
100 73 127
100 74 127
101 74 127
101 75 127
101 75 127
101 76 127
102 76 127
102 77 127
102 77 127
102 78 127
103 78 127
103 79 127
103 79 127
167 144 191
168 144 191
168 145 191
168 145 191
168 146 191
169 146 191
169 147 191
169 147 191
169 148 191
170 148 191
170 149 191
170 149 191
170 150 191
171 150 191
171 151 191
171 151 191
171 152 191
172 152 191
172 153 191
172 153 191
172 154 191
173 154 191
173 155 191
173 155 191
173 156 191
174 156 191
174 157 191
174 157 191
174 158 191
175 158 191
175 159 191
175 159 191
111 96 127
112 96 127
112 97 127
112 97 127
112 98 127
113 98 127
113 99 127
113 99 127
113 100 127
114 100 127
114 101 127
114 101 127
114 102 127
115 102 127
115 103 127
115 103 127
115 104 127
116 104 127
116 105 127
116 105 127
116 106 127
117 106 127
117 107 127
117 107 127
117 108 127
118 108 127
118 109 127
118 109 127
118 110 127
119 110 127
119 111 127
119 111 127
183 176 191
184 176 191
184 177 191
184 177 191
184 178 191
185 178 191
185 179 191
185 179 191
185 180 191
186 180 191
186 181 191
186 181 191
186 182 191
187 182 191
187 183 191
187 183 191
187 184 191
188 184 191
188 185 191
188 185 191
188 186 191
189 186 191
189 187 191
189 187 191
189 188 191
190 188 191
190 189 191
190 189 191
190 190 191
191 190 191
191 191 191
191 191 191
127 128 127
128 128 127
128 129 127
128 129 127
128 130 127
129 130 127
129 131 127
129 131 127
129 132 127
130 132 127
130 133 127
130 133 127
130 134 127
131 134 127
131 135 127
131 135 127
131 136 127
132 136 127
132 137 127
132 137 127
132 138 127
133 138 127
133 139 127
133 139 127
133 140 127
134 140 127
134 141 127
134 141 127
134 142 127
135 142 127
135 143 127
135 143 127
199 208 191
200 208 191
200 209 191
200 209 191
200 210 191
201 210 191
201 211 191
201 211 191
201 212 191
202 212 191
202 213 191
202 213 191
202 214 191
203 214 191
203 215 191
203 215 191
203 216 191
204 216 191
204 217 191
204 217 191
204 218 191
205 218 191
205 219 191
205 219 191
205 220 191
206 220 191
206 221 191
206 221 191
206 222 191
207 222 191
207 223 191
207 223 191
143 160 127
144 160 127
144 161 127
144 161 127
144 162 127
145 162 127
145 163 127
145 163 127
145 164 127
146 164 127
146 165 127
146 165 127
146 166 127
147 166 127
147 167 127
147 167 127
147 168 127
148 168 127
148 169 127
148 169 127
148 170 127
149 170 127
149 171 127
149 171 127
149 172 127
150 172 127
150 173 127
150 173 127
150 174 127
151 174 127
151 175 127
151 175 127
215 240 191
216 240 191
216 241 191
216 241 191
216 242 191
217 242 191
217 243 191
217 243 191
217 244 191
218 244 191
218 245 191
218 245 191
218 246 191
219 246 191
219 247 191
219 247 191
219 248 191
220 248 191
220 249 191
220 249 191
220 250 191
221 250 191
221 251 191
221 251 191
221 252 191
222 252 191
222 253 191
222 253 191
222 254 191
223 254 191
223 255 191
223 255 191
160 128 192
160 128 192
160 129 192
160 129 192
161 130 192
161 130 192
161 131 192
161 131 192
162 132 192
162 132 192
162 133 192
162 133 192
163 134 192
163 134 192
163 135 192
163 135 192
164 136 192
164 136 192
164 137 192
164 137 192
165 138 192
165 138 192
165 139 192
165 139 192
166 140 192
166 140 192
166 141 192
166 141 192
167 142 192
167 142 192
167 143 192
167 143 192
104 80 128
104 80 128
104 81 128
104 81 128
105 82 128
105 82 128
105 83 128
105 83 128
106 84 128
106 84 128
106 85 128
106 85 128
107 86 128
107 86 128
107 87 128
107 87 128
108 88 128
108 88 128
108 89 128
108 89 128
109 90 128
109 90 128
109 91 128
109 91 128
110 92 128
110 92 128
110 93 128
110 93 128
111 94 128
111 94 128
111 95 128
111 95 128
176 160 192
176 160 192
176 161 192
176 161 192
177 162 192
177 162 192
177 163 192
177 163 192
178 164 192
178 164 192
178 165 192
178 165 192
179 166 192
179 166 192
179 167 192
179 167 192
180 168 192
180 168 192
180 169 192
180 169 192
181 170 192
181 170 192
181 171 192
181 171 192
182 172 192
182 172 192
182 173 192
182 173 192
183 174 192
183 174 192
183 175 192
183 175 192
120 112 128
120 112 128
120 113 128
120 113 128
121 114 128
121 114 128
121 115 128
121 115 128
122 116 128
122 116 128
122 117 128
122 117 128
123 118 128
123 118 128
123 119 128
123 119 128
124 120 128
124 120 128
124 121 128
124 121 128
125 122 128
125 122 128
125 123 128
125 123 128
126 124 128
126 124 128
126 125 128
126 125 128
127 126 128
127 126 128
127 127 128
127 127 128
192 192 192
192 192 192
192 193 192
192 193 192
193 194 192
193 194 192
193 195 192
193 195 192
194 196 192
194 196 192
194 197 192
194 197 192
195 198 192
195 198 192
195 199 192
195 199 192
196 200 192
196 200 192
196 201 192
196 201 192
197 202 192
197 202 192
197 203 192
197 203 192
198 204 192
198 204 192
198 205 192
198 205 192
199 206 192
199 206 192
199 207 192
199 207 192
136 144 128
136 144 128
136 145 128
136 145 128
137 146 128
137 146 128
137 147 128
137 147 128
138 148 128
138 148 128
138 149 128
138 149 128
139 150 128
139 150 128
139 151 128
139 151 128
140 152 128
140 152 128
140 153 128
140 153 128
141 154 128
141 154 128
141 155 128
141 155 128
142 156 128
142 156 128
142 157 128
142 157 128
143 158 128
143 158 128
143 159 128
143 159 128
208 224 192
208 224 192
208 225 192
208 225 192
209 226 192
209 226 192
209 227 192
209 227 192
210 228 192
210 228 192
210 229 192
210 229 192
211 230 192
211 230 192
211 231 192
211 231 192
212 232 192
212 232 192
212 233 192
212 233 192
213 234 192
213 234 192
213 235 192
213 235 192
214 236 192
214 236 192
214 237 192
214 237 192
215 238 192
215 238 192
215 239 192
215 239 192
152 176 128
152 176 128
152 177 128
152 177 128
153 178 128
153 178 128
153 179 128
153 179 128
154 180 128
154 180 128
154 181 128
154 181 128
155 182 128
155 182 128
155 183 128
155 183 128
156 184 128
156 184 128
156 185 128
156 185 128
157 186 128
157 186 128
157 187 128
157 187 128
158 188 128
158 188 128
158 189 128
158 189 128
159 190 128
159 190 128
159 191 128
159 191 128
160 128 192
160 128 192
160 129 192
161 129 192
161 130 192
161 130 192
161 131 192
162 131 192
162 132 192
162 132 192
162 133 192
163 133 192
163 134 192
163 134 192
163 135 192
164 135 192
164 136 192
164 136 192
164 137 192
165 137 192
165 138 192
165 138 192
165 139 192
166 139 192
166 140 192
166 140 192
166 141 192
167 141 192
167 142 192
167 142 192
167 143 192
168 143 192
104 80 128
104 80 128
104 81 128
105 81 128
105 82 128
105 82 128
105 83 128
106 83 128
106 84 128
106 84 128
106 85 128
107 85 128
107 86 128
107 86 128
107 87 128
108 87 128
108 88 128
108 88 128
108 89 128
109 89 128
109 90 128
109 90 128
109 91 128
110 91 128
110 92 128
110 92 128
110 93 128
111 93 128
111 94 128
111 94 128
111 95 128
112 95 128
176 160 192
176 160 192
176 161 192
177 161 192
177 162 192
177 162 192
177 163 192
178 163 192
178 164 192
178 164 192
178 165 192
179 165 192
179 166 192
179 166 192
179 167 192
180 167 192
180 168 192
180 168 192
180 169 192
181 169 192
181 170 192
181 170 192
181 171 192
182 171 192
182 172 192
182 172 192
182 173 192
183 173 192
183 174 192
183 174 192
183 175 192
184 175 192
120 112 128
120 112 128
120 113 128
121 113 128
121 114 128
121 114 128
121 115 128
122 115 128
122 116 128
122 116 128
122 117 128
123 117 128
123 118 128
123 118 128
123 119 128
124 119 128
124 120 128
124 120 128
124 121 128
125 121 128
125 122 128
125 122 128
125 123 128
126 123 128
126 124 128
126 124 128
126 125 128
127 125 128
127 126 128
127 126 128
127 127 128
128 127 128
192 192 192
192 192 192
192 193 192
193 193 192
193 194 192
193 194 192
193 195 192
194 195 192
194 196 192
194 196 192
194 197 192
195 197 192
195 198 192
195 198 192
195 199 192
196 199 192
196 200 192
196 200 192
196 201 192
197 201 192
197 202 192
197 202 192
197 203 192
198 203 192
198 204 192
198 204 192
198 205 192
199 205 192
199 206 192
199 206 192
199 207 192
200 207 192
136 144 128
136 144 128
136 145 128
137 145 128
137 146 128
137 146 128
137 147 128
138 147 128
138 148 128
138 148 128
138 149 128
139 149 128
139 150 128
139 150 128
139 151 128
140 151 128
140 152 128
140 152 128
140 153 128
141 153 128
141 154 128
141 154 128
141 155 128
142 155 128
142 156 128
142 156 128
142 157 128
143 157 128
143 158 128
143 158 128
143 159 128
144 159 128
208 224 192
208 224 192
208 225 192
209 225 192
209 226 192
209 226 192
209 227 192
210 227 192
210 228 192
210 228 192
210 229 192
211 229 192
211 230 192
211 230 192
211 231 192
212 231 192
212 232 192
212 232 192
212 233 192
213 233 192
213 234 192
213 234 192
213 235 192
214 235 192
214 236 192
214 236 192
214 237 192
215 237 192
215 238 192
215 238 192
215 239 192
216 239 192
152 176 128
152 176 128
152 177 128
153 177 128
153 178 128
153 178 128
153 179 128
154 179 128
154 180 128
154 180 128
154 181 128
155 181 128
155 182 128
155 182 128
155 183 128
156 183 128
156 184 128
156 184 128
156 185 128
157 185 128
157 186 128
157 186 128
157 187 128
158 187 128
158 188 128
158 188 128
158 189 128
159 189 128
159 190 128
159 190 128
159 191 128
160 191 128
160 128 193
160 128 193
161 129 193
161 129 193
161 130 193
161 130 193
162 131 193
162 131 193
162 132 193
162 132 193
163 133 193
163 133 193
163 134 193
163 134 193
164 135 193
164 135 193
164 136 193
164 136 193
165 137 193
165 137 193
165 138 193
165 138 193
166 139 193
166 139 193
166 140 193
166 140 193
167 141 193
167 141 193
167 142 193
167 142 193
168 143 193
168 143 193
104 80 129
104 80 129
105 81 129
105 81 129
105 82 129
105 82 129
106 83 129
106 83 129
106 84 129
106 84 129
107 85 129
107 85 129
107 86 129
107 86 129
108 87 129
108 87 129
108 88 129
108 88 129
109 89 129
109 89 129
109 90 129
109 90 129
110 91 129
110 91 129
110 92 129
110 92 129
111 93 129
111 93 129
111 94 129
111 94 129
112 95 129
112 95 129
176 160 193
176 160 193
177 161 193
177 161 193
177 162 193
177 162 193
178 163 193
178 163 193
178 164 193
178 164 193
179 165 193
179 165 193
179 166 193
179 166 193
180 167 193
180 167 193
180 168 193
180 168 193
181 169 193
181 169 193
181 170 193
181 170 193
182 171 193
182 171 193
182 172 193
182 172 193
183 173 193
183 173 193
183 174 193
183 174 193
184 175 193
184 175 193
120 112 129
120 112 129
121 113 129
121 113 129
121 114 129
121 114 129
122 115 129
122 115 129
122 116 129
122 116 129
123 117 129
123 117 129
123 118 129
123 118 129
124 119 129
124 119 129
124 120 129
124 120 129
125 121 129
125 121 129
125 122 129
125 122 129
126 123 129
126 123 129
126 124 129
126 124 129
127 125 129
127 125 129
127 126 129
127 126 129
128 127 129
128 127 129
192 192 193
192 192 193
193 193 193
193 193 193
193 194 193
193 194 193
194 195 193
194 195 193
194 196 193
194 196 193
195 197 193
195 197 193
195 198 193
195 198 193
196 199 193
196 199 193
196 200 193
196 200 193
197 201 193
197 201 193
197 202 193
197 202 193
198 203 193
198 203 193
198 204 193
198 204 193
199 205 193
199 205 193
199 206 193
199 206 193
200 207 193
200 207 193
136 144 129
136 144 129
137 145 129
137 145 129
137 146 129
137 146 129
138 147 129
138 147 129
138 148 129
138 148 129
139 149 129
139 149 129
139 150 129
139 150 129
140 151 129
140 151 129
140 152 129
140 152 129
141 153 129
141 153 129
141 154 129
141 154 129
142 155 129
142 155 129
142 156 129
142 156 129
143 157 129
143 157 129
143 158 129
143 158 129
144 159 129
144 159 129
208 224 193
208 224 193
209 225 193
209 225 193
209 226 193
209 226 193
210 227 193
210 227 193
210 228 193
210 228 193
211 229 193
211 229 193
211 230 193
211 230 193
212 231 193
212 231 193
212 232 193
212 232 193
213 233 193
213 233 193
213 234 193
213 234 193
214 235 193
214 235 193
214 236 193
214 236 193
215 237 193
215 237 193
215 238 193
215 238 193
216 239 193
216 239 193
152 176 129
152 176 129
153 177 129
153 177 129
153 178 129
153 178 129
154 179 129
154 179 129
154 180 129
154 180 129
155 181 129
155 181 129
155 182 129
155 182 129
156 183 129
156 183 129
156 184 129
156 184 129
157 185 129
157 185 129
157 186 129
157 186 129
158 187 129
158 187 129
158 188 129
158 188 129
159 189 129
159 189 129
159 190 129
159 190 129
160 191 129
160 191 129
160 128 193
161 128 193
161 129 193
161 129 193
161 130 193
162 130 193
162 131 193
162 131 193
162 132 193
163 132 193
163 133 193
163 133 193
163 134 193
164 134 193
164 135 193
164 135 193
164 136 193
165 136 193
165 137 193
165 137 193
165 138 193
166 138 193
166 139 193
166 139 193
166 140 193
167 140 193
167 141 193
167 141 193
167 142 193
168 142 193
168 143 193
168 143 193
104 80 129
105 80 129
105 81 129
105 81 129
105 82 129
106 82 129
106 83 129
106 83 129
106 84 129
107 84 129
107 85 129
107 85 129
107 86 129
108 86 129
108 87 129
108 87 129
108 88 129
109 88 129
109 89 129
109 89 129
109 90 129
110 90 129
110 91 129
110 91 129
110 92 129
111 92 129
111 93 129
111 93 129
111 94 129
112 94 129
112 95 129
112 95 129
176 160 193
177 160 193
177 161 193
177 161 193
177 162 193
178 162 193
178 163 193
178 163 193
178 164 193
179 164 193
179 165 193
179 165 193
179 166 193
180 166 193
180 167 193
180 167 193
180 168 193
181 168 193
181 169 193
181 169 193
181 170 193
182 170 193
182 171 193
182 171 193
182 172 193
183 172 193
183 173 193
183 173 193
183 174 193
184 174 193
184 175 193
184 175 193
120 112 129
121 112 129
121 113 129
121 113 129
121 114 129
122 114 129
122 115 129
122 115 129
122 116 129
123 116 129
123 117 129
123 117 129
123 118 129
124 118 129
124 119 129
124 119 129
124 120 129
125 120 129
125 121 129
125 121 129
125 122 129
126 122 129
126 123 129
126 123 129
126 124 129
127 124 129
127 125 129
127 125 129
127 126 129
128 126 129
128 127 129
128 127 129
192 192 193
193 192 193
193 193 193
193 193 193
193 194 193
194 194 193
194 195 193
194 195 193
194 196 193
195 196 193
195 197 193
195 197 193
195 198 193
196 198 193
196 199 193
196 199 193
196 200 193
197 200 193
197 201 193
197 201 193
197 202 193
198 202 193
198 203 193
198 203 193
198 204 193
199 204 193
199 205 193
199 205 193
199 206 193
200 206 193
200 207 193
200 207 193
136 144 129
137 144 129
137 145 129
137 145 129
137 146 129
138 146 129
138 147 129
138 147 129
138 148 129
139 148 129
139 149 129
139 149 129
139 150 129
140 150 129
140 151 129
140 151 129
140 152 129
141 152 129
141 153 129
141 153 129
141 154 129
142 154 129
142 155 129
142 155 129
142 156 129
143 156 129
143 157 129
143 157 129
143 158 129
144 158 129
144 159 129
144 159 129
208 224 193
209 224 193
209 225 193
209 225 193
209 226 193
210 226 193
210 227 193
210 227 193
210 228 193
211 228 193
211 229 193
211 229 193
211 230 193
212 230 193
212 231 193
212 231 193
212 232 193
213 232 193
213 233 193
213 233 193
213 234 193
214 234 193
214 235 193
214 235 193
214 236 193
215 236 193
215 237 193
215 237 193
215 238 193
216 238 193
216 239 193
216 239 193
152 176 129
153 176 129
153 177 129
153 177 129
153 178 129
154 178 129
154 179 129
154 179 129
154 180 129
155 180 129
155 181 129
155 181 129
155 182 129
156 182 129
156 183 129
156 183 129
156 184 129
157 184 129
157 185 129
157 185 129
157 186 129
158 186 129
158 187 129
158 187 129
158 188 129
159 188 129
159 189 129
159 189 129
159 190 129
160 190 129
160 191 129
160 191 129
161 128 194
161 128 194
161 129 194
161 129 194
162 130 194
162 130 194
162 131 194
162 131 194
163 132 194
163 132 194
163 133 194
163 133 194
164 134 194
164 134 194
164 135 194
164 135 194
165 136 194
165 136 194
165 137 194
165 137 194
166 138 194
166 138 194
166 139 194
166 139 194
167 140 194
167 140 194
167 141 194
167 141 194
168 142 194
168 142 194
168 143 194
168 143 194
105 80 130
105 80 130
105 81 130
105 81 130
106 82 130
106 82 130
106 83 130
106 83 130
107 84 130
107 84 130
107 85 130
107 85 130
108 86 130
108 86 130
108 87 130
108 87 130
109 88 130
109 88 130
109 89 130
109 89 130
110 90 130
110 90 130
110 91 130
110 91 130
111 92 130
111 92 130
111 93 130
111 93 130
112 94 130
112 94 130
112 95 130
112 95 130
177 160 194
177 160 194
177 161 194
177 161 194
178 162 194
178 162 194
178 163 194
178 163 194
179 164 194
179 164 194
179 165 194
179 165 194
180 166 194
180 166 194
180 167 194
180 167 194
181 168 194
181 168 194
181 169 194
181 169 194
182 170 194
182 170 194
182 171 194
182 171 194
183 172 194
183 172 194
183 173 194
183 173 194
184 174 194
184 174 194
184 175 194
184 175 194
121 112 130
121 112 130
121 113 130
121 113 130
122 114 130
122 114 130
122 115 130
122 115 130
123 116 130
123 116 130
123 117 130
123 117 130
124 118 130
124 118 130
124 119 130
124 119 130
125 120 130
125 120 130
125 121 130
125 121 130
126 122 130
126 122 130
126 123 130
126 123 130
127 124 130
127 124 130
127 125 130
127 125 130
128 126 130
128 126 130
128 127 130
128 127 130
193 192 194
193 192 194
193 193 194
193 193 194
194 194 194
194 194 194
194 195 194
194 195 194
195 196 194
195 196 194
195 197 194
195 197 194
196 198 194
196 198 194
196 199 194
196 199 194
197 200 194
197 200 194
197 201 194
197 201 194
198 202 194
198 202 194
198 203 194
198 203 194
199 204 194
199 204 194
199 205 194
199 205 194
200 206 194
200 206 194
200 207 194
200 207 194
137 144 130
137 144 130
137 145 130
137 145 130
138 146 130
138 146 130
138 147 130
138 147 130
139 148 130
139 148 130
139 149 130
139 149 130
140 150 130
140 150 130
140 151 130
140 151 130
141 152 130
141 152 130
141 153 130
141 153 130
142 154 130
142 154 130
142 155 130
142 155 130
143 156 130
143 156 130
143 157 130
143 157 130
144 158 130
144 158 130
144 159 130
144 159 130
209 224 194
209 224 194
209 225 194
209 225 194
210 226 194
210 226 194
210 227 194
210 227 194
211 228 194
211 228 194
211 229 194
211 229 194
212 230 194
212 230 194
212 231 194
212 231 194
213 232 194
213 232 194
213 233 194
213 233 194
214 234 194
214 234 194
214 235 194
214 235 194
215 236 194
215 236 194
215 237 194
215 237 194
216 238 194
216 238 194
216 239 194
216 239 194
153 176 130
153 176 130
153 177 130
153 177 130
154 178 130
154 178 130
154 179 130
154 179 130
155 180 130
155 180 130
155 181 130
155 181 130
156 182 130
156 182 130
156 183 130
156 183 130
157 184 130
157 184 130
157 185 130
157 185 130
158 186 130
158 186 130
158 187 130
158 187 130
159 188 130
159 188 130
159 189 130
159 189 130
160 190 130
160 190 130
160 191 130
160 191 130
161 128 194
161 128 194
161 129 194
162 129 194
162 130 194
162 130 194
162 131 194
163 131 194
163 132 194
163 132 194
163 133 194
164 133 194
164 134 194
164 134 194
164 135 194
165 135 194
165 136 194
165 136 194
165 137 194
166 137 194
166 138 194
166 138 194
166 139 194
167 139 194
167 140 194
167 140 194
167 141 194
168 141 194
168 142 194
168 142 194
168 143 194
169 143 194
105 80 130
105 80 130
105 81 130
106 81 130
106 82 130
106 82 130
106 83 130
107 83 130
107 84 130
107 84 130
107 85 130
108 85 130
108 86 130
108 86 130
108 87 130
109 87 130
109 88 130
109 88 130
109 89 130
110 89 130
110 90 130
110 90 130
110 91 130
111 91 130
111 92 130
111 92 130
111 93 130
112 93 130
112 94 130
112 94 130
112 95 130
113 95 130
177 160 194
177 160 194
177 161 194
178 161 194
178 162 194
178 162 194
178 163 194
179 163 194
179 164 194
179 164 194
179 165 194
180 165 194
180 166 194
180 166 194
180 167 194
181 167 194
181 168 194
181 168 194
181 169 194
182 169 194
182 170 194
182 170 194
182 171 194
183 171 194
183 172 194
183 172 194
183 173 194
184 173 194
184 174 194
184 174 194
184 175 194
185 175 194
121 112 130
121 112 130
121 113 130
122 113 130
122 114 130
122 114 130
122 115 130
123 115 130
123 116 130
123 116 130
123 117 130
124 117 130
124 118 130
124 118 130
124 119 130
125 119 130
125 120 130
125 120 130
125 121 130
126 121 130
126 122 130
126 122 130
126 123 130
127 123 130
127 124 130
127 124 130
127 125 130
128 125 130
128 126 130
128 126 130
128 127 130
129 127 130
193 192 194
193 192 194
193 193 194
194 193 194
194 194 194
194 194 194
194 195 194
195 195 194
195 196 194
195 196 194
195 197 194
196 197 194
196 198 194
196 198 194
196 199 194
197 199 194
197 200 194
197 200 194
197 201 194
198 201 194
198 202 194
198 202 194
198 203 194
199 203 194
199 204 194
199 204 194
199 205 194
200 205 194
200 206 194
200 206 194
200 207 194
201 207 194
137 144 130
137 144 130
137 145 130
138 145 130
138 146 130
138 146 130
138 147 130
139 147 130
139 148 130
139 148 130
139 149 130
140 149 130
140 150 130
140 150 130
140 151 130
141 151 130
141 152 130
141 152 130
141 153 130
142 153 130
142 154 130
142 154 130
142 155 130
143 155 130
143 156 130
143 156 130
143 157 130
144 157 130
144 158 130
144 158 130
144 159 130
145 159 130
209 224 194
209 224 194
209 225 194
210 225 194
210 226 194
210 226 194
210 227 194
211 227 194
211 228 194
211 228 194
211 229 194
212 229 194
212 230 194
212 230 194
212 231 194
213 231 194
213 232 194
213 232 194
213 233 194
214 233 194
214 234 194
214 234 194
214 235 194
215 235 194
215 236 194
215 236 194
215 237 194
216 237 194
216 238 194
216 238 194
216 239 194
217 239 194
153 176 130
153 176 130
153 177 130
154 177 130
154 178 130
154 178 130
154 179 130
155 179 130
155 180 130
155 180 130
155 181 130
156 181 130
156 182 130
156 182 130
156 183 130
157 183 130
157 184 130
157 184 130
157 185 130
158 185 130
158 186 130
158 186 130
158 187 130
159 187 130
159 188 130
159 188 130
159 189 130
160 189 130
160 190 130
160 190 130
160 191 130
161 191 130
161 128 195
161 128 195
162 129 195
162 129 195
162 130 195
162 130 195
163 131 195
163 131 195
163 132 195
163 132 195
164 133 195
164 133 195
164 134 195
164 134 195
165 135 195
165 135 195
165 136 195
165 136 195
166 137 195
166 137 195
166 138 195
166 138 195
167 139 195
167 139 195
167 140 195
167 140 195
168 141 195
168 141 195
168 142 195
168 142 195
169 143 195
169 143 195
105 80 131
105 80 131
106 81 131
106 81 131
106 82 131
106 82 131
107 83 131
107 83 131
107 84 131
107 84 131
108 85 131
108 85 131
108 86 131
108 86 131
109 87 131
109 87 131
109 88 131
109 88 131
110 89 131
110 89 131
110 90 131
110 90 131
111 91 131
111 91 131
111 92 131
111 92 131
112 93 131
112 93 131
112 94 131
112 94 131
113 95 131
113 95 131
177 160 195
177 160 195
178 161 195
178 161 195
178 162 195
178 162 195
179 163 195
179 163 195
179 164 195
179 164 195
180 165 195
180 165 195
180 166 195
180 166 195
181 167 195
181 167 195
181 168 195
181 168 195
182 169 195
182 169 195
182 170 195
182 170 195
183 171 195
183 171 195
183 172 195
183 172 195
184 173 195
184 173 195
184 174 195
184 174 195
185 175 195
185 175 195
121 112 131
121 112 131
122 113 131
122 113 131
122 114 131
122 114 131
123 115 131
123 115 131
123 116 131
123 116 131
124 117 131
124 117 131
124 118 131
124 118 131
125 119 131
125 119 131
125 120 131
125 120 131
126 121 131
126 121 131
126 122 131
126 122 131
127 123 131
127 123 131
127 124 131
127 124 131
128 125 131
128 125 131
128 126 131
128 126 131
129 127 131
129 127 131
193 192 195
193 192 195
194 193 195
194 193 195
194 194 195
194 194 195
195 195 195
195 195 195
195 196 195
195 196 195
196 197 195
196 197 195
196 198 195
196 198 195
197 199 195
197 199 195
197 200 195
197 200 195
198 201 195
198 201 195
198 202 195
198 202 195
199 203 195
199 203 195
199 204 195
199 204 195
200 205 195
200 205 195
200 206 195
200 206 195
201 207 195
201 207 195
137 144 131
137 144 131
138 145 131
138 145 131
138 146 131
138 146 131
139 147 131
139 147 131
139 148 131
139 148 131
140 149 131
140 149 131
140 150 131
140 150 131
141 151 131
141 151 131
141 152 131
141 152 131
142 153 131
142 153 131
142 154 131
142 154 131
143 155 131
143 155 131
143 156 131
143 156 131
144 157 131
144 157 131
144 158 131
144 158 131
145 159 131
145 159 131
209 224 195
209 224 195
210 225 195
210 225 195
210 226 195
210 226 195
211 227 195
211 227 195
211 228 195
211 228 195
212 229 195
212 229 195
212 230 195
212 230 195
213 231 195
213 231 195
213 232 195
213 232 195
214 233 195
214 233 195
214 234 195
214 234 195
215 235 195
215 235 195
215 236 195
215 236 195
216 237 195
216 237 195
216 238 195
216 238 195
217 239 195
217 239 195
153 176 131
153 176 131
154 177 131
154 177 131
154 178 131
154 178 131
155 179 131
155 179 131
155 180 131
155 180 131
156 181 131
156 181 131
156 182 131
156 182 131
157 183 131
157 183 131
157 184 131
157 184 131
158 185 131
158 185 131
158 186 131
158 186 131
159 187 131
159 187 131
159 188 131
159 188 131
160 189 131
160 189 131
160 190 131
160 190 131
161 191 131
161 191 131
161 128 195
162 128 195
162 129 195
162 129 195
162 130 195
163 130 195
163 131 195
163 131 195
163 132 195
164 132 195
164 133 195
164 133 195
164 134 195
165 134 195
165 135 195
165 135 195
165 136 195
166 136 195
166 137 195
166 137 195
166 138 195
167 138 195
167 139 195
167 139 195
167 140 195
168 140 195
168 141 195
168 141 195
168 142 195
169 142 195
169 143 195
169 143 195
105 80 131
106 80 131
106 81 131
106 81 131
106 82 131
107 82 131
107 83 131
107 83 131
107 84 131
108 84 131
108 85 131
108 85 131
108 86 131
109 86 131
109 87 131
109 87 131
109 88 131
110 88 131
110 89 131
110 89 131
110 90 131
111 90 131
111 91 131
111 91 131
111 92 131
112 92 131
112 93 131
112 93 131
112 94 131
113 94 131
113 95 131
113 95 131
177 160 195
178 160 195
178 161 195
178 161 195
178 162 195
179 162 195
179 163 195
179 163 195
179 164 195
180 164 195
180 165 195
180 165 195
180 166 195
181 166 195
181 167 195
181 167 195
181 168 195
182 168 195
182 169 195
182 169 195
182 170 195
183 170 195
183 171 195
183 171 195
183 172 195
184 172 195
184 173 195
184 173 195
184 174 195
185 174 195
185 175 195
185 175 195
121 112 131
122 112 131
122 113 131
122 113 131
122 114 131
123 114 131
123 115 131
123 115 131
123 116 131
124 116 131
124 117 131
124 117 131
124 118 131
125 118 131
125 119 131
125 119 131
125 120 131
126 120 131
126 121 131
126 121 131
126 122 131
127 122 131
127 123 131
127 123 131
127 124 131
128 124 131
128 125 131
128 125 131
128 126 131
129 126 131
129 127 131
129 127 131
193 192 195
194 192 195
194 193 195
194 193 195
194 194 195
195 194 195
195 195 195
195 195 195
195 196 195
196 196 195
196 197 195
196 197 195
196 198 195
197 198 195
197 199 195
197 199 195
197 200 195
198 200 195
198 201 195
198 201 195
198 202 195
199 202 195
199 203 195
199 203 195
199 204 195
200 204 195
200 205 195
200 205 195
200 206 195
201 206 195
201 207 195
201 207 195
137 144 131
138 144 131
138 145 131
138 145 131
138 146 131
139 146 131
139 147 131
139 147 131
139 148 131
140 148 131
140 149 131
140 149 131
140 150 131
141 150 131
141 151 131
141 151 131
141 152 131
142 152 131
142 153 131
142 153 131
142 154 131
143 154 131
143 155 131
143 155 131
143 156 131
144 156 131
144 157 131
144 157 131
144 158 131
145 158 131
145 159 131
145 159 131
209 224 195
210 224 195
210 225 195
210 225 195
210 226 195
211 226 195
211 227 195
211 227 195
211 228 195
212 228 195
212 229 195
212 229 195
212 230 195
213 230 195
213 231 195
213 231 195
213 232 195
214 232 195
214 233 195
214 233 195
214 234 195
215 234 195
215 235 195
215 235 195
215 236 195
216 236 195
216 237 195
216 237 195
216 238 195
217 238 195
217 239 195
217 239 195
153 176 131
154 176 131
154 177 131
154 177 131
154 178 131
155 178 131
155 179 131
155 179 131
155 180 131
156 180 131
156 181 131
156 181 131
156 182 131
157 182 131
157 183 131
157 183 131
157 184 131
158 184 131
158 185 131
158 185 131
158 186 131
159 186 131
159 187 131
159 187 131
159 188 131
160 188 131
160 189 131
160 189 131
160 190 131
161 190 131
161 191 131
161 191 131
162 128 196
162 128 196
162 129 196
162 129 196
163 130 196
163 130 196
163 131 196
163 131 196
164 132 196
164 132 196
164 133 196
164 133 196
165 134 196
165 134 196
165 135 196
165 135 196
166 136 196
166 136 196
166 137 196
166 137 196
167 138 196
167 138 196
167 139 196
167 139 196
168 140 196
168 140 196
168 141 196
168 141 196
169 142 196
169 142 196
169 143 196
169 143 196
106 80 132
106 80 132
106 81 132
106 81 132
107 82 132
107 82 132
107 83 132
107 83 132
108 84 132
108 84 132
108 85 132
108 85 132
109 86 132
109 86 132
109 87 132
109 87 132
110 88 132
110 88 132
110 89 132
110 89 132
111 90 132
111 90 132
111 91 132
111 91 132
112 92 132
112 92 132
112 93 132
112 93 132
113 94 132
113 94 132
113 95 132
113 95 132
178 160 196
178 160 196
178 161 196
178 161 196
179 162 196
179 162 196
179 163 196
179 163 196
180 164 196
180 164 196
180 165 196
180 165 196
181 166 196
181 166 196
181 167 196
181 167 196
182 168 196
182 168 196
182 169 196
182 169 196
183 170 196
183 170 196
183 171 196
183 171 196
184 172 196
184 172 196
184 173 196
184 173 196
185 174 196
185 174 196
185 175 196
185 175 196
122 112 132
122 112 132
122 113 132
122 113 132
123 114 132
123 114 132
123 115 132
123 115 132
124 116 132
124 116 132
124 117 132
124 117 132
125 118 132
125 118 132
125 119 132
125 119 132
126 120 132
126 120 132
126 121 132
126 121 132
127 122 132
127 122 132
127 123 132
127 123 132
128 124 132
128 124 132
128 125 132
128 125 132
129 126 132
129 126 132
129 127 132
129 127 132
194 192 196
194 192 196
194 193 196
194 193 196
195 194 196
195 194 196
195 195 196
195 195 196
196 196 196
196 196 196
196 197 196
196 197 196
197 198 196
197 198 196
197 199 196
197 199 196
198 200 196
198 200 196
198 201 196
198 201 196
199 202 196
199 202 196
199 203 196
199 203 196
200 204 196
200 204 196
200 205 196
200 205 196
201 206 196
201 206 196
201 207 196
201 207 196
138 144 132
138 144 132
138 145 132
138 145 132
139 146 132
139 146 132
139 147 132
139 147 132
140 148 132
140 148 132
140 149 132
140 149 132
141 150 132
141 150 132
141 151 132
141 151 132
142 152 132
142 152 132
142 153 132
142 153 132
143 154 132
143 154 132
143 155 132
143 155 132
144 156 132
144 156 132
144 157 132
144 157 132
145 158 132
145 158 132
145 159 132
145 159 132
210 224 196
210 224 196
210 225 196
210 225 196
211 226 196
211 226 196
211 227 196
211 227 196
212 228 196
212 228 196
212 229 196
212 229 196
213 230 196
213 230 196
213 231 196
213 231 196
214 232 196
214 232 196
214 233 196
214 233 196
215 234 196
215 234 196
215 235 196
215 235 196
216 236 196
216 236 196
216 237 196
216 237 196
217 238 196
217 238 196
217 239 196
217 239 196
154 176 132
154 176 132
154 177 132
154 177 132
155 178 132
155 178 132
155 179 132
155 179 132
156 180 132
156 180 132
156 181 132
156 181 132
157 182 132
157 182 132
157 183 132
157 183 132
158 184 132
158 184 132
158 185 132
158 185 132
159 186 132
159 186 132
159 187 132
159 187 132
160 188 132
160 188 132
160 189 132
160 189 132
161 190 132
161 190 132
161 191 132
161 191 132
162 128 196
162 128 196
162 129 196
163 129 196
163 130 196
163 130 196
163 131 196
164 131 196
164 132 196
164 132 196
164 133 196
165 133 196
165 134 196
165 134 196
165 135 196
166 135 196
166 136 196
166 136 196
166 137 196
167 137 196
167 138 196
167 138 196
167 139 196
168 139 196
168 140 196
168 140 196
168 141 196
169 141 196
169 142 196
169 142 196
169 143 196
170 143 196
106 80 132
106 80 132
106 81 132
107 81 132
107 82 132
107 82 132
107 83 132
108 83 132
108 84 132
108 84 132
108 85 132
109 85 132
109 86 132
109 86 132
109 87 132
110 87 132
110 88 132
110 88 132
110 89 132
111 89 132
111 90 132
111 90 132
111 91 132
112 91 132
112 92 132
112 92 132
112 93 132
113 93 132
113 94 132
113 94 132
113 95 132
114 95 132
178 160 196
178 160 196
178 161 196
179 161 196
179 162 196
179 162 196
179 163 196
180 163 196
180 164 196
180 164 196
180 165 196
181 165 196
181 166 196
181 166 196
181 167 196
182 167 196
182 168 196
182 168 196
182 169 196
183 169 196
183 170 196
183 170 196
183 171 196
184 171 196
184 172 196
184 172 196
184 173 196
185 173 196
185 174 196
185 174 196
185 175 196
186 175 196
122 112 132
122 112 132
122 113 132
123 113 132
123 114 132
123 114 132
123 115 132
124 115 132
124 116 132
124 116 132
124 117 132
125 117 132
125 118 132
125 118 132
125 119 132
126 119 132
126 120 132
126 120 132
126 121 132
127 121 132
127 122 132
127 122 132
127 123 132
128 123 132
128 124 132
128 124 132
128 125 132
129 125 132
129 126 132
129 126 132
129 127 132
130 127 132
194 192 196
194 192 196
194 193 196
195 193 196
195 194 196
195 194 196
195 195 196
196 195 196
196 196 196
196 196 196
196 197 196
197 197 196
197 198 196
197 198 196
197 199 196
198 199 196
198 200 196
198 200 196
198 201 196
199 201 196
199 202 196
199 202 196
199 203 196
200 203 196
200 204 196
200 204 196
200 205 196
201 205 196
201 206 196
201 206 196
201 207 196
202 207 196
138 144 132
138 144 132
138 145 132
139 145 132
139 146 132
139 146 132
139 147 132
140 147 132
140 148 132
140 148 132
140 149 132
141 149 132
141 150 132
141 150 132
141 151 132
142 151 132
142 152 132
142 152 132
142 153 132
143 153 132
143 154 132
143 154 132
143 155 132
144 155 132
144 156 132
144 156 132
144 157 132
145 157 132
145 158 132
145 158 132
145 159 132
146 159 132
210 224 196
210 224 196
210 225 196
211 225 196
211 226 196
211 226 196
211 227 196
212 227 196
212 228 196
212 228 196
212 229 196
213 229 196
213 230 196
213 230 196
213 231 196
214 231 196
214 232 196
214 232 196
214 233 196
215 233 196
215 234 196
215 234 196
215 235 196
216 235 196
216 236 196
216 236 196
216 237 196
217 237 196
217 238 196
217 238 196
217 239 196
218 239 196
154 176 132
154 176 132
154 177 132
155 177 132
155 178 132
155 178 132
155 179 132
156 179 132
156 180 132
156 180 132
156 181 132
157 181 132
157 182 132
157 182 132
157 183 132
158 183 132
158 184 132
158 184 132
158 185 132
159 185 132
159 186 132
159 186 132
159 187 132
160 187 132
160 188 132
160 188 132
160 189 132
161 189 132
161 190 132
161 190 132
161 191 132
162 191 132
162 128 197
162 128 197
163 129 197
163 129 197
163 130 197
163 130 197
164 131 197
164 131 197
164 132 197
164 132 197
165 133 197
165 133 197
165 134 197
165 134 197
166 135 197
166 135 197
166 136 197
166 136 197
167 137 197
167 137 197
167 138 197
167 138 197
168 139 197
168 139 197
168 140 197
168 140 197
169 141 197
169 141 197
169 142 197
169 142 197
170 143 197
170 143 197
106 80 133
106 80 133
107 81 133
107 81 133
107 82 133
107 82 133
108 83 133
108 83 133
108 84 133
108 84 133
109 85 133
109 85 133
109 86 133
109 86 133
110 87 133
110 87 133
110 88 133
110 88 133
111 89 133
111 89 133
111 90 133
111 90 133
112 91 133
112 91 133
112 92 133
112 92 133
113 93 133
113 93 133
113 94 133
113 94 133
114 95 133
114 95 133
178 160 197
178 160 197
179 161 197
179 161 197
179 162 197
179 162 197
180 163 197
180 163 197
180 164 197
180 164 197
181 165 197
181 165 197
181 166 197
181 166 197
182 167 197
182 167 197
182 168 197
182 168 197
183 169 197
183 169 197
183 170 197
183 170 197
184 171 197
184 171 197
184 172 197
184 172 197
185 173 197
185 173 197
185 174 197
185 174 197
186 175 197
186 175 197
122 112 133
122 112 133
123 113 133
123 113 133
123 114 133
123 114 133
124 115 133
124 115 133
124 116 133
124 116 133
125 117 133
125 117 133
125 118 133
125 118 133
126 119 133
126 119 133
126 120 133
126 120 133
127 121 133
127 121 133
127 122 133
127 122 133
128 123 133
128 123 133
128 124 133
128 124 133
129 125 133
129 125 133
129 126 133
129 126 133
130 127 133
130 127 133
194 192 197
194 192 197
195 193 197
195 193 197
195 194 197
195 194 197
196 195 197
196 195 197
196 196 197
196 196 197
197 197 197
197 197 197
197 198 197
197 198 197
198 199 197
198 199 197
198 200 197
198 200 197
199 201 197
199 201 197
199 202 197
199 202 197
200 203 197
200 203 197
200 204 197
200 204 197
201 205 197
201 205 197
201 206 197
201 206 197
202 207 197
202 207 197
138 144 133
138 144 133
139 145 133
139 145 133
139 146 133
139 146 133
140 147 133
140 147 133
140 148 133
140 148 133
141 149 133
141 149 133
141 150 133
141 150 133
142 151 133
142 151 133
142 152 133
142 152 133
143 153 133
143 153 133
143 154 133
143 154 133
144 155 133
144 155 133
144 156 133
144 156 133
145 157 133
145 157 133
145 158 133
145 158 133
146 159 133
146 159 133
210 224 197
210 224 197
211 225 197
211 225 197
211 226 197
211 226 197
212 227 197
212 227 197
212 228 197
212 228 197
213 229 197
213 229 197
213 230 197
213 230 197
214 231 197
214 231 197
214 232 197
214 232 197
215 233 197
215 233 197
215 234 197
215 234 197
216 235 197
216 235 197
216 236 197
216 236 197
217 237 197
217 237 197
217 238 197
217 238 197
218 239 197
218 239 197
154 176 133
154 176 133
155 177 133
155 177 133
155 178 133
155 178 133
156 179 133
156 179 133
156 180 133
156 180 133
157 181 133
157 181 133
157 182 133
157 182 133
158 183 133
158 183 133
158 184 133
158 184 133
159 185 133
159 185 133
159 186 133
159 186 133
160 187 133
160 187 133
160 188 133
160 188 133
161 189 133
161 189 133
161 190 133
161 190 133
162 191 133
162 191 133
162 128 197
163 128 197
163 129 197
163 129 197
163 130 197
164 130 197
164 131 197
164 131 197
164 132 197
165 132 197
165 133 197
165 133 197
165 134 197
166 134 197
166 135 197
166 135 197
166 136 197
167 136 197
167 137 197
167 137 197
167 138 197
168 138 197
168 139 197
168 139 197
168 140 197
169 140 197
169 141 197
169 141 197
169 142 197
170 142 197
170 143 197
170 143 197
106 80 133
107 80 133
107 81 133
107 81 133
107 82 133
108 82 133
108 83 133
108 83 133
108 84 133
109 84 133
109 85 133
109 85 133
109 86 133
110 86 133
110 87 133
110 87 133
110 88 133
111 88 133
111 89 133
111 89 133
111 90 133
112 90 133
112 91 133
112 91 133
112 92 133
113 92 133
113 93 133
113 93 133
113 94 133
114 94 133
114 95 133
114 95 133
178 160 197
179 160 197
179 161 197
179 161 197
179 162 197
180 162 197
180 163 197
180 163 197
180 164 197
181 164 197
181 165 197
181 165 197
181 166 197
182 166 197
182 167 197
182 167 197
182 168 197
183 168 197
183 169 197
183 169 197
183 170 197
184 170 197
184 171 197
184 171 197
184 172 197
185 172 197
185 173 197
185 173 197
185 174 197
186 174 197
186 175 197
186 175 197
122 112 133
123 112 133
123 113 133
123 113 133
123 114 133
124 114 133
124 115 133
124 115 133
124 116 133
125 116 133
125 117 133
125 117 133
125 118 133
126 118 133
126 119 133
126 119 133
126 120 133
127 120 133
127 121 133
127 121 133
127 122 133
128 122 133
128 123 133
128 123 133
128 124 133
129 124 133
129 125 133
129 125 133
129 126 133
130 126 133
130 127 133
130 127 133
194 192 197
195 192 197
195 193 197
195 193 197
195 194 197
196 194 197
196 195 197
196 195 197
196 196 197
197 196 197
197 197 197
197 197 197
197 198 197
198 198 197
198 199 197
198 199 197
198 200 197
199 200 197
199 201 197
199 201 197
199 202 197
200 202 197
200 203 197
200 203 197
200 204 197
201 204 197
201 205 197
201 205 197
201 206 197
202 206 197
202 207 197
202 207 197
138 144 133
139 144 133
139 145 133
139 145 133
139 146 133
140 146 133
140 147 133
140 147 133
140 148 133
141 148 133
141 149 133
141 149 133
141 150 133
142 150 133
142 151 133
142 151 133
142 152 133
143 152 133
143 153 133
143 153 133
143 154 133
144 154 133
144 155 133
144 155 133
144 156 133
145 156 133
145 157 133
145 157 133
145 158 133
146 158 133
146 159 133
146 159 133
210 224 197
211 224 197
211 225 197
211 225 197
211 226 197
212 226 197
212 227 197
212 227 197
212 228 197
213 228 197
213 229 197
213 229 197
213 230 197
214 230 197
214 231 197
214 231 197
214 232 197
215 232 197
215 233 197
215 233 197
215 234 197
216 234 197
216 235 197
216 235 197
216 236 197
217 236 197
217 237 197
217 237 197
217 238 197
218 238 197
218 239 197
218 239 197
154 176 133
155 176 133
155 177 133
155 177 133
155 178 133
156 178 133
156 179 133
156 179 133
156 180 133
157 180 133
157 181 133
157 181 133
157 182 133
158 182 133
158 183 133
158 183 133
158 184 133
159 184 133
159 185 133
159 185 133
159 186 133
160 186 133
160 187 133
160 187 133
160 188 133
161 188 133
161 189 133
161 189 133
161 190 133
162 190 133
162 191 133
162 191 133
163 128 198
163 128 198
163 129 198
163 129 198
164 130 198
164 130 198
164 131 198
164 131 198
165 132 198
165 132 198
165 133 198
165 133 198
166 134 198
166 134 198
166 135 198
166 135 198
167 136 198
167 136 198
167 137 198
167 137 198
168 138 198
168 138 198
168 139 198
168 139 198
169 140 198
169 140 198
169 141 198
169 141 198
170 142 198
170 142 198
170 143 198
170 143 198
107 80 134
107 80 134
107 81 134
107 81 134
108 82 134
108 82 134
108 83 134
108 83 134
109 84 134
109 84 134
109 85 134
109 85 134
110 86 134
110 86 134
110 87 134
110 87 134
111 88 134
111 88 134
111 89 134
111 89 134
112 90 134
112 90 134
112 91 134
112 91 134
113 92 134
113 92 134
113 93 134
113 93 134
114 94 134
114 94 134
114 95 134
114 95 134
179 160 198
179 160 198
179 161 198
179 161 198
180 162 198
180 162 198
180 163 198
180 163 198
181 164 198
181 164 198
181 165 198
181 165 198
182 166 198
182 166 198
182 167 198
182 167 198
183 168 198
183 168 198
183 169 198
183 169 198
184 170 198
184 170 198
184 171 198
184 171 198
185 172 198
185 172 198
185 173 198
185 173 198
186 174 198
186 174 198
186 175 198
186 175 198
123 112 134
123 112 134
123 113 134
123 113 134
124 114 134
124 114 134
124 115 134
124 115 134
125 116 134
125 116 134
125 117 134
125 117 134
126 118 134
126 118 134
126 119 134
126 119 134
127 120 134
127 120 134
127 121 134
127 121 134
128 122 134
128 122 134
128 123 134
128 123 134
129 124 134
129 124 134
129 125 134
129 125 134
130 126 134
130 126 134
130 127 134
130 127 134
195 192 198
195 192 198
195 193 198
195 193 198
196 194 198
196 194 198
196 195 198
196 195 198
197 196 198
197 196 198
197 197 198
197 197 198
198 198 198
198 198 198
198 199 198
198 199 198
199 200 198
199 200 198
199 201 198
199 201 198
200 202 198
200 202 198
200 203 198
200 203 198
201 204 198
201 204 198
201 205 198
201 205 198
202 206 198
202 206 198
202 207 198
202 207 198
139 144 134
139 144 134
139 145 134
139 145 134
140 146 134
140 146 134
140 147 134
140 147 134
141 148 134
141 148 134
141 149 134
141 149 134
142 150 134
142 150 134
142 151 134
142 151 134
143 152 134
143 152 134
143 153 134
143 153 134
144 154 134
144 154 134
144 155 134
144 155 134
145 156 134
145 156 134
145 157 134
145 157 134
146 158 134
146 158 134
146 159 134
146 159 134
211 224 198
211 224 198
211 225 198
211 225 198
212 226 198
212 226 198
212 227 198
212 227 198
213 228 198
213 228 198
213 229 198
213 229 198
214 230 198
214 230 198
214 231 198
214 231 198
215 232 198
215 232 198
215 233 198
215 233 198
216 234 198
216 234 198
216 235 198
216 235 198
217 236 198
217 236 198
217 237 198
217 237 198
218 238 198
218 238 198
218 239 198
218 239 198
155 176 134
155 176 134
155 177 134
155 177 134
156 178 134
156 178 134
156 179 134
156 179 134
157 180 134
157 180 134
157 181 134
157 181 134
158 182 134
158 182 134
158 183 134
158 183 134
159 184 134
159 184 134
159 185 134
159 185 134
160 186 134
160 186 134
160 187 134
160 187 134
161 188 134
161 188 134
161 189 134
161 189 134
162 190 134
162 190 134
162 191 134
162 191 134
163 128 198
163 128 198
163 129 198
164 129 198
164 130 198
164 130 198
164 131 198
165 131 198
165 132 198
165 132 198
165 133 198
166 133 198
166 134 198
166 134 198
166 135 198
167 135 198
167 136 198
167 136 198
167 137 198
168 137 198
168 138 198
168 138 198
168 139 198
169 139 198
169 140 198
169 140 198
169 141 198
170 141 198
170 142 198
170 142 198
170 143 198
171 143 198
107 80 134
107 80 134
107 81 134
108 81 134
108 82 134
108 82 134
108 83 134
109 83 134
109 84 134
109 84 134
109 85 134
110 85 134
110 86 134
110 86 134
110 87 134
111 87 134
111 88 134
111 88 134
111 89 134
112 89 134
112 90 134
112 90 134
112 91 134
113 91 134
113 92 134
113 92 134
113 93 134
114 93 134
114 94 134
114 94 134
114 95 134
115 95 134
179 160 198
179 160 198
179 161 198
180 161 198
180 162 198
180 162 198
180 163 198
181 163 198
181 164 198
181 164 198
181 165 198
182 165 198
182 166 198
182 166 198
182 167 198
183 167 198
183 168 198
183 168 198
183 169 198
184 169 198
184 170 198
184 170 198
184 171 198
185 171 198
185 172 198
185 172 198
185 173 198
186 173 198
186 174 198
186 174 198
186 175 198
187 175 198
123 112 134
123 112 134
123 113 134
124 113 134
124 114 134
124 114 134
124 115 134
125 115 134
125 116 134
125 116 134
125 117 134
126 117 134
126 118 134
126 118 134
126 119 134
127 119 134
127 120 134
127 120 134
127 121 134
128 121 134
128 122 134
128 122 134
128 123 134
129 123 134
129 124 134
129 124 134
129 125 134
130 125 134
130 126 134
130 126 134
130 127 134
131 127 134
195 192 198
195 192 198
195 193 198
196 193 198
196 194 198
196 194 198
196 195 198
197 195 198
197 196 198
197 196 198
197 197 198
198 197 198
198 198 198
198 198 198
198 199 198
199 199 198
199 200 198
199 200 198
199 201 198
200 201 198
200 202 198
200 202 198
200 203 198
201 203 198
201 204 198
201 204 198
201 205 198
202 205 198
202 206 198
202 206 198
202 207 198
203 207 198
139 144 134
139 144 134
139 145 134
140 145 134
140 146 134
140 146 134
140 147 134
141 147 134
141 148 134
141 148 134
141 149 134
142 149 134
142 150 134
142 150 134
142 151 134
143 151 134
143 152 134
143 152 134
143 153 134
144 153 134
144 154 134
144 154 134
144 155 134
145 155 134
145 156 134
145 156 134
145 157 134
146 157 134
146 158 134
146 158 134
146 159 134
147 159 134
211 224 198
211 224 198
211 225 198
212 225 198
212 226 198
212 226 198
212 227 198
213 227 198
213 228 198
213 228 198
213 229 198
214 229 198
214 230 198
214 230 198
214 231 198
215 231 198
215 232 198
215 232 198
215 233 198
216 233 198
216 234 198
216 234 198
216 235 198
217 235 198
217 236 198
217 236 198
217 237 198
218 237 198
218 238 198
218 238 198
218 239 198
219 239 198
155 176 134
155 176 134
155 177 134
156 177 134
156 178 134
156 178 134
156 179 134
157 179 134
157 180 134
157 180 134
157 181 134
158 181 134
158 182 134
158 182 134
158 183 134
159 183 134
159 184 134
159 184 134
159 185 134
160 185 134
160 186 134
160 186 134
160 187 134
161 187 134
161 188 134
161 188 134
161 189 134
162 189 134
162 190 134
162 190 134
162 191 134
163 191 134
163 128 199
163 128 199
164 129 199
164 129 199
164 130 199
164 130 199
165 131 199
165 131 199
165 132 199
165 132 199
166 133 199
166 133 199
166 134 199
166 134 199
167 135 199
167 135 199
167 136 199
167 136 199
168 137 199
168 137 199
168 138 199
168 138 199
169 139 199
169 139 199
169 140 199
169 140 199
170 141 199
170 141 199
170 142 199
170 142 199
171 143 199
171 143 199
107 80 135
107 80 135
108 81 135
108 81 135
108 82 135
108 82 135
109 83 135
109 83 135
109 84 135
109 84 135
110 85 135
110 85 135
110 86 135
110 86 135
111 87 135
111 87 135
111 88 135
111 88 135
112 89 135
112 89 135
112 90 135
112 90 135
113 91 135
113 91 135
113 92 135
113 92 135
114 93 135
114 93 135
114 94 135
114 94 135
115 95 135
115 95 135
179 160 199
179 160 199
180 161 199
180 161 199
180 162 199
180 162 199
181 163 199
181 163 199
181 164 199
181 164 199
182 165 199
182 165 199
182 166 199
182 166 199
183 167 199
183 167 199
183 168 199
183 168 199
184 169 199
184 169 199
184 170 199
184 170 199
185 171 199
185 171 199
185 172 199
185 172 199
186 173 199
186 173 199
186 174 199
186 174 199
187 175 199
187 175 199
123 112 135
123 112 135
124 113 135
124 113 135
124 114 135
124 114 135
125 115 135
125 115 135
125 116 135
125 116 135
126 117 135
126 117 135
126 118 135
126 118 135
127 119 135
127 119 135
127 120 135
127 120 135
128 121 135
128 121 135
128 122 135
128 122 135
129 123 135
129 123 135
129 124 135
129 124 135
130 125 135
130 125 135
130 126 135
130 126 135
131 127 135
131 127 135
195 192 199
195 192 199
196 193 199
196 193 199
196 194 199
196 194 199
197 195 199
197 195 199
197 196 199
197 196 199
198 197 199
198 197 199
198 198 199
198 198 199
199 199 199
199 199 199
199 200 199
199 200 199
200 201 199
200 201 199
200 202 199
200 202 199
201 203 199
201 203 199
201 204 199
201 204 199
202 205 199
202 205 199
202 206 199
202 206 199
203 207 199
203 207 199
139 144 135
139 144 135
140 145 135
140 145 135
140 146 135
140 146 135
141 147 135
141 147 135
141 148 135
141 148 135
142 149 135
142 149 135
142 150 135
142 150 135
143 151 135
143 151 135
143 152 135
143 152 135
144 153 135
144 153 135
144 154 135
144 154 135
145 155 135
145 155 135
145 156 135
145 156 135
146 157 135
146 157 135
146 158 135
146 158 135
147 159 135
147 159 135
211 224 199
211 224 199
212 225 199
212 225 199
212 226 199
212 226 199
213 227 199
213 227 199
213 228 199
213 228 199
214 229 199
214 229 199
214 230 199
214 230 199
215 231 199
215 231 199
215 232 199
215 232 199
216 233 199
216 233 199
216 234 199
216 234 199
217 235 199
217 235 199
217 236 199
217 236 199
218 237 199
218 237 199
218 238 199
218 238 199
219 239 199
219 239 199
155 176 135
155 176 135
156 177 135
156 177 135
156 178 135
156 178 135
157 179 135
157 179 135
157 180 135
157 180 135
158 181 135
158 181 135
158 182 135
158 182 135
159 183 135
159 183 135
159 184 135
159 184 135
160 185 135
160 185 135
160 186 135
160 186 135
161 187 135
161 187 135
161 188 135
161 188 135
162 189 135
162 189 135
162 190 135
162 190 135
163 191 135
163 191 135
163 128 199
164 128 199
164 129 199
164 129 199
164 130 199
165 130 199
165 131 199
165 131 199
165 132 199
166 132 199
166 133 199
166 133 199
166 134 199
167 134 199
167 135 199
167 135 199
167 136 199
168 136 199
168 137 199
168 137 199
168 138 199
169 138 199
169 139 199
169 139 199
169 140 199
170 140 199
170 141 199
170 141 199
170 142 199
171 142 199
171 143 199
171 143 199
107 80 135
108 80 135
108 81 135
108 81 135
108 82 135
109 82 135
109 83 135
109 83 135
109 84 135
110 84 135
110 85 135
110 85 135
110 86 135
111 86 135
111 87 135
111 87 135
111 88 135
112 88 135
112 89 135
112 89 135
112 90 135
113 90 135
113 91 135
113 91 135
113 92 135
114 92 135
114 93 135
114 93 135
114 94 135
115 94 135
115 95 135
115 95 135
179 160 199
180 160 199
180 161 199
180 161 199
180 162 199
181 162 199
181 163 199
181 163 199
181 164 199
182 164 199
182 165 199
182 165 199
182 166 199
183 166 199
183 167 199
183 167 199
183 168 199
184 168 199
184 169 199
184 169 199
184 170 199
185 170 199
185 171 199
185 171 199
185 172 199
186 172 199
186 173 199
186 173 199
186 174 199
187 174 199
187 175 199
187 175 199
123 112 135
124 112 135
124 113 135
124 113 135
124 114 135
125 114 135
125 115 135
125 115 135
125 116 135
126 116 135
126 117 135
126 117 135
126 118 135
127 118 135
127 119 135
127 119 135
127 120 135
128 120 135
128 121 135
128 121 135
128 122 135
129 122 135
129 123 135
129 123 135
129 124 135
130 124 135
130 125 135
130 125 135
130 126 135
131 126 135
131 127 135
131 127 135
195 192 199
196 192 199
196 193 199
196 193 199
196 194 199
197 194 199
197 195 199
197 195 199
197 196 199
198 196 199
198 197 199
198 197 199
198 198 199
199 198 199
199 199 199
199 199 199
199 200 199
200 200 199
200 201 199
200 201 199
200 202 199
201 202 199
201 203 199
201 203 199
201 204 199
202 204 199
202 205 199
202 205 199
202 206 199
203 206 199
203 207 199
203 207 199
139 144 135
140 144 135
140 145 135
140 145 135
140 146 135
141 146 135
141 147 135
141 147 135
141 148 135
142 148 135
142 149 135
142 149 135
142 150 135
143 150 135
143 151 135
143 151 135
143 152 135
144 152 135
144 153 135
144 153 135
144 154 135
145 154 135
145 155 135
145 155 135
145 156 135
146 156 135
146 157 135
146 157 135
146 158 135
147 158 135
147 159 135
147 159 135
211 224 199
212 224 199
212 225 199
212 225 199
212 226 199
213 226 199
213 227 199
213 227 199
213 228 199
214 228 199
214 229 199
214 229 199
214 230 199
215 230 199
215 231 199
215 231 199
215 232 199
216 232 199
216 233 199
216 233 199
216 234 199
217 234 199
217 235 199
217 235 199
217 236 199
218 236 199
218 237 199
218 237 199
218 238 199
219 238 199
219 239 199
219 239 199
155 176 135
156 176 135
156 177 135
156 177 135
156 178 135
157 178 135
157 179 135
157 179 135
157 180 135
158 180 135
158 181 135
158 181 135
158 182 135
159 182 135
159 183 135
159 183 135
159 184 135
160 184 135
160 185 135
160 185 135
160 186 135
161 186 135
161 187 135
161 187 135
161 188 135
162 188 135
162 189 135
162 189 135
162 190 135
163 190 135
163 191 135
163 191 135
164 128 200
164 128 200
164 129 200
164 129 200
165 130 200
165 130 200
165 131 200
165 131 200
166 132 200
166 132 200
166 133 200
166 133 200
167 134 200
167 134 200
167 135 200
167 135 200
168 136 200
168 136 200
168 137 200
168 137 200
169 138 200
169 138 200
169 139 200
169 139 200
170 140 200
170 140 200
170 141 200
170 141 200
171 142 200
171 142 200
171 143 200
171 143 200
108 80 136
108 80 136
108 81 136
108 81 136
109 82 136
109 82 136
109 83 136
109 83 136
110 84 136
110 84 136
110 85 136
110 85 136
111 86 136
111 86 136
111 87 136
111 87 136
112 88 136
112 88 136
112 89 136
112 89 136
113 90 136
113 90 136
113 91 136
113 91 136
114 92 136
114 92 136
114 93 136
114 93 136
115 94 136
115 94 136
115 95 136
115 95 136
180 160 200
180 160 200
180 161 200
180 161 200
181 162 200
181 162 200
181 163 200
181 163 200
182 164 200
182 164 200
182 165 200
182 165 200
183 166 200
183 166 200
183 167 200
183 167 200
184 168 200
184 168 200
184 169 200
184 169 200
185 170 200
185 170 200
185 171 200
185 171 200
186 172 200
186 172 200
186 173 200
186 173 200
187 174 200
187 174 200
187 175 200
187 175 200
124 112 136
124 112 136
124 113 136
124 113 136
125 114 136
125 114 136
125 115 136
125 115 136
126 116 136
126 116 136
126 117 136
126 117 136
127 118 136
127 118 136
127 119 136
127 119 136
128 120 136
128 120 136
128 121 136
128 121 136
129 122 136
129 122 136
129 123 136
129 123 136
130 124 136
130 124 136
130 125 136
130 125 136
131 126 136
131 126 136
131 127 136
131 127 136
196 192 200
196 192 200
196 193 200
196 193 200
197 194 200
197 194 200
197 195 200
197 195 200
198 196 200
198 196 200
198 197 200
198 197 200
199 198 200
199 198 200
199 199 200
199 199 200
200 200 200
200 200 200
200 201 200
200 201 200
201 202 200
201 202 200
201 203 200
201 203 200
202 204 200
202 204 200
202 205 200
202 205 200
203 206 200
203 206 200
203 207 200
203 207 200
140 144 136
140 144 136
140 145 136
140 145 136
141 146 136
141 146 136
141 147 136
141 147 136
142 148 136
142 148 136
142 149 136
142 149 136
143 150 136
143 150 136
143 151 136
143 151 136
144 152 136
144 152 136
144 153 136
144 153 136
145 154 136
145 154 136
145 155 136
145 155 136
146 156 136
146 156 136
146 157 136
146 157 136
147 158 136
147 158 136
147 159 136
147 159 136
212 224 200
212 224 200
212 225 200
212 225 200
213 226 200
213 226 200
213 227 200
213 227 200
214 228 200
214 228 200
214 229 200
214 229 200
215 230 200
215 230 200
215 231 200
215 231 200
216 232 200
216 232 200
216 233 200
216 233 200
217 234 200
217 234 200
217 235 200
217 235 200
218 236 200
218 236 200
218 237 200
218 237 200
219 238 200
219 238 200
219 239 200
219 239 200
156 176 136
156 176 136
156 177 136
156 177 136
157 178 136
157 178 136
157 179 136
157 179 136
158 180 136
158 180 136
158 181 136
158 181 136
159 182 136
159 182 136
159 183 136
159 183 136
160 184 136
160 184 136
160 185 136
160 185 136
161 186 136
161 186 136
161 187 136
161 187 136
162 188 136
162 188 136
162 189 136
162 189 136
163 190 136
163 190 136
163 191 136
163 191 136
164 128 200
164 128 200
164 129 200
165 129 200
165 130 200
165 130 200
165 131 200
166 131 200
166 132 200
166 132 200
166 133 200
167 133 200
167 134 200
167 134 200
167 135 200
168 135 200
168 136 200
168 136 200
168 137 200
169 137 200
169 138 200
169 138 200
169 139 200
170 139 200
170 140 200
170 140 200
170 141 200
171 141 200
171 142 200
171 142 200
171 143 200
172 143 200
108 80 136
108 80 136
108 81 136
109 81 136
109 82 136
109 82 136
109 83 136
110 83 136
110 84 136
110 84 136
110 85 136
111 85 136
111 86 136
111 86 136
111 87 136
112 87 136
112 88 136
112 88 136
112 89 136
113 89 136
113 90 136
113 90 136
113 91 136
114 91 136
114 92 136
114 92 136
114 93 136
115 93 136
115 94 136
115 94 136
115 95 136
116 95 136
180 160 200
180 160 200
180 161 200
181 161 200
181 162 200
181 162 200
181 163 200
182 163 200
182 164 200
182 164 200
182 165 200
183 165 200
183 166 200
183 166 200
183 167 200
184 167 200
184 168 200
184 168 200
184 169 200
185 169 200
185 170 200
185 170 200
185 171 200
186 171 200
186 172 200
186 172 200
186 173 200
187 173 200
187 174 200
187 174 200
187 175 200
188 175 200
124 112 136
124 112 136
124 113 136
125 113 136
125 114 136
125 114 136
125 115 136
126 115 136
126 116 136
126 116 136
126 117 136
127 117 136
127 118 136
127 118 136
127 119 136
128 119 136
128 120 136
128 120 136
128 121 136
129 121 136
129 122 136
129 122 136
129 123 136
130 123 136
130 124 136
130 124 136
130 125 136
131 125 136
131 126 136
131 126 136
131 127 136
132 127 136
196 192 200
196 192 200
196 193 200
197 193 200
197 194 200
197 194 200
197 195 200
198 195 200
198 196 200
198 196 200
198 197 200
199 197 200
199 198 200
199 198 200
199 199 200
200 199 200
200 200 200
200 200 200
200 201 200
201 201 200
201 202 200
201 202 200
201 203 200
202 203 200
202 204 200
202 204 200
202 205 200
203 205 200
203 206 200
203 206 200
203 207 200
204 207 200
140 144 136
140 144 136
140 145 136
141 145 136
141 146 136
141 146 136
141 147 136
142 147 136
142 148 136
142 148 136
142 149 136
143 149 136
143 150 136
143 150 136
143 151 136
144 151 136
144 152 136
144 152 136
144 153 136
145 153 136
145 154 136
145 154 136
145 155 136
146 155 136
146 156 136
146 156 136
146 157 136
147 157 136
147 158 136
147 158 136
147 159 136
148 159 136
212 224 200
212 224 200
212 225 200
213 225 200
213 226 200
213 226 200
213 227 200
214 227 200
214 228 200
214 228 200
214 229 200
215 229 200
215 230 200
215 230 200
215 231 200
216 231 200
216 232 200
216 232 200
216 233 200
217 233 200
217 234 200
217 234 200
217 235 200
218 235 200
218 236 200
218 236 200
218 237 200
219 237 200
219 238 200
219 238 200
219 239 200
220 239 200
156 176 136
156 176 136
156 177 136
157 177 136
157 178 136
157 178 136
157 179 136
158 179 136
158 180 136
158 180 136
158 181 136
159 181 136
159 182 136
159 182 136
159 183 136
160 183 136
160 184 136
160 184 136
160 185 136
161 185 136
161 186 136
161 186 136
161 187 136
162 187 136
162 188 136
162 188 136
162 189 136
163 189 136
163 190 136
163 190 136
163 191 136
164 191 136
164 128 201
164 128 201
165 129 201
165 129 201
165 130 201
165 130 201
166 131 201
166 131 201
166 132 201
166 132 201
167 133 201
167 133 201
167 134 201
167 134 201
168 135 201
168 135 201
168 136 201
168 136 201
169 137 201
169 137 201
169 138 201
169 138 201
170 139 201
170 139 201
170 140 201
170 140 201
171 141 201
171 141 201
171 142 201
171 142 201
172 143 201
172 143 201
108 80 137
108 80 137
109 81 137
109 81 137
109 82 137
109 82 137
110 83 137
110 83 137
110 84 137
110 84 137
111 85 137
111 85 137
111 86 137
111 86 137
112 87 137
112 87 137
112 88 137
112 88 137
113 89 137
113 89 137
113 90 137
113 90 137
114 91 137
114 91 137
114 92 137
114 92 137
115 93 137
115 93 137
115 94 137
115 94 137
116 95 137
116 95 137
180 160 201
180 160 201
181 161 201
181 161 201
181 162 201
181 162 201
182 163 201
182 163 201
182 164 201
182 164 201
183 165 201
183 165 201
183 166 201
183 166 201
184 167 201
184 167 201
184 168 201
184 168 201
185 169 201
185 169 201
185 170 201
185 170 201
186 171 201
186 171 201
186 172 201
186 172 201
187 173 201
187 173 201
187 174 201
187 174 201
188 175 201
188 175 201
124 112 137
124 112 137
125 113 137
125 113 137
125 114 137
125 114 137
126 115 137
126 115 137
126 116 137
126 116 137
127 117 137
127 117 137
127 118 137
127 118 137
128 119 137
128 119 137
128 120 137
128 120 137
129 121 137
129 121 137
129 122 137
129 122 137
130 123 137
130 123 137
130 124 137
130 124 137
131 125 137
131 125 137
131 126 137
131 126 137
132 127 137
132 127 137
196 192 201
196 192 201
197 193 201
197 193 201
197 194 201
197 194 201
198 195 201
198 195 201
198 196 201
198 196 201
199 197 201
199 197 201
199 198 201
199 198 201
200 199 201
200 199 201
200 200 201
200 200 201
201 201 201
201 201 201
201 202 201
201 202 201
202 203 201
202 203 201
202 204 201
202 204 201
203 205 201
203 205 201
203 206 201
203 206 201
204 207 201
204 207 201
140 144 137
140 144 137
141 145 137
141 145 137
141 146 137
141 146 137
142 147 137
142 147 137
142 148 137
142 148 137
143 149 137
143 149 137
143 150 137
143 150 137
144 151 137
144 151 137
144 152 137
144 152 137
145 153 137
145 153 137
145 154 137
145 154 137
146 155 137
146 155 137
146 156 137
146 156 137
147 157 137
147 157 137
147 158 137
147 158 137
148 159 137
148 159 137
212 224 201
212 224 201
213 225 201
213 225 201
213 226 201
213 226 201
214 227 201
214 227 201
214 228 201
214 228 201
215 229 201
215 229 201
215 230 201
215 230 201
216 231 201
216 231 201
216 232 201
216 232 201
217 233 201
217 233 201
217 234 201
217 234 201
218 235 201
218 235 201
218 236 201
218 236 201
219 237 201
219 237 201
219 238 201
219 238 201
220 239 201
220 239 201
156 176 137
156 176 137
157 177 137
157 177 137
157 178 137
157 178 137
158 179 137
158 179 137
158 180 137
158 180 137
159 181 137
159 181 137
159 182 137
159 182 137
160 183 137
160 183 137
160 184 137
160 184 137
161 185 137
161 185 137
161 186 137
161 186 137
162 187 137
162 187 137
162 188 137
162 188 137
163 189 137
163 189 137
163 190 137
163 190 137
164 191 137
164 191 137
164 128 201
165 128 201
165 129 201
165 129 201
165 130 201
166 130 201
166 131 201
166 131 201
166 132 201
167 132 201
167 133 201
167 133 201
167 134 201
168 134 201
168 135 201
168 135 201
168 136 201
169 136 201
169 137 201
169 137 201
169 138 201
170 138 201
170 139 201
170 139 201
170 140 201
171 140 201
171 141 201
171 141 201
171 142 201
172 142 201
172 143 201
172 143 201
108 80 137
109 80 137
109 81 137
109 81 137
109 82 137
110 82 137
110 83 137
110 83 137
110 84 137
111 84 137
111 85 137
111 85 137
111 86 137
112 86 137
112 87 137
112 87 137
112 88 137
113 88 137
113 89 137
113 89 137
113 90 137
114 90 137
114 91 137
114 91 137
114 92 137
115 92 137
115 93 137
115 93 137
115 94 137
116 94 137
116 95 137
116 95 137
180 160 201
181 160 201
181 161 201
181 161 201
181 162 201
182 162 201
182 163 201
182 163 201
182 164 201
183 164 201
183 165 201
183 165 201
183 166 201
184 166 201
184 167 201
184 167 201
184 168 201
185 168 201
185 169 201
185 169 201
185 170 201
186 170 201
186 171 201
186 171 201
186 172 201
187 172 201
187 173 201
187 173 201
187 174 201
188 174 201
188 175 201
188 175 201
124 112 137
125 112 137
125 113 137
125 113 137
125 114 137
126 114 137
126 115 137
126 115 137
126 116 137
127 116 137
127 117 137
127 117 137
127 118 137
128 118 137
128 119 137
128 119 137
128 120 137
129 120 137
129 121 137
129 121 137
129 122 137
130 122 137
130 123 137
130 123 137
130 124 137
131 124 137
131 125 137
131 125 137
131 126 137
132 126 137
132 127 137
132 127 137
196 192 201
197 192 201
197 193 201
197 193 201
197 194 201
198 194 201
198 195 201
198 195 201
198 196 201
199 196 201
199 197 201
199 197 201
199 198 201
200 198 201
200 199 201
200 199 201
200 200 201
201 200 201
201 201 201
201 201 201
201 202 201
202 202 201
202 203 201
202 203 201
202 204 201
203 204 201
203 205 201
203 205 201
203 206 201
204 206 201
204 207 201
204 207 201
140 144 137
141 144 137
141 145 137
141 145 137
141 146 137
142 146 137
142 147 137
142 147 137
142 148 137
143 148 137
143 149 137
143 149 137
143 150 137
144 150 137
144 151 137
144 151 137
144 152 137
145 152 137
145 153 137
145 153 137
145 154 137
146 154 137
146 155 137
146 155 137
146 156 137
147 156 137
147 157 137
147 157 137
147 158 137
148 158 137
148 159 137
148 159 137
212 224 201
213 224 201
213 225 201
213 225 201
213 226 201
214 226 201
214 227 201
214 227 201
214 228 201
215 228 201
215 229 201
215 229 201
215 230 201
216 230 201
216 231 201
216 231 201
216 232 201
217 232 201
217 233 201
217 233 201
217 234 201
218 234 201
218 235 201
218 235 201
218 236 201
219 236 201
219 237 201
219 237 201
219 238 201
220 238 201
220 239 201
220 239 201
156 176 137
157 176 137
157 177 137
157 177 137
157 178 137
158 178 137
158 179 137
158 179 137
158 180 137
159 180 137
159 181 137
159 181 137
159 182 137
160 182 137
160 183 137
160 183 137
160 184 137
161 184 137
161 185 137
161 185 137
161 186 137
162 186 137
162 187 137
162 187 137
162 188 137
163 188 137
163 189 137
163 189 137
163 190 137
164 190 137
164 191 137
164 191 137
165 128 202
165 128 202
165 129 202
165 129 202
166 130 202
166 130 202
166 131 202
166 131 202
167 132 202
167 132 202
167 133 202
167 133 202
168 134 202
168 134 202
168 135 202
168 135 202
169 136 202
169 136 202
169 137 202
169 137 202
170 138 202
170 138 202
170 139 202
170 139 202
171 140 202
171 140 202
171 141 202
171 141 202
172 142 202
172 142 202
172 143 202
172 143 202
109 80 138
109 80 138
109 81 138
109 81 138
110 82 138
110 82 138
110 83 138
110 83 138
111 84 138
111 84 138
111 85 138
111 85 138
112 86 138
112 86 138
112 87 138
112 87 138
113 88 138
113 88 138
113 89 138
113 89 138
114 90 138
114 90 138
114 91 138
114 91 138
115 92 138
115 92 138
115 93 138
115 93 138
116 94 138
116 94 138
116 95 138
116 95 138
181 160 202
181 160 202
181 161 202
181 161 202
182 162 202
182 162 202
182 163 202
182 163 202
183 164 202
183 164 202
183 165 202
183 165 202
184 166 202
184 166 202
184 167 202
184 167 202
185 168 202
185 168 202
185 169 202
185 169 202
186 170 202
186 170 202
186 171 202
186 171 202
187 172 202
187 172 202
187 173 202
187 173 202
188 174 202
188 174 202
188 175 202
188 175 202
125 112 138
125 112 138
125 113 138
125 113 138
126 114 138
126 114 138
126 115 138
126 115 138
127 116 138
127 116 138
127 117 138
127 117 138
128 118 138
128 118 138
128 119 138
128 119 138
129 120 138
129 120 138
129 121 138
129 121 138
130 122 138
130 122 138
130 123 138
130 123 138
131 124 138
131 124 138
131 125 138
131 125 138
132 126 138
132 126 138
132 127 138
132 127 138
197 192 202
197 192 202
197 193 202
197 193 202
198 194 202
198 194 202
198 195 202
198 195 202
199 196 202
199 196 202
199 197 202
199 197 202
200 198 202
200 198 202
200 199 202
200 199 202
201 200 202
201 200 202
201 201 202
201 201 202
202 202 202
202 202 202
202 203 202
202 203 202
203 204 202
203 204 202
203 205 202
203 205 202
204 206 202
204 206 202
204 207 202
204 207 202
141 144 138
141 144 138
141 145 138
141 145 138
142 146 138
142 146 138
142 147 138
142 147 138
143 148 138
143 148 138
143 149 138
143 149 138
144 150 138
144 150 138
144 151 138
144 151 138
145 152 138
145 152 138
145 153 138
145 153 138
146 154 138
146 154 138
146 155 138
146 155 138
147 156 138
147 156 138
147 157 138
147 157 138
148 158 138
148 158 138
148 159 138
148 159 138
213 224 202
213 224 202
213 225 202
213 225 202
214 226 202
214 226 202
214 227 202
214 227 202
215 228 202
215 228 202
215 229 202
215 229 202
216 230 202
216 230 202
216 231 202
216 231 202
217 232 202
217 232 202
217 233 202
217 233 202
218 234 202
218 234 202
218 235 202
218 235 202
219 236 202
219 236 202
219 237 202
219 237 202
220 238 202
220 238 202
220 239 202
220 239 202
157 176 138
157 176 138
157 177 138
157 177 138
158 178 138
158 178 138
158 179 138
158 179 138
159 180 138
159 180 138
159 181 138
159 181 138
160 182 138
160 182 138
160 183 138
160 183 138
161 184 138
161 184 138
161 185 138
161 185 138
162 186 138
162 186 138
162 187 138
162 187 138
163 188 138
163 188 138
163 189 138
163 189 138
164 190 138
164 190 138
164 191 138
164 191 138
165 128 202
165 128 202
165 129 202
166 129 202
166 130 202
166 130 202
166 131 202
167 131 202
167 132 202
167 132 202
167 133 202
168 133 202
168 134 202
168 134 202
168 135 202
169 135 202
169 136 202
169 136 202
169 137 202
170 137 202
170 138 202
170 138 202
170 139 202
171 139 202
171 140 202
171 140 202
171 141 202
172 141 202
172 142 202
172 142 202
172 143 202
173 143 202
109 80 138
109 80 138
109 81 138
110 81 138
110 82 138
110 82 138
110 83 138
111 83 138
111 84 138
111 84 138
111 85 138
112 85 138
112 86 138
112 86 138
112 87 138
113 87 138
113 88 138
113 88 138
113 89 138
114 89 138
114 90 138
114 90 138
114 91 138
115 91 138
115 92 138
115 92 138
115 93 138
116 93 138
116 94 138
116 94 138
116 95 138
117 95 138
181 160 202
181 160 202
181 161 202
182 161 202
182 162 202
182 162 202
182 163 202
183 163 202
183 164 202
183 164 202
183 165 202
184 165 202
184 166 202
184 166 202
184 167 202
185 167 202
185 168 202
185 168 202
185 169 202
186 169 202
186 170 202
186 170 202
186 171 202
187 171 202
187 172 202
187 172 202
187 173 202
188 173 202
188 174 202
188 174 202
188 175 202
189 175 202
125 112 138
125 112 138
125 113 138
126 113 138
126 114 138
126 114 138
126 115 138
127 115 138
127 116 138
127 116 138
127 117 138
128 117 138
128 118 138
128 118 138
128 119 138
129 119 138
129 120 138
129 120 138
129 121 138
130 121 138
130 122 138
130 122 138
130 123 138
131 123 138
131 124 138
131 124 138
131 125 138
132 125 138
132 126 138
132 126 138
132 127 138
133 127 138
197 192 202
197 192 202
197 193 202
198 193 202
198 194 202
198 194 202
198 195 202
199 195 202
199 196 202
199 196 202
199 197 202
200 197 202
200 198 202
200 198 202
200 199 202
201 199 202
201 200 202
201 200 202
201 201 202
202 201 202
202 202 202
202 202 202
202 203 202
203 203 202
203 204 202
203 204 202
203 205 202
204 205 202
204 206 202
204 206 202
204 207 202
205 207 202
141 144 138
141 144 138
141 145 138
142 145 138
142 146 138
142 146 138
142 147 138
143 147 138
143 148 138
143 148 138
143 149 138
144 149 138
144 150 138
144 150 138
144 151 138
145 151 138
145 152 138
145 152 138
145 153 138
146 153 138
146 154 138
146 154 138
146 155 138
147 155 138
147 156 138
147 156 138
147 157 138
148 157 138
148 158 138
148 158 138
148 159 138
149 159 138
213 224 202
213 224 202
213 225 202
214 225 202
214 226 202
214 226 202
214 227 202
215 227 202
215 228 202
215 228 202
215 229 202
216 229 202
216 230 202
216 230 202
216 231 202
217 231 202
217 232 202
217 232 202
217 233 202
218 233 202
218 234 202
218 234 202
218 235 202
219 235 202
219 236 202
219 236 202
219 237 202
220 237 202
220 238 202
220 238 202
220 239 202
221 239 202
157 176 138
157 176 138
157 177 138
158 177 138
158 178 138
158 178 138
158 179 138
159 179 138
159 180 138
159 180 138
159 181 138
160 181 138
160 182 138
160 182 138
160 183 138
161 183 138
161 184 138
161 184 138
161 185 138
162 185 138
162 186 138
162 186 138
162 187 138
163 187 138
163 188 138
163 188 138
163 189 138
164 189 138
164 190 138
164 190 138
164 191 138
165 191 138
165 128 203
165 128 203
166 129 203
166 129 203
166 130 203
166 130 203
167 131 203
167 131 203
167 132 203
167 132 203
168 133 203
168 133 203
168 134 203
168 134 203
169 135 203
169 135 203
169 136 203
169 136 203
170 137 203
170 137 203
170 138 203
170 138 203
171 139 203
171 139 203
171 140 203
171 140 203
172 141 203
172 141 203
172 142 203
172 142 203
173 143 203
173 143 203
109 80 139
109 80 139
110 81 139
110 81 139
110 82 139
110 82 139
111 83 139
111 83 139
111 84 139
111 84 139
112 85 139
112 85 139
112 86 139
112 86 139
113 87 139
113 87 139
113 88 139
113 88 139
114 89 139
114 89 139
114 90 139
114 90 139
115 91 139
115 91 139
115 92 139
115 92 139
116 93 139
116 93 139
116 94 139
116 94 139
117 95 139
117 95 139
181 160 203
181 160 203
182 161 203
182 161 203
182 162 203
182 162 203
183 163 203
183 163 203
183 164 203
183 164 203
184 165 203
184 165 203
184 166 203
184 166 203
185 167 203
185 167 203
185 168 203
185 168 203
186 169 203
186 169 203
186 170 203
186 170 203
187 171 203
187 171 203
187 172 203
187 172 203
188 173 203
188 173 203
188 174 203
188 174 203
189 175 203
189 175 203
125 112 139
125 112 139
126 113 139
126 113 139
126 114 139
126 114 139
127 115 139
127 115 139
127 116 139
127 116 139
128 117 139
128 117 139
128 118 139
128 118 139
129 119 139
129 119 139
129 120 139
129 120 139
130 121 139
130 121 139
130 122 139
130 122 139
131 123 139
131 123 139
131 124 139
131 124 139
132 125 139
132 125 139
132 126 139
132 126 139
133 127 139
133 127 139
197 192 203
197 192 203
198 193 203
198 193 203
198 194 203
198 194 203
199 195 203
199 195 203
199 196 203
199 196 203
200 197 203
200 197 203
200 198 203
200 198 203
201 199 203
201 199 203
201 200 203
201 200 203
202 201 203
202 201 203
202 202 203
202 202 203
203 203 203
203 203 203
203 204 203
203 204 203
204 205 203
204 205 203
204 206 203
204 206 203
205 207 203
205 207 203
141 144 139
141 144 139
142 145 139
142 145 139
142 146 139
142 146 139
143 147 139
143 147 139
143 148 139
143 148 139
144 149 139
144 149 139
144 150 139
144 150 139
145 151 139
145 151 139
145 152 139
145 152 139
146 153 139
146 153 139
146 154 139
146 154 139
147 155 139
147 155 139
147 156 139
147 156 139
148 157 139
148 157 139
148 158 139
148 158 139
149 159 139
149 159 139
213 224 203
213 224 203
214 225 203
214 225 203
214 226 203
214 226 203
215 227 203
215 227 203
215 228 203
215 228 203
216 229 203
216 229 203
216 230 203
216 230 203
217 231 203
217 231 203
217 232 203
217 232 203
218 233 203
218 233 203
218 234 203
218 234 203
219 235 203
219 235 203
219 236 203
219 236 203
220 237 203
220 237 203
220 238 203
220 238 203
221 239 203
221 239 203
157 176 139
157 176 139
158 177 139
158 177 139
158 178 139
158 178 139
159 179 139
159 179 139
159 180 139
159 180 139
160 181 139
160 181 139
160 182 139
160 182 139
161 183 139
161 183 139
161 184 139
161 184 139
162 185 139
162 185 139
162 186 139
162 186 139
163 187 139
163 187 139
163 188 139
163 188 139
164 189 139
164 189 139
164 190 139
164 190 139
165 191 139
165 191 139
165 128 203
166 128 203
166 129 203
166 129 203
166 130 203
167 130 203
167 131 203
167 131 203
167 132 203
168 132 203
168 133 203
168 133 203
168 134 203
169 134 203
169 135 203
169 135 203
169 136 203
170 136 203
170 137 203
170 137 203
170 138 203
171 138 203
171 139 203
171 139 203
171 140 203
172 140 203
172 141 203
172 141 203
172 142 203
173 142 203
173 143 203
173 143 203
109 80 139
110 80 139
110 81 139
110 81 139
110 82 139
111 82 139
111 83 139
111 83 139
111 84 139
112 84 139
112 85 139
112 85 139
112 86 139
113 86 139
113 87 139
113 87 139
113 88 139
114 88 139
114 89 139
114 89 139
114 90 139
115 90 139
115 91 139
115 91 139
115 92 139
116 92 139
116 93 139
116 93 139
116 94 139
117 94 139
117 95 139
117 95 139
181 160 203
182 160 203
182 161 203
182 161 203
182 162 203
183 162 203
183 163 203
183 163 203
183 164 203
184 164 203
184 165 203
184 165 203
184 166 203
185 166 203
185 167 203
185 167 203
185 168 203
186 168 203
186 169 203
186 169 203
186 170 203
187 170 203
187 171 203
187 171 203
187 172 203
188 172 203
188 173 203
188 173 203
188 174 203
189 174 203
189 175 203
189 175 203
125 112 139
126 112 139
126 113 139
126 113 139
126 114 139
127 114 139
127 115 139
127 115 139
127 116 139
128 116 139
128 117 139
128 117 139
128 118 139
129 118 139
129 119 139
129 119 139
129 120 139
130 120 139
130 121 139
130 121 139
130 122 139
131 122 139
131 123 139
131 123 139
131 124 139
132 124 139
132 125 139
132 125 139
132 126 139
133 126 139
133 127 139
133 127 139
197 192 203
198 192 203
198 193 203
198 193 203
198 194 203
199 194 203
199 195 203
199 195 203
199 196 203
200 196 203
200 197 203
200 197 203
200 198 203
201 198 203
201 199 203
201 199 203
201 200 203
202 200 203
202 201 203
202 201 203
202 202 203
203 202 203
203 203 203
203 203 203
203 204 203
204 204 203
204 205 203
204 205 203
204 206 203
205 206 203
205 207 203
205 207 203
141 144 139
142 144 139
142 145 139
142 145 139
142 146 139
143 146 139
143 147 139
143 147 139
143 148 139
144 148 139
144 149 139
144 149 139
144 150 139
145 150 139
145 151 139
145 151 139
145 152 139
146 152 139
146 153 139
146 153 139
146 154 139
147 154 139
147 155 139
147 155 139
147 156 139
148 156 139
148 157 139
148 157 139
148 158 139
149 158 139
149 159 139
149 159 139
213 224 203
214 224 203
214 225 203
214 225 203
214 226 203
215 226 203
215 227 203
215 227 203
215 228 203
216 228 203
216 229 203
216 229 203
216 230 203
217 230 203
217 231 203
217 231 203
217 232 203
218 232 203
218 233 203
218 233 203
218 234 203
219 234 203
219 235 203
219 235 203
219 236 203
220 236 203
220 237 203
220 237 203
220 238 203
221 238 203
221 239 203
221 239 203
157 176 139
158 176 139
158 177 139
158 177 139
158 178 139
159 178 139
159 179 139
159 179 139
159 180 139
160 180 139
160 181 139
160 181 139
160 182 139
161 182 139
161 183 139
161 183 139
161 184 139
162 184 139
162 185 139
162 185 139
162 186 139
163 186 139
163 187 139
163 187 139
163 188 139
164 188 139
164 189 139
164 189 139
164 190 139
165 190 139
165 191 139
165 191 139
166 128 204
166 128 204
166 129 204
166 129 204
167 130 204
167 130 204
167 131 204
167 131 204
168 132 204
168 132 204
168 133 204
168 133 204
169 134 204
169 134 204
169 135 204
169 135 204
170 136 204
170 136 204
170 137 204
170 137 204
171 138 204
171 138 204
171 139 204
171 139 204
172 140 204
172 140 204
172 141 204
172 141 204
173 142 204
173 142 204
173 143 204
173 143 204
110 80 140
110 80 140
110 81 140
110 81 140
111 82 140
111 82 140
111 83 140
111 83 140
112 84 140
112 84 140
112 85 140
112 85 140
113 86 140
113 86 140
113 87 140
113 87 140
114 88 140
114 88 140
114 89 140
114 89 140
115 90 140
115 90 140
115 91 140
115 91 140
116 92 140
116 92 140
116 93 140
116 93 140
117 94 140
117 94 140
117 95 140
117 95 140
182 160 204
182 160 204
182 161 204
182 161 204
183 162 204
183 162 204
183 163 204
183 163 204
184 164 204
184 164 204
184 165 204
184 165 204
185 166 204
185 166 204
185 167 204
185 167 204
186 168 204
186 168 204
186 169 204
186 169 204
187 170 204
187 170 204
187 171 204
187 171 204
188 172 204
188 172 204
188 173 204
188 173 204
189 174 204
189 174 204
189 175 204
189 175 204
126 112 140
126 112 140
126 113 140
126 113 140
127 114 140
127 114 140
127 115 140
127 115 140
128 116 140
128 116 140
128 117 140
128 117 140
129 118 140
129 118 140
129 119 140
129 119 140
130 120 140
130 120 140
130 121 140
130 121 140
131 122 140
131 122 140
131 123 140
131 123 140
132 124 140
132 124 140
132 125 140
132 125 140
133 126 140
133 126 140
133 127 140
133 127 140
198 192 204
198 192 204
198 193 204
198 193 204
199 194 204
199 194 204
199 195 204
199 195 204
200 196 204
200 196 204
200 197 204
200 197 204
201 198 204
201 198 204
201 199 204
201 199 204
202 200 204
202 200 204
202 201 204
202 201 204
203 202 204
203 202 204
203 203 204
203 203 204
204 204 204
204 204 204
204 205 204
204 205 204
205 206 204
205 206 204
205 207 204
205 207 204
142 144 140
142 144 140
142 145 140
142 145 140
143 146 140
143 146 140
143 147 140
143 147 140
144 148 140
144 148 140
144 149 140
144 149 140
145 150 140
145 150 140
145 151 140
145 151 140
146 152 140
146 152 140
146 153 140
146 153 140
147 154 140
147 154 140
147 155 140
147 155 140
148 156 140
148 156 140
148 157 140
148 157 140
149 158 140
149 158 140
149 159 140
149 159 140
214 224 204
214 224 204
214 225 204
214 225 204
215 226 204
215 226 204
215 227 204
215 227 204
216 228 204
216 228 204
216 229 204
216 229 204
217 230 204
217 230 204
217 231 204
217 231 204
218 232 204
218 232 204
218 233 204
218 233 204
219 234 204
219 234 204
219 235 204
219 235 204
220 236 204
220 236 204
220 237 204
220 237 204
221 238 204
221 238 204
221 239 204
221 239 204
158 176 140
158 176 140
158 177 140
158 177 140
159 178 140
159 178 140
159 179 140
159 179 140
160 180 140
160 180 140
160 181 140
160 181 140
161 182 140
161 182 140
161 183 140
161 183 140
162 184 140
162 184 140
162 185 140
162 185 140
163 186 140
163 186 140
163 187 140
163 187 140
164 188 140
164 188 140
164 189 140
164 189 140
165 190 140
165 190 140
165 191 140
165 191 140
166 128 204
166 128 204
166 129 204
167 129 204
167 130 204
167 130 204
167 131 204
168 131 204
168 132 204
168 132 204
168 133 204
169 133 204
169 134 204
169 134 204
169 135 204
170 135 204
170 136 204
170 136 204
170 137 204
171 137 204
171 138 204
171 138 204
171 139 204
172 139 204
172 140 204
172 140 204
172 141 204
173 141 204
173 142 204
173 142 204
173 143 204
174 143 204
110 80 140
110 80 140
110 81 140
111 81 140
111 82 140
111 82 140
111 83 140
112 83 140
112 84 140
112 84 140
112 85 140
113 85 140
113 86 140
113 86 140
113 87 140
114 87 140
114 88 140
114 88 140
114 89 140
115 89 140
115 90 140
115 90 140
115 91 140
116 91 140
116 92 140
116 92 140
116 93 140
117 93 140
117 94 140
117 94 140
117 95 140
118 95 140
182 160 204
182 160 204
182 161 204
183 161 204
183 162 204
183 162 204
183 163 204
184 163 204
184 164 204
184 164 204
184 165 204
185 165 204
185 166 204
185 166 204
185 167 204
186 167 204
186 168 204
186 168 204
186 169 204
187 169 204
187 170 204
187 170 204
187 171 204
188 171 204
188 172 204
188 172 204
188 173 204
189 173 204
189 174 204
189 174 204
189 175 204
190 175 204
126 112 140
126 112 140
126 113 140
127 113 140
127 114 140
127 114 140
127 115 140
128 115 140
128 116 140
128 116 140
128 117 140
129 117 140
129 118 140
129 118 140
129 119 140
130 119 140
130 120 140
130 120 140
130 121 140
131 121 140
131 122 140
131 122 140
131 123 140
132 123 140
132 124 140
132 124 140
132 125 140
133 125 140
133 126 140
133 126 140
133 127 140
134 127 140
198 192 204
198 192 204
198 193 204
199 193 204
199 194 204
199 194 204
199 195 204
200 195 204
200 196 204
200 196 204
200 197 204
201 197 204
201 198 204
201 198 204
201 199 204
202 199 204
202 200 204
202 200 204
202 201 204
203 201 204
203 202 204
203 202 204
203 203 204
204 203 204
204 204 204
204 204 204
204 205 204
205 205 204
205 206 204
205 206 204
205 207 204
206 207 204
142 144 140
142 144 140
142 145 140
143 145 140
143 146 140
143 146 140
143 147 140
144 147 140
144 148 140
144 148 140
144 149 140
145 149 140
145 150 140
145 150 140
145 151 140
146 151 140
146 152 140
146 152 140
146 153 140
147 153 140
147 154 140
147 154 140
147 155 140
148 155 140
148 156 140
148 156 140
148 157 140
149 157 140
149 158 140
149 158 140
149 159 140
150 159 140
214 224 204
214 224 204
214 225 204
215 225 204
215 226 204
215 226 204
215 227 204
216 227 204
216 228 204
216 228 204
216 229 204
217 229 204
217 230 204
217 230 204
217 231 204
218 231 204
218 232 204
218 232 204
218 233 204
219 233 204
219 234 204
219 234 204
219 235 204
220 235 204
220 236 204
220 236 204
220 237 204
221 237 204
221 238 204
221 238 204
221 239 204
222 239 204
158 176 140
158 176 140
158 177 140
159 177 140
159 178 140
159 178 140
159 179 140
160 179 140
160 180 140
160 180 140
160 181 140
161 181 140
161 182 140
161 182 140
161 183 140
162 183 140
162 184 140
162 184 140
162 185 140
163 185 140
163 186 140
163 186 140
163 187 140
164 187 140
164 188 140
164 188 140
164 189 140
165 189 140
165 190 140
165 190 140
165 191 140
166 191 140
166 128 205
166 128 205
167 129 205
167 129 205
167 130 205
167 130 205
168 131 205
168 131 205
168 132 205
168 132 205
169 133 205
169 133 205
169 134 205
169 134 205
170 135 205
170 135 205
170 136 205
170 136 205
171 137 205
171 137 205
171 138 205
171 138 205
172 139 205
172 139 205
172 140 205
172 140 205
173 141 205
173 141 205
173 142 205
173 142 205
174 143 205
174 143 205
110 80 141
110 80 141
111 81 141
111 81 141
111 82 141
111 82 141
112 83 141
112 83 141
112 84 141
112 84 141
113 85 141
113 85 141
113 86 141
113 86 141
114 87 141
114 87 141
114 88 141
114 88 141
115 89 141
115 89 141
115 90 141
115 90 141
116 91 141
116 91 141
116 92 141
116 92 141
117 93 141
117 93 141
117 94 141
117 94 141
118 95 141
118 95 141
182 160 205
182 160 205
183 161 205
183 161 205
183 162 205
183 162 205
184 163 205
184 163 205
184 164 205
184 164 205
185 165 205
185 165 205
185 166 205
185 166 205
186 167 205
186 167 205
186 168 205
186 168 205
187 169 205
187 169 205
187 170 205
187 170 205
188 171 205
188 171 205
188 172 205
188 172 205
189 173 205
189 173 205
189 174 205
189 174 205
190 175 205
190 175 205
126 112 141
126 112 141
127 113 141
127 113 141
127 114 141
127 114 141
128 115 141
128 115 141
128 116 141
128 116 141
129 117 141
129 117 141
129 118 141
129 118 141
130 119 141
130 119 141
130 120 141
130 120 141
131 121 141
131 121 141
131 122 141
131 122 141
132 123 141
132 123 141
132 124 141
132 124 141
133 125 141
133 125 141
133 126 141
133 126 141
134 127 141
134 127 141
198 192 205
198 192 205
199 193 205
199 193 205
199 194 205
199 194 205
200 195 205
200 195 205
200 196 205
200 196 205
201 197 205
201 197 205
201 198 205
201 198 205
202 199 205
202 199 205
202 200 205
202 200 205
203 201 205
203 201 205
203 202 205
203 202 205
204 203 205
204 203 205
204 204 205
204 204 205
205 205 205
205 205 205
205 206 205
205 206 205
206 207 205
206 207 205
142 144 141
142 144 141
143 145 141
143 145 141
143 146 141
143 146 141
144 147 141
144 147 141
144 148 141
144 148 141
145 149 141
145 149 141
145 150 141
145 150 141
146 151 141
146 151 141
146 152 141
146 152 141
147 153 141
147 153 141
147 154 141
147 154 141
148 155 141
148 155 141
148 156 141
148 156 141
149 157 141
149 157 141
149 158 141
149 158 141
150 159 141
150 159 141
214 224 205
214 224 205
215 225 205
215 225 205
215 226 205
215 226 205
216 227 205
216 227 205
216 228 205
216 228 205
217 229 205
217 229 205
217 230 205
217 230 205
218 231 205
218 231 205
218 232 205
218 232 205
219 233 205
219 233 205
219 234 205
219 234 205
220 235 205
220 235 205
220 236 205
220 236 205
221 237 205
221 237 205
221 238 205
221 238 205
222 239 205
222 239 205
158 176 141
158 176 141
159 177 141
159 177 141
159 178 141
159 178 141
160 179 141
160 179 141
160 180 141
160 180 141
161 181 141
161 181 141
161 182 141
161 182 141
162 183 141
162 183 141
162 184 141
162 184 141
163 185 141
163 185 141
163 186 141
163 186 141
164 187 141
164 187 141
164 188 141
164 188 141
165 189 141
165 189 141
165 190 141
165 190 141
166 191 141
166 191 141
166 128 205
167 128 205
167 129 205
167 129 205
167 130 205
168 130 205
168 131 205
168 131 205
168 132 205
169 132 205
169 133 205
169 133 205
169 134 205
170 134 205
170 135 205
170 135 205
170 136 205
171 136 205
171 137 205
171 137 205
171 138 205
172 138 205
172 139 205
172 139 205
172 140 205
173 140 205
173 141 205
173 141 205
173 142 205
174 142 205
174 143 205
174 143 205
110 80 141
111 80 141
111 81 141
111 81 141
111 82 141
112 82 141
112 83 141
112 83 141
112 84 141
113 84 141
113 85 141
113 85 141
113 86 141
114 86 141
114 87 141
114 87 141
114 88 141
115 88 141
115 89 141
115 89 141
115 90 141
116 90 141
116 91 141
116 91 141
116 92 141
117 92 141
117 93 141
117 93 141
117 94 141
118 94 141
118 95 141
118 95 141
182 160 205
183 160 205
183 161 205
183 161 205
183 162 205
184 162 205
184 163 205
184 163 205
184 164 205
185 164 205
185 165 205
185 165 205
185 166 205
186 166 205
186 167 205
186 167 205
186 168 205
187 168 205
187 169 205
187 169 205
187 170 205
188 170 205
188 171 205
188 171 205
188 172 205
189 172 205
189 173 205
189 173 205
189 174 205
190 174 205
190 175 205
190 175 205
126 112 141
127 112 141
127 113 141
127 113 141
127 114 141
128 114 141
128 115 141
128 115 141
128 116 141
129 116 141
129 117 141
129 117 141
129 118 141
130 118 141
130 119 141
130 119 141
130 120 141
131 120 141
131 121 141
131 121 141
131 122 141
132 122 141
132 123 141
132 123 141
132 124 141
133 124 141
133 125 141
133 125 141
133 126 141
134 126 141
134 127 141
134 127 141
198 192 205
199 192 205
199 193 205
199 193 205
199 194 205
200 194 205
200 195 205
200 195 205
200 196 205
201 196 205
201 197 205
201 197 205
201 198 205
202 198 205
202 199 205
202 199 205
202 200 205
203 200 205
203 201 205
203 201 205
203 202 205
204 202 205
204 203 205
204 203 205
204 204 205
205 204 205
205 205 205
205 205 205
205 206 205
206 206 205
206 207 205
206 207 205
142 144 141
143 144 141
143 145 141
143 145 141
143 146 141
144 146 141
144 147 141
144 147 141
144 148 141
145 148 141
145 149 141
145 149 141
145 150 141
146 150 141
146 151 141
146 151 141
146 152 141
147 152 141
147 153 141
147 153 141
147 154 141
148 154 141
148 155 141
148 155 141
148 156 141
149 156 141
149 157 141
149 157 141
149 158 141
150 158 141
150 159 141
150 159 141
214 224 205
215 224 205
215 225 205
215 225 205
215 226 205
216 226 205
216 227 205
216 227 205
216 228 205
217 228 205
217 229 205
217 229 205
217 230 205
218 230 205
218 231 205
218 231 205
218 232 205
219 232 205
219 233 205
219 233 205
219 234 205
220 234 205
220 235 205
220 235 205
220 236 205
221 236 205
221 237 205
221 237 205
221 238 205
222 238 205
222 239 205
222 239 205
158 176 141
159 176 141
159 177 141
159 177 141
159 178 141
160 178 141
160 179 141
160 179 141
160 180 141
161 180 141
161 181 141
161 181 141
161 182 141
162 182 141
162 183 141
162 183 141
162 184 141
163 184 141
163 185 141
163 185 141
163 186 141
164 186 141
164 187 141
164 187 141
164 188 141
165 188 141
165 189 141
165 189 141
165 190 141
166 190 141
166 191 141
166 191 141
167 128 206
167 128 206
167 129 206
167 129 206
168 130 206
168 130 206
168 131 206
168 131 206
169 132 206
169 132 206
169 133 206
169 133 206
170 134 206
170 134 206
170 135 206
170 135 206
171 136 206
171 136 206
171 137 206
171 137 206
172 138 206
172 138 206
172 139 206
172 139 206
173 140 206
173 140 206
173 141 206
173 141 206
174 142 206
174 142 206
174 143 206
174 143 206
111 80 142
111 80 142
111 81 142
111 81 142
112 82 142
112 82 142
112 83 142
112 83 142
113 84 142
113 84 142
113 85 142
113 85 142
114 86 142
114 86 142
114 87 142
114 87 142
115 88 142
115 88 142
115 89 142
115 89 142
116 90 142
116 90 142
116 91 142
116 91 142
117 92 142
117 92 142
117 93 142
117 93 142
118 94 142
118 94 142
118 95 142
118 95 142
183 160 206
183 160 206
183 161 206
183 161 206
184 162 206
184 162 206
184 163 206
184 163 206
185 164 206
185 164 206
185 165 206
185 165 206
186 166 206
186 166 206
186 167 206
186 167 206
187 168 206
187 168 206
187 169 206
187 169 206
188 170 206
188 170 206
188 171 206
188 171 206
189 172 206
189 172 206
189 173 206
189 173 206
190 174 206
190 174 206
190 175 206
190 175 206
127 112 142
127 112 142
127 113 142
127 113 142
128 114 142
128 114 142
128 115 142
128 115 142
129 116 142
129 116 142
129 117 142
129 117 142
130 118 142
130 118 142
130 119 142
130 119 142
131 120 142
131 120 142
131 121 142
131 121 142
132 122 142
132 122 142
132 123 142
132 123 142
133 124 142
133 124 142
133 125 142
133 125 142
134 126 142
134 126 142
134 127 142
134 127 142
199 192 206
199 192 206
199 193 206
199 193 206
200 194 206
200 194 206
200 195 206
200 195 206
201 196 206
201 196 206
201 197 206
201 197 206
202 198 206
202 198 206
202 199 206
202 199 206
203 200 206
203 200 206
203 201 206
203 201 206
204 202 206
204 202 206
204 203 206
204 203 206
205 204 206
205 204 206
205 205 206
205 205 206
206 206 206
206 206 206
206 207 206
206 207 206
143 144 142
143 144 142
143 145 142
143 145 142
144 146 142
144 146 142
144 147 142
144 147 142
145 148 142
145 148 142
145 149 142
145 149 142
146 150 142
146 150 142
146 151 142
146 151 142
147 152 142
147 152 142
147 153 142
147 153 142
148 154 142
148 154 142
148 155 142
148 155 142
149 156 142
149 156 142
149 157 142
149 157 142
150 158 142
150 158 142
150 159 142
150 159 142
215 224 206
215 224 206
215 225 206
215 225 206
216 226 206
216 226 206
216 227 206
216 227 206
217 228 206
217 228 206
217 229 206
217 229 206
218 230 206
218 230 206
218 231 206
218 231 206
219 232 206
219 232 206
219 233 206
219 233 206
220 234 206
220 234 206
220 235 206
220 235 206
221 236 206
221 236 206
221 237 206
221 237 206
222 238 206
222 238 206
222 239 206
222 239 206
159 176 142
159 176 142
159 177 142
159 177 142
160 178 142
160 178 142
160 179 142
160 179 142
161 180 142
161 180 142
161 181 142
161 181 142
162 182 142
162 182 142
162 183 142
162 183 142
163 184 142
163 184 142
163 185 142
163 185 142
164 186 142
164 186 142
164 187 142
164 187 142
165 188 142
165 188 142
165 189 142
165 189 142
166 190 142
166 190 142
166 191 142
166 191 142
167 128 206
167 128 206
167 129 206
168 129 206
168 130 206
168 130 206
168 131 206
169 131 206
169 132 206
169 132 206
169 133 206
170 133 206
170 134 206
170 134 206
170 135 206
171 135 206
171 136 206
171 136 206
171 137 206
172 137 206
172 138 206
172 138 206
172 139 206
173 139 206
173 140 206
173 140 206
173 141 206
174 141 206
174 142 206
174 142 206
174 143 206
175 143 206
111 80 142
111 80 142
111 81 142
112 81 142
112 82 142
112 82 142
112 83 142
113 83 142
113 84 142
113 84 142
113 85 142
114 85 142
114 86 142
114 86 142
114 87 142
115 87 142
115 88 142
115 88 142
115 89 142
116 89 142
116 90 142
116 90 142
116 91 142
117 91 142
117 92 142
117 92 142
117 93 142
118 93 142
118 94 142
118 94 142
118 95 142
119 95 142
183 160 206
183 160 206
183 161 206
184 161 206
184 162 206
184 162 206
184 163 206
185 163 206
185 164 206
185 164 206
185 165 206
186 165 206
186 166 206
186 166 206
186 167 206
187 167 206
187 168 206
187 168 206
187 169 206
188 169 206
188 170 206
188 170 206
188 171 206
189 171 206
189 172 206
189 172 206
189 173 206
190 173 206
190 174 206
190 174 206
190 175 206
191 175 206
127 112 142
127 112 142
127 113 142
128 113 142
128 114 142
128 114 142
128 115 142
129 115 142
129 116 142
129 116 142
129 117 142
130 117 142
130 118 142
130 118 142
130 119 142
131 119 142
131 120 142
131 120 142
131 121 142
132 121 142
132 122 142
132 122 142
132 123 142
133 123 142
133 124 142
133 124 142
133 125 142
134 125 142
134 126 142
134 126 142
134 127 142
135 127 142
199 192 206
199 192 206
199 193 206
200 193 206
200 194 206
200 194 206
200 195 206
201 195 206
201 196 206
201 196 206
201 197 206
202 197 206
202 198 206
202 198 206
202 199 206
203 199 206
203 200 206
203 200 206
203 201 206
204 201 206
204 202 206
204 202 206
204 203 206
205 203 206
205 204 206
205 204 206
205 205 206
206 205 206
206 206 206
206 206 206
206 207 206
207 207 206
143 144 142
143 144 142
143 145 142
144 145 142
144 146 142
144 146 142
144 147 142
145 147 142
145 148 142
145 148 142
145 149 142
146 149 142
146 150 142
146 150 142
146 151 142
147 151 142
147 152 142
147 152 142
147 153 142
148 153 142
148 154 142
148 154 142
148 155 142
149 155 142
149 156 142
149 156 142
149 157 142
150 157 142
150 158 142
150 158 142
150 159 142
151 159 142
215 224 206
215 224 206
215 225 206
216 225 206
216 226 206
216 226 206
216 227 206
217 227 206
217 228 206
217 228 206
217 229 206
218 229 206
218 230 206
218 230 206
218 231 206
219 231 206
219 232 206
219 232 206
219 233 206
220 233 206
220 234 206
220 234 206
220 235 206
221 235 206
221 236 206
221 236 206
221 237 206
222 237 206
222 238 206
222 238 206
222 239 206
223 239 206
159 176 142
159 176 142
159 177 142
160 177 142
160 178 142
160 178 142
160 179 142
161 179 142
161 180 142
161 180 142
161 181 142
162 181 142
162 182 142
162 182 142
162 183 142
163 183 142
163 184 142
163 184 142
163 185 142
164 185 142
164 186 142
164 186 142
164 187 142
165 187 142
165 188 142
165 188 142
165 189 142
166 189 142
166 190 142
166 190 142
166 191 142
167 191 142
167 128 207
167 128 207
168 129 207
168 129 207
168 130 207
168 130 207
169 131 207
169 131 207
169 132 207
169 132 207
170 133 207
170 133 207
170 134 207
170 134 207
171 135 207
171 135 207
171 136 207
171 136 207
172 137 207
172 137 207
172 138 207
172 138 207
173 139 207
173 139 207
173 140 207
173 140 207
174 141 207
174 141 207
174 142 207
174 142 207
175 143 207
175 143 207
111 80 143
111 80 143
112 81 143
112 81 143
112 82 143
112 82 143
113 83 143
113 83 143
113 84 143
113 84 143
114 85 143
114 85 143
114 86 143
114 86 143
115 87 143
115 87 143
115 88 143
115 88 143
116 89 143
116 89 143
116 90 143
116 90 143
117 91 143
117 91 143
117 92 143
117 92 143
118 93 143
118 93 143
118 94 143
118 94 143
119 95 143
119 95 143
183 160 207
183 160 207
184 161 207
184 161 207
184 162 207
184 162 207
185 163 207
185 163 207
185 164 207
185 164 207
186 165 207
186 165 207
186 166 207
186 166 207
187 167 207
187 167 207
187 168 207
187 168 207
188 169 207
188 169 207
188 170 207
188 170 207
189 171 207
189 171 207
189 172 207
189 172 207
190 173 207
190 173 207
190 174 207
190 174 207
191 175 207
191 175 207
127 112 143
127 112 143
128 113 143
128 113 143
128 114 143
128 114 143
129 115 143
129 115 143
129 116 143
129 116 143
130 117 143
130 117 143
130 118 143
130 118 143
131 119 143
131 119 143
131 120 143
131 120 143
132 121 143
132 121 143
132 122 143
132 122 143
133 123 143
133 123 143
133 124 143
133 124 143
134 125 143
134 125 143
134 126 143
134 126 143
135 127 143
135 127 143
199 192 207
199 192 207
200 193 207
200 193 207
200 194 207
200 194 207
201 195 207
201 195 207
201 196 207
201 196 207
202 197 207
202 197 207
202 198 207
202 198 207
203 199 207
203 199 207
203 200 207
203 200 207
204 201 207
204 201 207
204 202 207
204 202 207
205 203 207
205 203 207
205 204 207
205 204 207
206 205 207
206 205 207
206 206 207
206 206 207
207 207 207
207 207 207
143 144 143
143 144 143
144 145 143
144 145 143
144 146 143
144 146 143
145 147 143
145 147 143
145 148 143
145 148 143
146 149 143
146 149 143
146 150 143
146 150 143
147 151 143
147 151 143
147 152 143
147 152 143
148 153 143
148 153 143
148 154 143
148 154 143
149 155 143
149 155 143
149 156 143
149 156 143
150 157 143
150 157 143
150 158 143
150 158 143
151 159 143
151 159 143
215 224 207
215 224 207
216 225 207
216 225 207
216 226 207
216 226 207
217 227 207
217 227 207
217 228 207
217 228 207
218 229 207
218 229 207
218 230 207
218 230 207
219 231 207
219 231 207
219 232 207
219 232 207
220 233 207
220 233 207
220 234 207
220 234 207
221 235 207
221 235 207
221 236 207
221 236 207
222 237 207
222 237 207
222 238 207
222 238 207
223 239 207
223 239 207
159 176 143
159 176 143
160 177 143
160 177 143
160 178 143
160 178 143
161 179 143
161 179 143
161 180 143
161 180 143
162 181 143
162 181 143
162 182 143
162 182 143
163 183 143
163 183 143
163 184 143
163 184 143
164 185 143
164 185 143
164 186 143
164 186 143
165 187 143
165 187 143
165 188 143
165 188 143
166 189 143
166 189 143
166 190 143
166 190 143
167 191 143
167 191 143
167 128 207
168 128 207
168 129 207
168 129 207
168 130 207
169 130 207
169 131 207
169 131 207
169 132 207
170 132 207
170 133 207
170 133 207
170 134 207
171 134 207
171 135 207
171 135 207
171 136 207
172 136 207
172 137 207
172 137 207
172 138 207
173 138 207
173 139 207
173 139 207
173 140 207
174 140 207
174 141 207
174 141 207
174 142 207
175 142 207
175 143 207
175 143 207
111 80 143
112 80 143
112 81 143
112 81 143
112 82 143
113 82 143
113 83 143
113 83 143
113 84 143
114 84 143
114 85 143
114 85 143
114 86 143
115 86 143
115 87 143
115 87 143
115 88 143
116 88 143
116 89 143
116 89 143
116 90 143
117 90 143
117 91 143
117 91 143
117 92 143
118 92 143
118 93 143
118 93 143
118 94 143
119 94 143
119 95 143
119 95 143
183 160 207
184 160 207
184 161 207
184 161 207
184 162 207
185 162 207
185 163 207
185 163 207
185 164 207
186 164 207
186 165 207
186 165 207
186 166 207
187 166 207
187 167 207
187 167 207
187 168 207
188 168 207
188 169 207
188 169 207
188 170 207
189 170 207
189 171 207
189 171 207
189 172 207
190 172 207
190 173 207
190 173 207
190 174 207
191 174 207
191 175 207
191 175 207
127 112 143
128 112 143
128 113 143
128 113 143
128 114 143
129 114 143
129 115 143
129 115 143
129 116 143
130 116 143
130 117 143
130 117 143
130 118 143
131 118 143
131 119 143
131 119 143
131 120 143
132 120 143
132 121 143
132 121 143
132 122 143
133 122 143
133 123 143
133 123 143
133 124 143
134 124 143
134 125 143
134 125 143
134 126 143
135 126 143
135 127 143
135 127 143
199 192 207
200 192 207
200 193 207
200 193 207
200 194 207
201 194 207
201 195 207
201 195 207
201 196 207
202 196 207
202 197 207
202 197 207
202 198 207
203 198 207
203 199 207
203 199 207
203 200 207
204 200 207
204 201 207
204 201 207
204 202 207
205 202 207
205 203 207
205 203 207
205 204 207
206 204 207
206 205 207
206 205 207
206 206 207
207 206 207
207 207 207
207 207 207
143 144 143
144 144 143
144 145 143
144 145 143
144 146 143
145 146 143
145 147 143
145 147 143
145 148 143
146 148 143
146 149 143
146 149 143
146 150 143
147 150 143
147 151 143
147 151 143
147 152 143
148 152 143
148 153 143
148 153 143
148 154 143
149 154 143
149 155 143
149 155 143
149 156 143
150 156 143
150 157 143
150 157 143
150 158 143
151 158 143
151 159 143
151 159 143
215 224 207
216 224 207
216 225 207
216 225 207
216 226 207
217 226 207
217 227 207
217 227 207
217 228 207
218 228 207
218 229 207
218 229 207
218 230 207
219 230 207
219 231 207
219 231 207
219 232 207
220 232 207
220 233 207
220 233 207
220 234 207
221 234 207
221 235 207
221 235 207
221 236 207
222 236 207
222 237 207
222 237 207
222 238 207
223 238 207
223 239 207
223 239 207
159 176 143
160 176 143
160 177 143
160 177 143
160 178 143
161 178 143
161 179 143
161 179 143
161 180 143
162 180 143
162 181 143
162 181 143
162 182 143
163 182 143
163 183 143
163 183 143
163 184 143
164 184 143
164 185 143
164 185 143
164 186 143
165 186 143
165 187 143
165 187 143
165 188 143
166 188 143
166 189 143
166 189 143
166 190 143
167 190 143
167 191 143
167 191 143
104 64 144
104 64 144
104 65 144
104 65 144
105 66 144
105 66 144
105 67 144
105 67 144
106 68 144
106 68 144
106 69 144
106 69 144
107 70 144
107 70 144
107 71 144
107 71 144
108 72 144
108 72 144
108 73 144
108 73 144
109 74 144
109 74 144
109 75 144
109 75 144
110 76 144
110 76 144
110 77 144
110 77 144
111 78 144
111 78 144
111 79 144
111 79 144
176 144 208
176 144 208
176 145 208
176 145 208
177 146 208
177 146 208
177 147 208
177 147 208
178 148 208
178 148 208
178 149 208
178 149 208
179 150 208
179 150 208
179 151 208
179 151 208
180 152 208
180 152 208
180 153 208
180 153 208
181 154 208
181 154 208
181 155 208
181 155 208
182 156 208
182 156 208
182 157 208
182 157 208
183 158 208
183 158 208
183 159 208
183 159 208
120 96 144
120 96 144
120 97 144
120 97 144
121 98 144
121 98 144
121 99 144
121 99 144
122 100 144
122 100 144
122 101 144
122 101 144
123 102 144
123 102 144
123 103 144
123 103 144
124 104 144
124 104 144
124 105 144
124 105 144
125 106 144
125 106 144
125 107 144
125 107 144
126 108 144
126 108 144
126 109 144
126 109 144
127 110 144
127 110 144
127 111 144
127 111 144
192 176 208
192 176 208
192 177 208
192 177 208
193 178 208
193 178 208
193 179 208
193 179 208
194 180 208
194 180 208
194 181 208
194 181 208
195 182 208
195 182 208
195 183 208
195 183 208
196 184 208
196 184 208
196 185 208
196 185 208
197 186 208
197 186 208
197 187 208
197 187 208
198 188 208
198 188 208
198 189 208
198 189 208
199 190 208
199 190 208
199 191 208
199 191 208
136 128 144
136 128 144
136 129 144
136 129 144
137 130 144
137 130 144
137 131 144
137 131 144
138 132 144
138 132 144
138 133 144
138 133 144
139 134 144
139 134 144
139 135 144
139 135 144
140 136 144
140 136 144
140 137 144
140 137 144
141 138 144
141 138 144
141 139 144
141 139 144
142 140 144
142 140 144
142 141 144
142 141 144
143 142 144
143 142 144
143 143 144
143 143 144
208 208 208
208 208 208
208 209 208
208 209 208
209 210 208
209 210 208
209 211 208
209 211 208
210 212 208
210 212 208
210 213 208
210 213 208
211 214 208
211 214 208
211 215 208
211 215 208
212 216 208
212 216 208
212 217 208
212 217 208
213 218 208
213 218 208
213 219 208
213 219 208
214 220 208
214 220 208
214 221 208
214 221 208
215 222 208
215 222 208
215 223 208
215 223 208
152 160 144
152 160 144
152 161 144
152 161 144
153 162 144
153 162 144
153 163 144
153 163 144
154 164 144
154 164 144
154 165 144
154 165 144
155 166 144
155 166 144
155 167 144
155 167 144
156 168 144
156 168 144
156 169 144
156 169 144
157 170 144
157 170 144
157 171 144
157 171 144
158 172 144
158 172 144
158 173 144
158 173 144
159 174 144
159 174 144
159 175 144
159 175 144
224 240 208
224 240 208
224 241 208
224 241 208
225 242 208
225 242 208
225 243 208
225 243 208
226 244 208
226 244 208
226 245 208
226 245 208
227 246 208
227 246 208
227 247 208
227 247 208
228 248 208
228 248 208
228 249 208
228 249 208
229 250 208
229 250 208
229 251 208
229 251 208
230 252 208
230 252 208
230 253 208
230 253 208
231 254 208
231 254 208
231 255 208
231 255 208
104 64 144
104 64 144
104 65 144
105 65 144
105 66 144
105 66 144
105 67 144
106 67 144
106 68 144
106 68 144
106 69 144
107 69 144
107 70 144
107 70 144
107 71 144
108 71 144
108 72 144
108 72 144
108 73 144
109 73 144
109 74 144
109 74 144
109 75 144
110 75 144
110 76 144
110 76 144
110 77 144
111 77 144
111 78 144
111 78 144
111 79 144
112 79 144
176 144 208
176 144 208
176 145 208
177 145 208
177 146 208
177 146 208
177 147 208
178 147 208
178 148 208
178 148 208
178 149 208
179 149 208
179 150 208
179 150 208
179 151 208
180 151 208
180 152 208
180 152 208
180 153 208
181 153 208
181 154 208
181 154 208
181 155 208
182 155 208
182 156 208
182 156 208
182 157 208
183 157 208
183 158 208
183 158 208
183 159 208
184 159 208
120 96 144
120 96 144
120 97 144
121 97 144
121 98 144
121 98 144
121 99 144
122 99 144
122 100 144
122 100 144
122 101 144
123 101 144
123 102 144
123 102 144
123 103 144
124 103 144
124 104 144
124 104 144
124 105 144
125 105 144
125 106 144
125 106 144
125 107 144
126 107 144
126 108 144
126 108 144
126 109 144
127 109 144
127 110 144
127 110 144
127 111 144
128 111 144
192 176 208
192 176 208
192 177 208
193 177 208
193 178 208
193 178 208
193 179 208
194 179 208
194 180 208
194 180 208
194 181 208
195 181 208
195 182 208
195 182 208
195 183 208
196 183 208
196 184 208
196 184 208
196 185 208
197 185 208
197 186 208
197 186 208
197 187 208
198 187 208
198 188 208
198 188 208
198 189 208
199 189 208
199 190 208
199 190 208
199 191 208
200 191 208
136 128 144
136 128 144
136 129 144
137 129 144
137 130 144
137 130 144
137 131 144
138 131 144
138 132 144
138 132 144
138 133 144
139 133 144
139 134 144
139 134 144
139 135 144
140 135 144
140 136 144
140 136 144
140 137 144
141 137 144
141 138 144
141 138 144
141 139 144
142 139 144
142 140 144
142 140 144
142 141 144
143 141 144
143 142 144
143 142 144
143 143 144
144 143 144
208 208 208
208 208 208
208 209 208
209 209 208
209 210 208
209 210 208
209 211 208
210 211 208
210 212 208
210 212 208
210 213 208
211 213 208
211 214 208
211 214 208
211 215 208
212 215 208
212 216 208
212 216 208
212 217 208
213 217 208
213 218 208
213 218 208
213 219 208
214 219 208
214 220 208
214 220 208
214 221 208
215 221 208
215 222 208
215 222 208
215 223 208
216 223 208
152 160 144
152 160 144
152 161 144
153 161 144
153 162 144
153 162 144
153 163 144
154 163 144
154 164 144
154 164 144
154 165 144
155 165 144
155 166 144
155 166 144
155 167 144
156 167 144
156 168 144
156 168 144
156 169 144
157 169 144
157 170 144
157 170 144
157 171 144
158 171 144
158 172 144
158 172 144
158 173 144
159 173 144
159 174 144
159 174 144
159 175 144
160 175 144
224 240 208
224 240 208
224 241 208
225 241 208
225 242 208
225 242 208
225 243 208
226 243 208
226 244 208
226 244 208
226 245 208
227 245 208
227 246 208
227 246 208
227 247 208
228 247 208
228 248 208
228 248 208
228 249 208
229 249 208
229 250 208
229 250 208
229 251 208
230 251 208
230 252 208
230 252 208
230 253 208
231 253 208
231 254 208
231 254 208
231 255 208
232 255 208
104 64 145
104 64 145
105 65 145
105 65 145
105 66 145
105 66 145
106 67 145
106 67 145
106 68 145
106 68 145
107 69 145
107 69 145
107 70 145
107 70 145
108 71 145
108 71 145
108 72 145
108 72 145
109 73 145
109 73 145
109 74 145
109 74 145
110 75 145
110 75 145
110 76 145
110 76 145
111 77 145
111 77 145
111 78 145
111 78 145
112 79 145
112 79 145
176 144 209
176 144 209
177 145 209
177 145 209
177 146 209
177 146 209
178 147 209
178 147 209
178 148 209
178 148 209
179 149 209
179 149 209
179 150 209
179 150 209
180 151 209
180 151 209
180 152 209
180 152 209
181 153 209
181 153 209
181 154 209
181 154 209
182 155 209
182 155 209
182 156 209
182 156 209
183 157 209
183 157 209
183 158 209
183 158 209
184 159 209
184 159 209
120 96 145
120 96 145
121 97 145
121 97 145
121 98 145
121 98 145
122 99 145
122 99 145
122 100 145
122 100 145
123 101 145
123 101 145
123 102 145
123 102 145
124 103 145
124 103 145
124 104 145
124 104 145
125 105 145
125 105 145
125 106 145
125 106 145
126 107 145
126 107 145
126 108 145
126 108 145
127 109 145
127 109 145
127 110 145
127 110 145
128 111 145
128 111 145
192 176 209
192 176 209
193 177 209
193 177 209
193 178 209
193 178 209
194 179 209
194 179 209
194 180 209
194 180 209
195 181 209
195 181 209
195 182 209
195 182 209
196 183 209
196 183 209
196 184 209
196 184 209
197 185 209
197 185 209
197 186 209
197 186 209
198 187 209
198 187 209
198 188 209
198 188 209
199 189 209
199 189 209
199 190 209
199 190 209
200 191 209
200 191 209
136 128 145
136 128 145
137 129 145
137 129 145
137 130 145
137 130 145
138 131 145
138 131 145
138 132 145
138 132 145
139 133 145
139 133 145
139 134 145
139 134 145
140 135 145
140 135 145
140 136 145
140 136 145
141 137 145
141 137 145
141 138 145
141 138 145
142 139 145
142 139 145
142 140 145
142 140 145
143 141 145
143 141 145
143 142 145
143 142 145
144 143 145
144 143 145
208 208 209
208 208 209
209 209 209
209 209 209
209 210 209
209 210 209
210 211 209
210 211 209
210 212 209
210 212 209
211 213 209
211 213 209
211 214 209
211 214 209
212 215 209
212 215 209
212 216 209
212 216 209
213 217 209
213 217 209
213 218 209
213 218 209
214 219 209
214 219 209
214 220 209
214 220 209
215 221 209
215 221 209
215 222 209
215 222 209
216 223 209
216 223 209
152 160 145
152 160 145
153 161 145
153 161 145
153 162 145
153 162 145
154 163 145
154 163 145
154 164 145
154 164 145
155 165 145
155 165 145
155 166 145
155 166 145
156 167 145
156 167 145
156 168 145
156 168 145
157 169 145
157 169 145
157 170 145
157 170 145
158 171 145
158 171 145
158 172 145
158 172 145
159 173 145
159 173 145
159 174 145
159 174 145
160 175 145
160 175 145
224 240 209
224 240 209
225 241 209
225 241 209
225 242 209
225 242 209
226 243 209
226 243 209
226 244 209
226 244 209
227 245 209
227 245 209
227 246 209
227 246 209
228 247 209
228 247 209
228 248 209
228 248 209
229 249 209
229 249 209
229 250 209
229 250 209
230 251 209
230 251 209
230 252 209
230 252 209
231 253 209
231 253 209
231 254 209
231 254 209
232 255 209
232 255 209
104 64 145
105 64 145
105 65 145
105 65 145
105 66 145
106 66 145
106 67 145
106 67 145
106 68 145
107 68 145
107 69 145
107 69 145
107 70 145
108 70 145
108 71 145
108 71 145
108 72 145
109 72 145
109 73 145
109 73 145
109 74 145
110 74 145
110 75 145
110 75 145
110 76 145
111 76 145
111 77 145
111 77 145
111 78 145
112 78 145
112 79 145
112 79 145
176 144 209
177 144 209
177 145 209
177 145 209
177 146 209
178 146 209
178 147 209
178 147 209
178 148 209
179 148 209
179 149 209
179 149 209
179 150 209
180 150 209
180 151 209
180 151 209
180 152 209
181 152 209
181 153 209
181 153 209
181 154 209
182 154 209
182 155 209
182 155 209
182 156 209
183 156 209
183 157 209
183 157 209
183 158 209
184 158 209
184 159 209
184 159 209
120 96 145
121 96 145
121 97 145
121 97 145
121 98 145
122 98 145
122 99 145
122 99 145
122 100 145
123 100 145
123 101 145
123 101 145
123 102 145
124 102 145
124 103 145
124 103 145
124 104 145
125 104 145
125 105 145
125 105 145
125 106 145
126 106 145
126 107 145
126 107 145
126 108 145
127 108 145
127 109 145
127 109 145
127 110 145
128 110 145
128 111 145
128 111 145
192 176 209
193 176 209
193 177 209
193 177 209
193 178 209
194 178 209
194 179 209
194 179 209
194 180 209
195 180 209
195 181 209
195 181 209
195 182 209
196 182 209
196 183 209
196 183 209
196 184 209
197 184 209
197 185 209
197 185 209
197 186 209
198 186 209
198 187 209
198 187 209
198 188 209
199 188 209
199 189 209
199 189 209
199 190 209
200 190 209
200 191 209
200 191 209
136 128 145
137 128 145
137 129 145
137 129 145
137 130 145
138 130 145
138 131 145
138 131 145
138 132 145
139 132 145
139 133 145
139 133 145
139 134 145
140 134 145
140 135 145
140 135 145
140 136 145
141 136 145
141 137 145
141 137 145
141 138 145
142 138 145
142 139 145
142 139 145
142 140 145
143 140 145
143 141 145
143 141 145
143 142 145
144 142 145
144 143 145
144 143 145
208 208 209
209 208 209
209 209 209
209 209 209
209 210 209
210 210 209
210 211 209
210 211 209
210 212 209
211 212 209
211 213 209
211 213 209
211 214 209
212 214 209
212 215 209
212 215 209
212 216 209
213 216 209
213 217 209
213 217 209
213 218 209
214 218 209
214 219 209
214 219 209
214 220 209
215 220 209
215 221 209
215 221 209
215 222 209
216 222 209
216 223 209
216 223 209
152 160 145
153 160 145
153 161 145
153 161 145
153 162 145
154 162 145
154 163 145
154 163 145
154 164 145
155 164 145
155 165 145
155 165 145
155 166 145
156 166 145
156 167 145
156 167 145
156 168 145
157 168 145
157 169 145
157 169 145
157 170 145
158 170 145
158 171 145
158 171 145
158 172 145
159 172 145
159 173 145
159 173 145
159 174 145
160 174 145
160 175 145
160 175 145
224 240 209
225 240 209
225 241 209
225 241 209
225 242 209
226 242 209
226 243 209
226 243 209
226 244 209
227 244 209
227 245 209
227 245 209
227 246 209
228 246 209
228 247 209
228 247 209
228 248 209
229 248 209
229 249 209
229 249 209
229 250 209
230 250 209
230 251 209
230 251 209
230 252 209
231 252 209
231 253 209
231 253 209
231 254 209
232 254 209
232 255 209
232 255 209
105 64 146
105 64 146
105 65 146
105 65 146
106 66 146
106 66 146
106 67 146
106 67 146
107 68 146
107 68 146
107 69 146
107 69 146
108 70 146
108 70 146
108 71 146
108 71 146
109 72 146
109 72 146
109 73 146
109 73 146
110 74 146
110 74 146
110 75 146
110 75 146
111 76 146
111 76 146
111 77 146
111 77 146
112 78 146
112 78 146
112 79 146
112 79 146
177 144 210
177 144 210
177 145 210
177 145 210
178 146 210
178 146 210
178 147 210
178 147 210
179 148 210
179 148 210
179 149 210
179 149 210
180 150 210
180 150 210
180 151 210
180 151 210
181 152 210
181 152 210
181 153 210
181 153 210
182 154 210
182 154 210
182 155 210
182 155 210
183 156 210
183 156 210
183 157 210
183 157 210
184 158 210
184 158 210
184 159 210
184 159 210
121 96 146
121 96 146
121 97 146
121 97 146
122 98 146
122 98 146
122 99 146
122 99 146
123 100 146
123 100 146
123 101 146
123 101 146
124 102 146
124 102 146
124 103 146
124 103 146
125 104 146
125 104 146
125 105 146
125 105 146
126 106 146
126 106 146
126 107 146
126 107 146
127 108 146
127 108 146
127 109 146
127 109 146
128 110 146
128 110 146
128 111 146
128 111 146
193 176 210
193 176 210
193 177 210
193 177 210
194 178 210
194 178 210
194 179 210
194 179 210
195 180 210
195 180 210
195 181 210
195 181 210
196 182 210
196 182 210
196 183 210
196 183 210
197 184 210
197 184 210
197 185 210
197 185 210
198 186 210
198 186 210
198 187 210
198 187 210
199 188 210
199 188 210
199 189 210
199 189 210
200 190 210
200 190 210
200 191 210
200 191 210
137 128 146
137 128 146
137 129 146
137 129 146
138 130 146
138 130 146
138 131 146
138 131 146
139 132 146
139 132 146
139 133 146
139 133 146
140 134 146
140 134 146
140 135 146
140 135 146
141 136 146
141 136 146
141 137 146
141 137 146
142 138 146
142 138 146
142 139 146
142 139 146
143 140 146
143 140 146
143 141 146
143 141 146
144 142 146
144 142 146
144 143 146
144 143 146
209 208 210
209 208 210
209 209 210
209 209 210
210 210 210
210 210 210
210 211 210
210 211 210
211 212 210
211 212 210
211 213 210
211 213 210
212 214 210
212 214 210
212 215 210
212 215 210
213 216 210
213 216 210
213 217 210
213 217 210
214 218 210
214 218 210
214 219 210
214 219 210
215 220 210
215 220 210
215 221 210
215 221 210
216 222 210
216 222 210
216 223 210
216 223 210
153 160 146
153 160 146
153 161 146
153 161 146
154 162 146
154 162 146
154 163 146
154 163 146
155 164 146
155 164 146
155 165 146
155 165 146
156 166 146
156 166 146
156 167 146
156 167 146
157 168 146
157 168 146
157 169 146
157 169 146
158 170 146
158 170 146
158 171 146
158 171 146
159 172 146
159 172 146
159 173 146
159 173 146
160 174 146
160 174 146
160 175 146
160 175 146
225 240 210
225 240 210
225 241 210
225 241 210
226 242 210
226 242 210
226 243 210
226 243 210
227 244 210
227 244 210
227 245 210
227 245 210
228 246 210
228 246 210
228 247 210
228 247 210
229 248 210
229 248 210
229 249 210
229 249 210
230 250 210
230 250 210
230 251 210
230 251 210
231 252 210
231 252 210
231 253 210
231 253 210
232 254 210
232 254 210
232 255 210
232 255 210
105 64 146
105 64 146
105 65 146
106 65 146
106 66 146
106 66 146
106 67 146
107 67 146
107 68 146
107 68 146
107 69 146
108 69 146
108 70 146
108 70 146
108 71 146
109 71 146
109 72 146
109 72 146
109 73 146
110 73 146
110 74 146
110 74 146
110 75 146
111 75 146
111 76 146
111 76 146
111 77 146
112 77 146
112 78 146
112 78 146
112 79 146
113 79 146
177 144 210
177 144 210
177 145 210
178 145 210
178 146 210
178 146 210
178 147 210
179 147 210
179 148 210
179 148 210
179 149 210
180 149 210
180 150 210
180 150 210
180 151 210
181 151 210
181 152 210
181 152 210
181 153 210
182 153 210
182 154 210
182 154 210
182 155 210
183 155 210
183 156 210
183 156 210
183 157 210
184 157 210
184 158 210
184 158 210
184 159 210
185 159 210
121 96 146
121 96 146
121 97 146
122 97 146
122 98 146
122 98 146
122 99 146
123 99 146
123 100 146
123 100 146
123 101 146
124 101 146
124 102 146
124 102 146
124 103 146
125 103 146
125 104 146
125 104 146
125 105 146
126 105 146
126 106 146
126 106 146
126 107 146
127 107 146
127 108 146
127 108 146
127 109 146
128 109 146
128 110 146
128 110 146
128 111 146
129 111 146
193 176 210
193 176 210
193 177 210
194 177 210
194 178 210
194 178 210
194 179 210
195 179 210
195 180 210
195 180 210
195 181 210
196 181 210
196 182 210
196 182 210
196 183 210
197 183 210
197 184 210
197 184 210
197 185 210
198 185 210
198 186 210
198 186 210
198 187 210
199 187 210
199 188 210
199 188 210
199 189 210
200 189 210
200 190 210
200 190 210
200 191 210
201 191 210
137 128 146
137 128 146
137 129 146
138 129 146
138 130 146
138 130 146
138 131 146
139 131 146
139 132 146
139 132 146
139 133 146
140 133 146
140 134 146
140 134 146
140 135 146
141 135 146
141 136 146
141 136 146
141 137 146
142 137 146
142 138 146
142 138 146
142 139 146
143 139 146
143 140 146
143 140 146
143 141 146
144 141 146
144 142 146
144 142 146
144 143 146
145 143 146
209 208 210
209 208 210
209 209 210
210 209 210
210 210 210
210 210 210
210 211 210
211 211 210
211 212 210
211 212 210
211 213 210
212 213 210
212 214 210
212 214 210
212 215 210
213 215 210
213 216 210
213 216 210
213 217 210
214 217 210
214 218 210
214 218 210
214 219 210
215 219 210
215 220 210
215 220 210
215 221 210
216 221 210
216 222 210
216 222 210
216 223 210
217 223 210
153 160 146
153 160 146
153 161 146
154 161 146
154 162 146
154 162 146
154 163 146
155 163 146
155 164 146
155 164 146
155 165 146
156 165 146
156 166 146
156 166 146
156 167 146
157 167 146
157 168 146
157 168 146
157 169 146
158 169 146
158 170 146
158 170 146
158 171 146
159 171 146
159 172 146
159 172 146
159 173 146
160 173 146
160 174 146
160 174 146
160 175 146
161 175 146
225 240 210
225 240 210
225 241 210
226 241 210
226 242 210
226 242 210
226 243 210
227 243 210
227 244 210
227 244 210
227 245 210
228 245 210
228 246 210
228 246 210
228 247 210
229 247 210
229 248 210
229 248 210
229 249 210
230 249 210
230 250 210
230 250 210
230 251 210
231 251 210
231 252 210
231 252 210
231 253 210
232 253 210
232 254 210
232 254 210
232 255 210
233 255 210
105 64 147
105 64 147
106 65 147
106 65 147
106 66 147
106 66 147
107 67 147
107 67 147
107 68 147
107 68 147
108 69 147
108 69 147
108 70 147
108 70 147
109 71 147
109 71 147
109 72 147
109 72 147
110 73 147
110 73 147
110 74 147
110 74 147
111 75 147
111 75 147
111 76 147
111 76 147
112 77 147
112 77 147
112 78 147
112 78 147
113 79 147
113 79 147
177 144 211
177 144 211
178 145 211
178 145 211
178 146 211
178 146 211
179 147 211
179 147 211
179 148 211
179 148 211
180 149 211
180 149 211
180 150 211
180 150 211
181 151 211
181 151 211
181 152 211
181 152 211
182 153 211
182 153 211
182 154 211
182 154 211
183 155 211
183 155 211
183 156 211
183 156 211
184 157 211
184 157 211
184 158 211
184 158 211
185 159 211
185 159 211
121 96 147
121 96 147
122 97 147
122 97 147
122 98 147
122 98 147
123 99 147
123 99 147
123 100 147
123 100 147
124 101 147
124 101 147
124 102 147
124 102 147
125 103 147
125 103 147
125 104 147
125 104 147
126 105 147
126 105 147
126 106 147
126 106 147
127 107 147
127 107 147
127 108 147
127 108 147
128 109 147
128 109 147
128 110 147
128 110 147
129 111 147
129 111 147
193 176 211
193 176 211
194 177 211
194 177 211
194 178 211
194 178 211
195 179 211
195 179 211
195 180 211
195 180 211
196 181 211
196 181 211
196 182 211
196 182 211
197 183 211
197 183 211
197 184 211
197 184 211
198 185 211
198 185 211
198 186 211
198 186 211
199 187 211
199 187 211
199 188 211
199 188 211
200 189 211
200 189 211
200 190 211
200 190 211
201 191 211
201 191 211
137 128 147
137 128 147
138 129 147
138 129 147
138 130 147
138 130 147
139 131 147
139 131 147
139 132 147
139 132 147
140 133 147
140 133 147
140 134 147
140 134 147
141 135 147
141 135 147
141 136 147
141 136 147
142 137 147
142 137 147
142 138 147
142 138 147
143 139 147
143 139 147
143 140 147
143 140 147
144 141 147
144 141 147
144 142 147
144 142 147
145 143 147
145 143 147
209 208 211
209 208 211
210 209 211
210 209 211
210 210 211
210 210 211
211 211 211
211 211 211
211 212 211
211 212 211
212 213 211
212 213 211
212 214 211
212 214 211
213 215 211
213 215 211
213 216 211
213 216 211
214 217 211
214 217 211
214 218 211
214 218 211
215 219 211
215 219 211
215 220 211
215 220 211
216 221 211
216 221 211
216 222 211
216 222 211
217 223 211
217 223 211
153 160 147
153 160 147
154 161 147
154 161 147
154 162 147
154 162 147
155 163 147
155 163 147
155 164 147
155 164 147
156 165 147
156 165 147
156 166 147
156 166 147
157 167 147
157 167 147
157 168 147
157 168 147
158 169 147
158 169 147
158 170 147
158 170 147
159 171 147
159 171 147
159 172 147
159 172 147
160 173 147
160 173 147
160 174 147
160 174 147
161 175 147
161 175 147
225 240 211
225 240 211
226 241 211
226 241 211
226 242 211
226 242 211
227 243 211
227 243 211
227 244 211
227 244 211
228 245 211
228 245 211
228 246 211
228 246 211
229 247 211
229 247 211
229 248 211
229 248 211
230 249 211
230 249 211
230 250 211
230 250 211
231 251 211
231 251 211
231 252 211
231 252 211
232 253 211
232 253 211
232 254 211
232 254 211
233 255 211
233 255 211
105 64 147
106 64 147
106 65 147
106 65 147
106 66 147
107 66 147
107 67 147
107 67 147
107 68 147
108 68 147
108 69 147
108 69 147
108 70 147
109 70 147
109 71 147
109 71 147
109 72 147
110 72 147
110 73 147
110 73 147
110 74 147
111 74 147
111 75 147
111 75 147
111 76 147
112 76 147
112 77 147
112 77 147
112 78 147
113 78 147
113 79 147
113 79 147
177 144 211
178 144 211
178 145 211
178 145 211
178 146 211
179 146 211
179 147 211
179 147 211
179 148 211
180 148 211
180 149 211
180 149 211
180 150 211
181 150 211
181 151 211
181 151 211
181 152 211
182 152 211
182 153 211
182 153 211
182 154 211
183 154 211
183 155 211
183 155 211
183 156 211
184 156 211
184 157 211
184 157 211
184 158 211
185 158 211
185 159 211
185 159 211
121 96 147
122 96 147
122 97 147
122 97 147
122 98 147
123 98 147
123 99 147
123 99 147
123 100 147
124 100 147
124 101 147
124 101 147
124 102 147
125 102 147
125 103 147
125 103 147
125 104 147
126 104 147
126 105 147
126 105 147
126 106 147
127 106 147
127 107 147
127 107 147
127 108 147
128 108 147
128 109 147
128 109 147
128 110 147
129 110 147
129 111 147
129 111 147
193 176 211
194 176 211
194 177 211
194 177 211
194 178 211
195 178 211
195 179 211
195 179 211
195 180 211
196 180 211
196 181 211
196 181 211
196 182 211
197 182 211
197 183 211
197 183 211
197 184 211
198 184 211
198 185 211
198 185 211
198 186 211
199 186 211
199 187 211
199 187 211
199 188 211
200 188 211
200 189 211
200 189 211
200 190 211
201 190 211
201 191 211
201 191 211
137 128 147
138 128 147
138 129 147
138 129 147
138 130 147
139 130 147
139 131 147
139 131 147
139 132 147
140 132 147
140 133 147
140 133 147
140 134 147
141 134 147
141 135 147
141 135 147
141 136 147
142 136 147
142 137 147
142 137 147
142 138 147
143 138 147
143 139 147
143 139 147
143 140 147
144 140 147
144 141 147
144 141 147
144 142 147
145 142 147
145 143 147
145 143 147
209 208 211
210 208 211
210 209 211
210 209 211
210 210 211
211 210 211
211 211 211
211 211 211
211 212 211
212 212 211
212 213 211
212 213 211
212 214 211
213 214 211
213 215 211
213 215 211
213 216 211
214 216 211
214 217 211
214 217 211
214 218 211
215 218 211
215 219 211
215 219 211
215 220 211
216 220 211
216 221 211
216 221 211
216 222 211
217 222 211
217 223 211
217 223 211
153 160 147
154 160 147
154 161 147
154 161 147
154 162 147
155 162 147
155 163 147
155 163 147
155 164 147
156 164 147
156 165 147
156 165 147
156 166 147
157 166 147
157 167 147
157 167 147
157 168 147
158 168 147
158 169 147
158 169 147
158 170 147
159 170 147
159 171 147
159 171 147
159 172 147
160 172 147
160 173 147
160 173 147
160 174 147
161 174 147
161 175 147
161 175 147
225 240 211
226 240 211
226 241 211
226 241 211
226 242 211
227 242 211
227 243 211
227 243 211
227 244 211
228 244 211
228 245 211
228 245 211
228 246 211
229 246 211
229 247 211
229 247 211
229 248 211
230 248 211
230 249 211
230 249 211
230 250 211
231 250 211
231 251 211
231 251 211
231 252 211
232 252 211
232 253 211
232 253 211
232 254 211
233 254 211
233 255 211
233 255 211
106 64 148
106 64 148
106 65 148
106 65 148
107 66 148
107 66 148
107 67 148
107 67 148
108 68 148
108 68 148
108 69 148
108 69 148
109 70 148
109 70 148
109 71 148
109 71 148
110 72 148
110 72 148
110 73 148
110 73 148
111 74 148
111 74 148
111 75 148
111 75 148
112 76 148
112 76 148
112 77 148
112 77 148
113 78 148
113 78 148
113 79 148
113 79 148
178 144 212
178 144 212
178 145 212
178 145 212
179 146 212
179 146 212
179 147 212
179 147 212
180 148 212
180 148 212
180 149 212
180 149 212
181 150 212
181 150 212
181 151 212
181 151 212
182 152 212
182 152 212
182 153 212
182 153 212
183 154 212
183 154 212
183 155 212
183 155 212
184 156 212
184 156 212
184 157 212
184 157 212
185 158 212
185 158 212
185 159 212
185 159 212
122 96 148
122 96 148
122 97 148
122 97 148
123 98 148
123 98 148
123 99 148
123 99 148
124 100 148
124 100 148
124 101 148
124 101 148
125 102 148
125 102 148
125 103 148
125 103 148
126 104 148
126 104 148
126 105 148
126 105 148
127 106 148
127 106 148
127 107 148
127 107 148
128 108 148
128 108 148
128 109 148
128 109 148
129 110 148
129 110 148
129 111 148
129 111 148
194 176 212
194 176 212
194 177 212
194 177 212
195 178 212
195 178 212
195 179 212
195 179 212
196 180 212
196 180 212
196 181 212
196 181 212
197 182 212
197 182 212
197 183 212
197 183 212
198 184 212
198 184 212
198 185 212
198 185 212
199 186 212
199 186 212
199 187 212
199 187 212
200 188 212
200 188 212
200 189 212
200 189 212
201 190 212
201 190 212
201 191 212
201 191 212
138 128 148
138 128 148
138 129 148
138 129 148
139 130 148
139 130 148
139 131 148
139 131 148
140 132 148
140 132 148
140 133 148
140 133 148
141 134 148
141 134 148
141 135 148
141 135 148
142 136 148
142 136 148
142 137 148
142 137 148
143 138 148
143 138 148
143 139 148
143 139 148
144 140 148
144 140 148
144 141 148
144 141 148
145 142 148
145 142 148
145 143 148
145 143 148
210 208 212
210 208 212
210 209 212
210 209 212
211 210 212
211 210 212
211 211 212
211 211 212
212 212 212
212 212 212
212 213 212
212 213 212
213 214 212
213 214 212
213 215 212
213 215 212
214 216 212
214 216 212
214 217 212
214 217 212
215 218 212
215 218 212
215 219 212
215 219 212
216 220 212
216 220 212
216 221 212
216 221 212
217 222 212
217 222 212
217 223 212
217 223 212
154 160 148
154 160 148
154 161 148
154 161 148
155 162 148
155 162 148
155 163 148
155 163 148
156 164 148
156 164 148
156 165 148
156 165 148
157 166 148
157 166 148
157 167 148
157 167 148
158 168 148
158 168 148
158 169 148
158 169 148
159 170 148
159 170 148
159 171 148
159 171 148
160 172 148
160 172 148
160 173 148
160 173 148
161 174 148
161 174 148
161 175 148
161 175 148
226 240 212
226 240 212
226 241 212
226 241 212
227 242 212
227 242 212
227 243 212
227 243 212
228 244 212
228 244 212
228 245 212
228 245 212
229 246 212
229 246 212
229 247 212
229 247 212
230 248 212
230 248 212
230 249 212
230 249 212
231 250 212
231 250 212
231 251 212
231 251 212
232 252 212
232 252 212
232 253 212
232 253 212
233 254 212
233 254 212
233 255 212
233 255 212
106 64 148
106 64 148
106 65 148
107 65 148
107 66 148
107 66 148
107 67 148
108 67 148
108 68 148
108 68 148
108 69 148
109 69 148
109 70 148
109 70 148
109 71 148
110 71 148
110 72 148
110 72 148
110 73 148
111 73 148
111 74 148
111 74 148
111 75 148
112 75 148
112 76 148
112 76 148
112 77 148
113 77 148
113 78 148
113 78 148
113 79 148
114 79 148
178 144 212
178 144 212
178 145 212
179 145 212
179 146 212
179 146 212
179 147 212
180 147 212
180 148 212
180 148 212
180 149 212
181 149 212
181 150 212
181 150 212
181 151 212
182 151 212
182 152 212
182 152 212
182 153 212
183 153 212
183 154 212
183 154 212
183 155 212
184 155 212
184 156 212
184 156 212
184 157 212
185 157 212
185 158 212
185 158 212
185 159 212
186 159 212
122 96 148
122 96 148
122 97 148
123 97 148
123 98 148
123 98 148
123 99 148
124 99 148
124 100 148
124 100 148
124 101 148
125 101 148
125 102 148
125 102 148
125 103 148
126 103 148
126 104 148
126 104 148
126 105 148
127 105 148
127 106 148
127 106 148
127 107 148
128 107 148
128 108 148
128 108 148
128 109 148
129 109 148
129 110 148
129 110 148
129 111 148
130 111 148
194 176 212
194 176 212
194 177 212
195 177 212
195 178 212
195 178 212
195 179 212
196 179 212
196 180 212
196 180 212
196 181 212
197 181 212
197 182 212
197 182 212
197 183 212
198 183 212
198 184 212
198 184 212
198 185 212
199 185 212
199 186 212
199 186 212
199 187 212
200 187 212
200 188 212
200 188 212
200 189 212
201 189 212
201 190 212
201 190 212
201 191 212
202 191 212
138 128 148
138 128 148
138 129 148
139 129 148
139 130 148
139 130 148
139 131 148
140 131 148
140 132 148
140 132 148
140 133 148
141 133 148
141 134 148
141 134 148
141 135 148
142 135 148
142 136 148
142 136 148
142 137 148
143 137 148
143 138 148
143 138 148
143 139 148
144 139 148
144 140 148
144 140 148
144 141 148
145 141 148
145 142 148
145 142 148
145 143 148
146 143 148
210 208 212
210 208 212
210 209 212
211 209 212
211 210 212
211 210 212
211 211 212
212 211 212
212 212 212
212 212 212
212 213 212
213 213 212
213 214 212
213 214 212
213 215 212
214 215 212
214 216 212
214 216 212
214 217 212
215 217 212
215 218 212
215 218 212
215 219 212
216 219 212
216 220 212
216 220 212
216 221 212
217 221 212
217 222 212
217 222 212
217 223 212
218 223 212
154 160 148
154 160 148
154 161 148
155 161 148
155 162 148
155 162 148
155 163 148
156 163 148
156 164 148
156 164 148
156 165 148
157 165 148
157 166 148
157 166 148
157 167 148
158 167 148
158 168 148
158 168 148
158 169 148
159 169 148
159 170 148
159 170 148
159 171 148
160 171 148
160 172 148
160 172 148
160 173 148
161 173 148
161 174 148
161 174 148
161 175 148
162 175 148
226 240 212
226 240 212
226 241 212
227 241 212
227 242 212
227 242 212
227 243 212
228 243 212
228 244 212
228 244 212
228 245 212
229 245 212
229 246 212
229 246 212
229 247 212
230 247 212
230 248 212
230 248 212
230 249 212
231 249 212
231 250 212
231 250 212
231 251 212
232 251 212
232 252 212
232 252 212
232 253 212
233 253 212
233 254 212
233 254 212
233 255 212
234 255 212
106 64 149
106 64 149
107 65 149
107 65 149
107 66 149
107 66 149
108 67 149
108 67 149
108 68 149
108 68 149
109 69 149
109 69 149
109 70 149
109 70 149
110 71 149
110 71 149
110 72 149
110 72 149
111 73 149
111 73 149
111 74 149
111 74 149
112 75 149
112 75 149
112 76 149
112 76 149
113 77 149
113 77 149
113 78 149
113 78 149
114 79 149
114 79 149
178 144 213
178 144 213
179 145 213
179 145 213
179 146 213
179 146 213
180 147 213
180 147 213
180 148 213
180 148 213
181 149 213
181 149 213
181 150 213
181 150 213
182 151 213
182 151 213
182 152 213
182 152 213
183 153 213
183 153 213
183 154 213
183 154 213
184 155 213
184 155 213
184 156 213
184 156 213
185 157 213
185 157 213
185 158 213
185 158 213
186 159 213
186 159 213
122 96 149
122 96 149
123 97 149
123 97 149
123 98 149
123 98 149
124 99 149
124 99 149
124 100 149
124 100 149
125 101 149
125 101 149
125 102 149
125 102 149
126 103 149
126 103 149
126 104 149
126 104 149
127 105 149
127 105 149
127 106 149
127 106 149
128 107 149
128 107 149
128 108 149
128 108 149
129 109 149
129 109 149
129 110 149
129 110 149
130 111 149
130 111 149
194 176 213
194 176 213
195 177 213
195 177 213
195 178 213
195 178 213
196 179 213
196 179 213
196 180 213
196 180 213
197 181 213
197 181 213
197 182 213
197 182 213
198 183 213
198 183 213
198 184 213
198 184 213
199 185 213
199 185 213
199 186 213
199 186 213
200 187 213
200 187 213
200 188 213
200 188 213
201 189 213
201 189 213
201 190 213
201 190 213
202 191 213
202 191 213
138 128 149
138 128 149
139 129 149
139 129 149
139 130 149
139 130 149
140 131 149
140 131 149
140 132 149
140 132 149
141 133 149
141 133 149
141 134 149
141 134 149
142 135 149
142 135 149
142 136 149
142 136 149
143 137 149
143 137 149
143 138 149
143 138 149
144 139 149
144 139 149
144 140 149
144 140 149
145 141 149
145 141 149
145 142 149
145 142 149
146 143 149
146 143 149
210 208 213
210 208 213
211 209 213
211 209 213
211 210 213
211 210 213
212 211 213
212 211 213
212 212 213
212 212 213
213 213 213
213 213 213
213 214 213
213 214 213
214 215 213
214 215 213
214 216 213
214 216 213
215 217 213
215 217 213
215 218 213
215 218 213
216 219 213
216 219 213
216 220 213
216 220 213
217 221 213
217 221 213
217 222 213
217 222 213
218 223 213
218 223 213
154 160 149
154 160 149
155 161 149
155 161 149
155 162 149
155 162 149
156 163 149
156 163 149
156 164 149
156 164 149
157 165 149
157 165 149
157 166 149
157 166 149
158 167 149
158 167 149
158 168 149
158 168 149
159 169 149
159 169 149
159 170 149
159 170 149
160 171 149
160 171 149
160 172 149
160 172 149
161 173 149
161 173 149
161 174 149
161 174 149
162 175 149
162 175 149
226 240 213
226 240 213
227 241 213
227 241 213
227 242 213
227 242 213
228 243 213
228 243 213
228 244 213
228 244 213
229 245 213
229 245 213
229 246 213
229 246 213
230 247 213
230 247 213
230 248 213
230 248 213
231 249 213
231 249 213
231 250 213
231 250 213
232 251 213
232 251 213
232 252 213
232 252 213
233 253 213
233 253 213
233 254 213
233 254 213
234 255 213
234 255 213
106 64 149
107 64 149
107 65 149
107 65 149
107 66 149
108 66 149
108 67 149
108 67 149
108 68 149
109 68 149
109 69 149
109 69 149
109 70 149
110 70 149
110 71 149
110 71 149
110 72 149
111 72 149
111 73 149
111 73 149
111 74 149
112 74 149
112 75 149
112 75 149
112 76 149
113 76 149
113 77 149
113 77 149
113 78 149
114 78 149
114 79 149
114 79 149
178 144 213
179 144 213
179 145 213
179 145 213
179 146 213
180 146 213
180 147 213
180 147 213
180 148 213
181 148 213
181 149 213
181 149 213
181 150 213
182 150 213
182 151 213
182 151 213
182 152 213
183 152 213
183 153 213
183 153 213
183 154 213
184 154 213
184 155 213
184 155 213
184 156 213
185 156 213
185 157 213
185 157 213
185 158 213
186 158 213
186 159 213
186 159 213
122 96 149
123 96 149
123 97 149
123 97 149
123 98 149
124 98 149
124 99 149
124 99 149
124 100 149
125 100 149
125 101 149
125 101 149
125 102 149
126 102 149
126 103 149
126 103 149
126 104 149
127 104 149
127 105 149
127 105 149
127 106 149
128 106 149
128 107 149
128 107 149
128 108 149
129 108 149
129 109 149
129 109 149
129 110 149
130 110 149
130 111 149
130 111 149
194 176 213
195 176 213
195 177 213
195 177 213
195 178 213
196 178 213
196 179 213
196 179 213
196 180 213
197 180 213
197 181 213
197 181 213
197 182 213
198 182 213
198 183 213
198 183 213
198 184 213
199 184 213
199 185 213
199 185 213
199 186 213
200 186 213
200 187 213
200 187 213
200 188 213
201 188 213
201 189 213
201 189 213
201 190 213
202 190 213
202 191 213
202 191 213
138 128 149
139 128 149
139 129 149
139 129 149
139 130 149
140 130 149
140 131 149
140 131 149
140 132 149
141 132 149
141 133 149
141 133 149
141 134 149
142 134 149
142 135 149
142 135 149
142 136 149
143 136 149
143 137 149
143 137 149
143 138 149
144 138 149
144 139 149
144 139 149
144 140 149
145 140 149
145 141 149
145 141 149
145 142 149
146 142 149
146 143 149
146 143 149
210 208 213
211 208 213
211 209 213
211 209 213
211 210 213
212 210 213
212 211 213
212 211 213
212 212 213
213 212 213
213 213 213
213 213 213
213 214 213
214 214 213
214 215 213
214 215 213
214 216 213
215 216 213
215 217 213
215 217 213
215 218 213
216 218 213
216 219 213
216 219 213
216 220 213
217 220 213
217 221 213
217 221 213
217 222 213
218 222 213
218 223 213
218 223 213
154 160 149
155 160 149
155 161 149
155 161 149
155 162 149
156 162 149
156 163 149
156 163 149
156 164 149
157 164 149
157 165 149
157 165 149
157 166 149
158 166 149
158 167 149
158 167 149
158 168 149
159 168 149
159 169 149
159 169 149
159 170 149
160 170 149
160 171 149
160 171 149
160 172 149
161 172 149
161 173 149
161 173 149
161 174 149
162 174 149
162 175 149
162 175 149
226 240 213
227 240 213
227 241 213
227 241 213
227 242 213
228 242 213
228 243 213
228 243 213
228 244 213
229 244 213
229 245 213
229 245 213
229 246 213
230 246 213
230 247 213
230 247 213
230 248 213
231 248 213
231 249 213
231 249 213
231 250 213
232 250 213
232 251 213
232 251 213
232 252 213
233 252 213
233 253 213
233 253 213
233 254 213
234 254 213
234 255 213
234 255 213
107 64 150
107 64 150
107 65 150
107 65 150
108 66 150
108 66 150
108 67 150
108 67 150
109 68 150
109 68 150
109 69 150
109 69 150
110 70 150
110 70 150
110 71 150
110 71 150
111 72 150
111 72 150
111 73 150
111 73 150
112 74 150
112 74 150
112 75 150
112 75 150
113 76 150
113 76 150
113 77 150
113 77 150
114 78 150
114 78 150
114 79 150
114 79 150
179 144 214
179 144 214
179 145 214
179 145 214
180 146 214
180 146 214
180 147 214
180 147 214
181 148 214
181 148 214
181 149 214
181 149 214
182 150 214
182 150 214
182 151 214
182 151 214
183 152 214
183 152 214
183 153 214
183 153 214
184 154 214
184 154 214
184 155 214
184 155 214
185 156 214
185 156 214
185 157 214
185 157 214
186 158 214
186 158 214
186 159 214
186 159 214
123 96 150
123 96 150
123 97 150
123 97 150
124 98 150
124 98 150
124 99 150
124 99 150
125 100 150
125 100 150
125 101 150
125 101 150
126 102 150
126 102 150
126 103 150
126 103 150
127 104 150
127 104 150
127 105 150
127 105 150
128 106 150
128 106 150
128 107 150
128 107 150
129 108 150
129 108 150
129 109 150
129 109 150
130 110 150
130 110 150
130 111 150
130 111 150
195 176 214
195 176 214
195 177 214
195 177 214
196 178 214
196 178 214
196 179 214
196 179 214
197 180 214
197 180 214
197 181 214
197 181 214
198 182 214
198 182 214
198 183 214
198 183 214
199 184 214
199 184 214
199 185 214
199 185 214
200 186 214
200 186 214
200 187 214
200 187 214
201 188 214
201 188 214
201 189 214
201 189 214
202 190 214
202 190 214
202 191 214
202 191 214
139 128 150
139 128 150
139 129 150
139 129 150
140 130 150
140 130 150
140 131 150
140 131 150
141 132 150
141 132 150
141 133 150
141 133 150
142 134 150
142 134 150
142 135 150
142 135 150
143 136 150
143 136 150
143 137 150
143 137 150
144 138 150
144 138 150
144 139 150
144 139 150
145 140 150
145 140 150
145 141 150
145 141 150
146 142 150
146 142 150
146 143 150
146 143 150
211 208 214
211 208 214
211 209 214
211 209 214
212 210 214
212 210 214
212 211 214
212 211 214
213 212 214
213 212 214
213 213 214
213 213 214
214 214 214
214 214 214
214 215 214
214 215 214
215 216 214
215 216 214
215 217 214
215 217 214
216 218 214
216 218 214
216 219 214
216 219 214
217 220 214
217 220 214
217 221 214
217 221 214
218 222 214
218 222 214
218 223 214
218 223 214
155 160 150
155 160 150
155 161 150
155 161 150
156 162 150
156 162 150
156 163 150
156 163 150
157 164 150
157 164 150
157 165 150
157 165 150
158 166 150
158 166 150
158 167 150
158 167 150
159 168 150
159 168 150
159 169 150
159 169 150
160 170 150
160 170 150
160 171 150
160 171 150
161 172 150
161 172 150
161 173 150
161 173 150
162 174 150
162 174 150
162 175 150
162 175 150
227 240 214
227 240 214
227 241 214
227 241 214
228 242 214
228 242 214
228 243 214
228 243 214
229 244 214
229 244 214
229 245 214
229 245 214
230 246 214
230 246 214
230 247 214
230 247 214
231 248 214
231 248 214
231 249 214
231 249 214
232 250 214
232 250 214
232 251 214
232 251 214
233 252 214
233 252 214
233 253 214
233 253 214
234 254 214
234 254 214
234 255 214
234 255 214
107 64 150
107 64 150
107 65 150
108 65 150
108 66 150
108 66 150
108 67 150
109 67 150
109 68 150
109 68 150
109 69 150
110 69 150
110 70 150
110 70 150
110 71 150
111 71 150
111 72 150
111 72 150
111 73 150
112 73 150
112 74 150
112 74 150
112 75 150
113 75 150
113 76 150
113 76 150
113 77 150
114 77 150
114 78 150
114 78 150
114 79 150
115 79 150
179 144 214
179 144 214
179 145 214
180 145 214
180 146 214
180 146 214
180 147 214
181 147 214
181 148 214
181 148 214
181 149 214
182 149 214
182 150 214
182 150 214
182 151 214
183 151 214
183 152 214
183 152 214
183 153 214
184 153 214
184 154 214
184 154 214
184 155 214
185 155 214
185 156 214
185 156 214
185 157 214
186 157 214
186 158 214
186 158 214
186 159 214
187 159 214
123 96 150
123 96 150
123 97 150
124 97 150
124 98 150
124 98 150
124 99 150
125 99 150
125 100 150
125 100 150
125 101 150
126 101 150
126 102 150
126 102 150
126 103 150
127 103 150
127 104 150
127 104 150
127 105 150
128 105 150
128 106 150
128 106 150
128 107 150
129 107 150
129 108 150
129 108 150
129 109 150
130 109 150
130 110 150
130 110 150
130 111 150
131 111 150
195 176 214
195 176 214
195 177 214
196 177 214
196 178 214
196 178 214
196 179 214
197 179 214
197 180 214
197 180 214
197 181 214
198 181 214
198 182 214
198 182 214
198 183 214
199 183 214
199 184 214
199 184 214
199 185 214
200 185 214
200 186 214
200 186 214
200 187 214
201 187 214
201 188 214
201 188 214
201 189 214
202 189 214
202 190 214
202 190 214
202 191 214
203 191 214
139 128 150
139 128 150
139 129 150
140 129 150
140 130 150
140 130 150
140 131 150
141 131 150
141 132 150
141 132 150
141 133 150
142 133 150
142 134 150
142 134 150
142 135 150
143 135 150
143 136 150
143 136 150
143 137 150
144 137 150
144 138 150
144 138 150
144 139 150
145 139 150
145 140 150
145 140 150
145 141 150
146 141 150
146 142 150
146 142 150
146 143 150
147 143 150
211 208 214
211 208 214
211 209 214
212 209 214
212 210 214
212 210 214
212 211 214
213 211 214
213 212 214
213 212 214
213 213 214
214 213 214
214 214 214
214 214 214
214 215 214
215 215 214
215 216 214
215 216 214
215 217 214
216 217 214
216 218 214
216 218 214
216 219 214
217 219 214
217 220 214
217 220 214
217 221 214
218 221 214
218 222 214
218 222 214
218 223 214
219 223 214
155 160 150
155 160 150
155 161 150
156 161 150
156 162 150
156 162 150
156 163 150
157 163 150
157 164 150
157 164 150
157 165 150
158 165 150
158 166 150
158 166 150
158 167 150
159 167 150
159 168 150
159 168 150
159 169 150
160 169 150
160 170 150
160 170 150
160 171 150
161 171 150
161 172 150
161 172 150
161 173 150
162 173 150
162 174 150
162 174 150
162 175 150
163 175 150
227 240 214
227 240 214
227 241 214
228 241 214
228 242 214
228 242 214
228 243 214
229 243 214
229 244 214
229 244 214
229 245 214
230 245 214
230 246 214
230 246 214
230 247 214
231 247 214
231 248 214
231 248 214
231 249 214
232 249 214
232 250 214
232 250 214
232 251 214
233 251 214
233 252 214
233 252 214
233 253 214
234 253 214
234 254 214
234 254 214
234 255 214
235 255 214
107 64 151
107 64 151
108 65 151
108 65 151
108 66 151
108 66 151
109 67 151
109 67 151
109 68 151
109 68 151
110 69 151
110 69 151
110 70 151
110 70 151
111 71 151
111 71 151
111 72 151
111 72 151
112 73 151
112 73 151
112 74 151
112 74 151
113 75 151
113 75 151
113 76 151
113 76 151
114 77 151
114 77 151
114 78 151
114 78 151
115 79 151
115 79 151
179 144 215
179 144 215
180 145 215
180 145 215
180 146 215
180 146 215
181 147 215
181 147 215
181 148 215
181 148 215
182 149 215
182 149 215
182 150 215
182 150 215
183 151 215
183 151 215
183 152 215
183 152 215
184 153 215
184 153 215
184 154 215
184 154 215
185 155 215
185 155 215
185 156 215
185 156 215
186 157 215
186 157 215
186 158 215
186 158 215
187 159 215
187 159 215
123 96 151
123 96 151
124 97 151
124 97 151
124 98 151
124 98 151
125 99 151
125 99 151
125 100 151
125 100 151
126 101 151
126 101 151
126 102 151
126 102 151
127 103 151
127 103 151
127 104 151
127 104 151
128 105 151
128 105 151
128 106 151
128 106 151
129 107 151
129 107 151
129 108 151
129 108 151
130 109 151
130 109 151
130 110 151
130 110 151
131 111 151
131 111 151
195 176 215
195 176 215
196 177 215
196 177 215
196 178 215
196 178 215
197 179 215
197 179 215
197 180 215
197 180 215
198 181 215
198 181 215
198 182 215
198 182 215
199 183 215
199 183 215
199 184 215
199 184 215
200 185 215
200 185 215
200 186 215
200 186 215
201 187 215
201 187 215
201 188 215
201 188 215
202 189 215
202 189 215
202 190 215
202 190 215
203 191 215
203 191 215
139 128 151
139 128 151
140 129 151
140 129 151
140 130 151
140 130 151
141 131 151
141 131 151
141 132 151
141 132 151
142 133 151
142 133 151
142 134 151
142 134 151
143 135 151
143 135 151
143 136 151
143 136 151
144 137 151
144 137 151
144 138 151
144 138 151
145 139 151
145 139 151
145 140 151
145 140 151
146 141 151
146 141 151
146 142 151
146 142 151
147 143 151
147 143 151
211 208 215
211 208 215
212 209 215
212 209 215
212 210 215
212 210 215
213 211 215
213 211 215
213 212 215
213 212 215
214 213 215
214 213 215
214 214 215
214 214 215
215 215 215
215 215 215
215 216 215
215 216 215
216 217 215
216 217 215
216 218 215
216 218 215
217 219 215
217 219 215
217 220 215
217 220 215
218 221 215
218 221 215
218 222 215
218 222 215
219 223 215
219 223 215
155 160 151
155 160 151
156 161 151
156 161 151
156 162 151
156 162 151
157 163 151
157 163 151
157 164 151
157 164 151
158 165 151
158 165 151
158 166 151
158 166 151
159 167 151
159 167 151
159 168 151
159 168 151
160 169 151
160 169 151
160 170 151
160 170 151
161 171 151
161 171 151
161 172 151
161 172 151
162 173 151
162 173 151
162 174 151
162 174 151
163 175 151
163 175 151
227 240 215
227 240 215
228 241 215
228 241 215
228 242 215
228 242 215
229 243 215
229 243 215
229 244 215
229 244 215
230 245 215
230 245 215
230 246 215
230 246 215
231 247 215
231 247 215
231 248 215
231 248 215
232 249 215
232 249 215
232 250 215
232 250 215
233 251 215
233 251 215
233 252 215
233 252 215
234 253 215
234 253 215
234 254 215
234 254 215
235 255 215
235 255 215
107 64 151
108 64 151
108 65 151
108 65 151
108 66 151
109 66 151
109 67 151
109 67 151
109 68 151
110 68 151
110 69 151
110 69 151
110 70 151
111 70 151
111 71 151
111 71 151
111 72 151
112 72 151
112 73 151
112 73 151
112 74 151
113 74 151
113 75 151
113 75 151
113 76 151
114 76 151
114 77 151
114 77 151
114 78 151
115 78 151
115 79 151
115 79 151
179 144 215
180 144 215
180 145 215
180 145 215
180 146 215
181 146 215
181 147 215
181 147 215
181 148 215
182 148 215
182 149 215
182 149 215
182 150 215
183 150 215
183 151 215
183 151 215
183 152 215
184 152 215
184 153 215
184 153 215
184 154 215
185 154 215
185 155 215
185 155 215
185 156 215
186 156 215
186 157 215
186 157 215
186 158 215
187 158 215
187 159 215
187 159 215
123 96 151
124 96 151
124 97 151
124 97 151
124 98 151
125 98 151
125 99 151
125 99 151
125 100 151
126 100 151
126 101 151
126 101 151
126 102 151
127 102 151
127 103 151
127 103 151
127 104 151
128 104 151
128 105 151
128 105 151
128 106 151
129 106 151
129 107 151
129 107 151
129 108 151
130 108 151
130 109 151
130 109 151
130 110 151
131 110 151
131 111 151
131 111 151
195 176 215
196 176 215
196 177 215
196 177 215
196 178 215
197 178 215
197 179 215
197 179 215
197 180 215
198 180 215
198 181 215
198 181 215
198 182 215
199 182 215
199 183 215
199 183 215
199 184 215
200 184 215
200 185 215
200 185 215
200 186 215
201 186 215
201 187 215
201 187 215
201 188 215
202 188 215
202 189 215
202 189 215
202 190 215
203 190 215
203 191 215
203 191 215
139 128 151
140 128 151
140 129 151
140 129 151
140 130 151
141 130 151
141 131 151
141 131 151
141 132 151
142 132 151
142 133 151
142 133 151
142 134 151
143 134 151
143 135 151
143 135 151
143 136 151
144 136 151
144 137 151
144 137 151
144 138 151
145 138 151
145 139 151
145 139 151
145 140 151
146 140 151
146 141 151
146 141 151
146 142 151
147 142 151
147 143 151
147 143 151
211 208 215
212 208 215
212 209 215
212 209 215
212 210 215
213 210 215
213 211 215
213 211 215
213 212 215
214 212 215
214 213 215
214 213 215
214 214 215
215 214 215
215 215 215
215 215 215
215 216 215
216 216 215
216 217 215
216 217 215
216 218 215
217 218 215
217 219 215
217 219 215
217 220 215
218 220 215
218 221 215
218 221 215
218 222 215
219 222 215
219 223 215
219 223 215
155 160 151
156 160 151
156 161 151
156 161 151
156 162 151
157 162 151
157 163 151
157 163 151
157 164 151
158 164 151
158 165 151
158 165 151
158 166 151
159 166 151
159 167 151
159 167 151
159 168 151
160 168 151
160 169 151
160 169 151
160 170 151
161 170 151
161 171 151
161 171 151
161 172 151
162 172 151
162 173 151
162 173 151
162 174 151
163 174 151
163 175 151
163 175 151
227 240 215
228 240 215
228 241 215
228 241 215
228 242 215
229 242 215
229 243 215
229 243 215
229 244 215
230 244 215
230 245 215
230 245 215
230 246 215
231 246 215
231 247 215
231 247 215
231 248 215
232 248 215
232 249 215
232 249 215
232 250 215
233 250 215
233 251 215
233 251 215
233 252 215
234 252 215
234 253 215
234 253 215
234 254 215
235 254 215
235 255 215
235 255 215
108 64 152
108 64 152
108 65 152
108 65 152
109 66 152
109 66 152
109 67 152
109 67 152
110 68 152
110 68 152
110 69 152
110 69 152
111 70 152
111 70 152
111 71 152
111 71 152
112 72 152
112 72 152
112 73 152
112 73 152
113 74 152
113 74 152
113 75 152
113 75 152
114 76 152
114 76 152
114 77 152
114 77 152
115 78 152
115 78 152
115 79 152
115 79 152
180 144 216
180 144 216
180 145 216
180 145 216
181 146 216
181 146 216
181 147 216
181 147 216
182 148 216
182 148 216
182 149 216
182 149 216
183 150 216
183 150 216
183 151 216
183 151 216
184 152 216
184 152 216
184 153 216
184 153 216
185 154 216
185 154 216
185 155 216
185 155 216
186 156 216
186 156 216
186 157 216
186 157 216
187 158 216
187 158 216
187 159 216
187 159 216
124 96 152
124 96 152
124 97 152
124 97 152
125 98 152
125 98 152
125 99 152
125 99 152
126 100 152
126 100 152
126 101 152
126 101 152
127 102 152
127 102 152
127 103 152
127 103 152
128 104 152
128 104 152
128 105 152
128 105 152
129 106 152
129 106 152
129 107 152
129 107 152
130 108 152
130 108 152
130 109 152
130 109 152
131 110 152
131 110 152
131 111 152
131 111 152
196 176 216
196 176 216
196 177 216
196 177 216
197 178 216
197 178 216
197 179 216
197 179 216
198 180 216
198 180 216
198 181 216
198 181 216
199 182 216
199 182 216
199 183 216
199 183 216
200 184 216
200 184 216
200 185 216
200 185 216
201 186 216
201 186 216
201 187 216
201 187 216
202 188 216
202 188 216
202 189 216
202 189 216
203 190 216
203 190 216
203 191 216
203 191 216
140 128 152
140 128 152
140 129 152
140 129 152
141 130 152
141 130 152
141 131 152
141 131 152
142 132 152
142 132 152
142 133 152
142 133 152
143 134 152
143 134 152
143 135 152
143 135 152
144 136 152
144 136 152
144 137 152
144 137 152
145 138 152
145 138 152
145 139 152
145 139 152
146 140 152
146 140 152
146 141 152
146 141 152
147 142 152
147 142 152
147 143 152
147 143 152
212 208 216
212 208 216
212 209 216
212 209 216
213 210 216
213 210 216
213 211 216
213 211 216
214 212 216
214 212 216
214 213 216
214 213 216
215 214 216
215 214 216
215 215 216
215 215 216
216 216 216
216 216 216
216 217 216
216 217 216
217 218 216
217 218 216
217 219 216
217 219 216
218 220 216
218 220 216
218 221 216
218 221 216
219 222 216
219 222 216
219 223 216
219 223 216
156 160 152
156 160 152
156 161 152
156 161 152
157 162 152
157 162 152
157 163 152
157 163 152
158 164 152
158 164 152
158 165 152
158 165 152
159 166 152
159 166 152
159 167 152
159 167 152
160 168 152
160 168 152
160 169 152
160 169 152
161 170 152
161 170 152
161 171 152
161 171 152
162 172 152
162 172 152
162 173 152
162 173 152
163 174 152
163 174 152
163 175 152
163 175 152
228 240 216
228 240 216
228 241 216
228 241 216
229 242 216
229 242 216
229 243 216
229 243 216
230 244 216
230 244 216
230 245 216
230 245 216
231 246 216
231 246 216
231 247 216
231 247 216
232 248 216
232 248 216
232 249 216
232 249 216
233 250 216
233 250 216
233 251 216
233 251 216
234 252 216
234 252 216
234 253 216
234 253 216
235 254 216
235 254 216
235 255 216
235 255 216
108 64 152
108 64 152
108 65 152
109 65 152
109 66 152
109 66 152
109 67 152
110 67 152
110 68 152
110 68 152
110 69 152
111 69 152
111 70 152
111 70 152
111 71 152
112 71 152
112 72 152
112 72 152
112 73 152
113 73 152
113 74 152
113 74 152
113 75 152
114 75 152
114 76 152
114 76 152
114 77 152
115 77 152
115 78 152
115 78 152
115 79 152
116 79 152
180 144 216
180 144 216
180 145 216
181 145 216
181 146 216
181 146 216
181 147 216
182 147 216
182 148 216
182 148 216
182 149 216
183 149 216
183 150 216
183 150 216
183 151 216
184 151 216
184 152 216
184 152 216
184 153 216
185 153 216
185 154 216
185 154 216
185 155 216
186 155 216
186 156 216
186 156 216
186 157 216
187 157 216
187 158 216
187 158 216
187 159 216
188 159 216
124 96 152
124 96 152
124 97 152
125 97 152
125 98 152
125 98 152
125 99 152
126 99 152
126 100 152
126 100 152
126 101 152
127 101 152
127 102 152
127 102 152
127 103 152
128 103 152
128 104 152
128 104 152
128 105 152
129 105 152
129 106 152
129 106 152
129 107 152
130 107 152
130 108 152
130 108 152
130 109 152
131 109 152
131 110 152
131 110 152
131 111 152
132 111 152
196 176 216
196 176 216
196 177 216
197 177 216
197 178 216
197 178 216
197 179 216
198 179 216
198 180 216
198 180 216
198 181 216
199 181 216
199 182 216
199 182 216
199 183 216
200 183 216
200 184 216
200 184 216
200 185 216
201 185 216
201 186 216
201 186 216
201 187 216
202 187 216
202 188 216
202 188 216
202 189 216
203 189 216
203 190 216
203 190 216
203 191 216
204 191 216
140 128 152
140 128 152
140 129 152
141 129 152
141 130 152
141 130 152
141 131 152
142 131 152
142 132 152
142 132 152
142 133 152
143 133 152
143 134 152
143 134 152
143 135 152
144 135 152
144 136 152
144 136 152
144 137 152
145 137 152
145 138 152
145 138 152
145 139 152
146 139 152
146 140 152
146 140 152
146 141 152
147 141 152
147 142 152
147 142 152
147 143 152
148 143 152
212 208 216
212 208 216
212 209 216
213 209 216
213 210 216
213 210 216
213 211 216
214 211 216
214 212 216
214 212 216
214 213 216
215 213 216
215 214 216
215 214 216
215 215 216
216 215 216
216 216 216
216 216 216
216 217 216
217 217 216
217 218 216
217 218 216
217 219 216
218 219 216
218 220 216
218 220 216
218 221 216
219 221 216
219 222 216
219 222 216
219 223 216
220 223 216
156 160 152
156 160 152
156 161 152
157 161 152
157 162 152
157 162 152
157 163 152
158 163 152
158 164 152
158 164 152
158 165 152
159 165 152
159 166 152
159 166 152
159 167 152
160 167 152
160 168 152
160 168 152
160 169 152
161 169 152
161 170 152
161 170 152
161 171 152
162 171 152
162 172 152
162 172 152
162 173 152
163 173 152
163 174 152
163 174 152
163 175 152
164 175 152
228 240 216
228 240 216
228 241 216
229 241 216
229 242 216
229 242 216
229 243 216
230 243 216
230 244 216
230 244 216
230 245 216
231 245 216
231 246 216
231 246 216
231 247 216
232 247 216
232 248 216
232 248 216
232 249 216
233 249 216
233 250 216
233 250 216
233 251 216
234 251 216
234 252 216
234 252 216
234 253 216
235 253 216
235 254 216
235 254 216
235 255 216
236 255 216
108 64 153
108 64 153
109 65 153
109 65 153
109 66 153
109 66 153
110 67 153
110 67 153
110 68 153
110 68 153
111 69 153
111 69 153
111 70 153
111 70 153
112 71 153
112 71 153
112 72 153
112 72 153
113 73 153
113 73 153
113 74 153
113 74 153
114 75 153
114 75 153
114 76 153
114 76 153
115 77 153
115 77 153
115 78 153
115 78 153
116 79 153
116 79 153
180 144 217
180 144 217
181 145 217
181 145 217
181 146 217
181 146 217
182 147 217
182 147 217
182 148 217
182 148 217
183 149 217
183 149 217
183 150 217
183 150 217
184 151 217
184 151 217
184 152 217
184 152 217
185 153 217
185 153 217
185 154 217
185 154 217
186 155 217
186 155 217
186 156 217
186 156 217
187 157 217
187 157 217
187 158 217
187 158 217
188 159 217
188 159 217
124 96 153
124 96 153
125 97 153
125 97 153
125 98 153
125 98 153
126 99 153
126 99 153
126 100 153
126 100 153
127 101 153
127 101 153
127 102 153
127 102 153
128 103 153
128 103 153
128 104 153
128 104 153
129 105 153
129 105 153
129 106 153
129 106 153
130 107 153
130 107 153
130 108 153
130 108 153
131 109 153
131 109 153
131 110 153
131 110 153
132 111 153
132 111 153
196 176 217
196 176 217
197 177 217
197 177 217
197 178 217
197 178 217
198 179 217
198 179 217
198 180 217
198 180 217
199 181 217
199 181 217
199 182 217
199 182 217
200 183 217
200 183 217
200 184 217
200 184 217
201 185 217
201 185 217
201 186 217
201 186 217
202 187 217
202 187 217
202 188 217
202 188 217
203 189 217
203 189 217
203 190 217
203 190 217
204 191 217
204 191 217
140 128 153
140 128 153
141 129 153
141 129 153
141 130 153
141 130 153
142 131 153
142 131 153
142 132 153
142 132 153
143 133 153
143 133 153
143 134 153
143 134 153
144 135 153
144 135 153
144 136 153
144 136 153
145 137 153
145 137 153
145 138 153
145 138 153
146 139 153
146 139 153
146 140 153
146 140 153
147 141 153
147 141 153
147 142 153
147 142 153
148 143 153
148 143 153
212 208 217
212 208 217
213 209 217
213 209 217
213 210 217
213 210 217
214 211 217
214 211 217
214 212 217
214 212 217
215 213 217
215 213 217
215 214 217
215 214 217
216 215 217
216 215 217
216 216 217
216 216 217
217 217 217
217 217 217
217 218 217
217 218 217
218 219 217
218 219 217
218 220 217
218 220 217
219 221 217
219 221 217
219 222 217
219 222 217
220 223 217
220 223 217
156 160 153
156 160 153
157 161 153
157 161 153
157 162 153
157 162 153
158 163 153
158 163 153
158 164 153
158 164 153
159 165 153
159 165 153
159 166 153
159 166 153
160 167 153
160 167 153
160 168 153
160 168 153
161 169 153
161 169 153
161 170 153
161 170 153
162 171 153
162 171 153
162 172 153
162 172 153
163 173 153
163 173 153
163 174 153
163 174 153
164 175 153
164 175 153
228 240 217
228 240 217
229 241 217
229 241 217
229 242 217
229 242 217
230 243 217
230 243 217
230 244 217
230 244 217
231 245 217
231 245 217
231 246 217
231 246 217
232 247 217
232 247 217
232 248 217
232 248 217
233 249 217
233 249 217
233 250 217
233 250 217
234 251 217
234 251 217
234 252 217
234 252 217
235 253 217
235 253 217
235 254 217
235 254 217
236 255 217
236 255 217
108 64 153
109 64 153
109 65 153
109 65 153
109 66 153
110 66 153
110 67 153
110 67 153
110 68 153
111 68 153
111 69 153
111 69 153
111 70 153
112 70 153
112 71 153
112 71 153
112 72 153
113 72 153
113 73 153
113 73 153
113 74 153
114 74 153
114 75 153
114 75 153
114 76 153
115 76 153
115 77 153
115 77 153
115 78 153
116 78 153
116 79 153
116 79 153
180 144 217
181 144 217
181 145 217
181 145 217
181 146 217
182 146 217
182 147 217
182 147 217
182 148 217
183 148 217
183 149 217
183 149 217
183 150 217
184 150 217
184 151 217
184 151 217
184 152 217
185 152 217
185 153 217
185 153 217
185 154 217
186 154 217
186 155 217
186 155 217
186 156 217
187 156 217
187 157 217
187 157 217
187 158 217
188 158 217
188 159 217
188 159 217
124 96 153
125 96 153
125 97 153
125 97 153
125 98 153
126 98 153
126 99 153
126 99 153
126 100 153
127 100 153
127 101 153
127 101 153
127 102 153
128 102 153
128 103 153
128 103 153
128 104 153
129 104 153
129 105 153
129 105 153
129 106 153
130 106 153
130 107 153
130 107 153
130 108 153
131 108 153
131 109 153
131 109 153
131 110 153
132 110 153
132 111 153
132 111 153
196 176 217
197 176 217
197 177 217
197 177 217
197 178 217
198 178 217
198 179 217
198 179 217
198 180 217
199 180 217
199 181 217
199 181 217
199 182 217
200 182 217
200 183 217
200 183 217
200 184 217
201 184 217
201 185 217
201 185 217
201 186 217
202 186 217
202 187 217
202 187 217
202 188 217
203 188 217
203 189 217
203 189 217
203 190 217
204 190 217
204 191 217
204 191 217
140 128 153
141 128 153
141 129 153
141 129 153
141 130 153
142 130 153
142 131 153
142 131 153
142 132 153
143 132 153
143 133 153
143 133 153
143 134 153
144 134 153
144 135 153
144 135 153
144 136 153
145 136 153
145 137 153
145 137 153
145 138 153
146 138 153
146 139 153
146 139 153
146 140 153
147 140 153
147 141 153
147 141 153
147 142 153
148 142 153
148 143 153
148 143 153
212 208 217
213 208 217
213 209 217
213 209 217
213 210 217
214 210 217
214 211 217
214 211 217
214 212 217
215 212 217
215 213 217
215 213 217
215 214 217
216 214 217
216 215 217
216 215 217
216 216 217
217 216 217
217 217 217
217 217 217
217 218 217
218 218 217
218 219 217
218 219 217
218 220 217
219 220 217
219 221 217
219 221 217
219 222 217
220 222 217
220 223 217
220 223 217
156 160 153
157 160 153
157 161 153
157 161 153
157 162 153
158 162 153
158 163 153
158 163 153
158 164 153
159 164 153
159 165 153
159 165 153
159 166 153
160 166 153
160 167 153
160 167 153
160 168 153
161 168 153
161 169 153
161 169 153
161 170 153
162 170 153
162 171 153
162 171 153
162 172 153
163 172 153
163 173 153
163 173 153
163 174 153
164 174 153
164 175 153
164 175 153
228 240 217
229 240 217
229 241 217
229 241 217
229 242 217
230 242 217
230 243 217
230 243 217
230 244 217
231 244 217
231 245 217
231 245 217
231 246 217
232 246 217
232 247 217
232 247 217
232 248 217
233 248 217
233 249 217
233 249 217
233 250 217
234 250 217
234 251 217
234 251 217
234 252 217
235 252 217
235 253 217
235 253 217
235 254 217
236 254 217
236 255 217
236 255 217
109 64 154
109 64 154
109 65 154
109 65 154
110 66 154
110 66 154
110 67 154
110 67 154
111 68 154
111 68 154
111 69 154
111 69 154
112 70 154
112 70 154
112 71 154
112 71 154
113 72 154
113 72 154
113 73 154
113 73 154
114 74 154
114 74 154
114 75 154
114 75 154
115 76 154
115 76 154
115 77 154
115 77 154
116 78 154
116 78 154
116 79 154
116 79 154
181 144 218
181 144 218
181 145 218
181 145 218
182 146 218
182 146 218
182 147 218
182 147 218
183 148 218
183 148 218
183 149 218
183 149 218
184 150 218
184 150 218
184 151 218
184 151 218
185 152 218
185 152 218
185 153 218
185 153 218
186 154 218
186 154 218
186 155 218
186 155 218
187 156 218
187 156 218
187 157 218
187 157 218
188 158 218
188 158 218
188 159 218
188 159 218
125 96 154
125 96 154
125 97 154
125 97 154
126 98 154
126 98 154
126 99 154
126 99 154
127 100 154
127 100 154
127 101 154
127 101 154
128 102 154
128 102 154
128 103 154
128 103 154
129 104 154
129 104 154
129 105 154
129 105 154
130 106 154
130 106 154
130 107 154
130 107 154
131 108 154
131 108 154
131 109 154
131 109 154
132 110 154
132 110 154
132 111 154
132 111 154
197 176 218
197 176 218
197 177 218
197 177 218
198 178 218
198 178 218
198 179 218
198 179 218
199 180 218
199 180 218
199 181 218
199 181 218
200 182 218
200 182 218
200 183 218
200 183 218
201 184 218
201 184 218
201 185 218
201 185 218
202 186 218
202 186 218
202 187 218
202 187 218
203 188 218
203 188 218
203 189 218
203 189 218
204 190 218
204 190 218
204 191 218
204 191 218
141 128 154
141 128 154
141 129 154
141 129 154
142 130 154
142 130 154
142 131 154
142 131 154
143 132 154
143 132 154
143 133 154
143 133 154
144 134 154
144 134 154
144 135 154
144 135 154
145 136 154
145 136 154
145 137 154
145 137 154
146 138 154
146 138 154
146 139 154
146 139 154
147 140 154
147 140 154
147 141 154
147 141 154
148 142 154
148 142 154
148 143 154
148 143 154
213 208 218
213 208 218
213 209 218
213 209 218
214 210 218
214 210 218
214 211 218
214 211 218
215 212 218
215 212 218
215 213 218
215 213 218
216 214 218
216 214 218
216 215 218
216 215 218
217 216 218
217 216 218
217 217 218
217 217 218
218 218 218
218 218 218
218 219 218
218 219 218
219 220 218
219 220 218
219 221 218
219 221 218
220 222 218
220 222 218
220 223 218
220 223 218
157 160 154
157 160 154
157 161 154
157 161 154
158 162 154
158 162 154
158 163 154
158 163 154
159 164 154
159 164 154
159 165 154
159 165 154
160 166 154
160 166 154
160 167 154
160 167 154
161 168 154
161 168 154
161 169 154
161 169 154
162 170 154
162 170 154
162 171 154
162 171 154
163 172 154
163 172 154
163 173 154
163 173 154
164 174 154
164 174 154
164 175 154
164 175 154
229 240 218
229 240 218
229 241 218
229 241 218
230 242 218
230 242 218
230 243 218
230 243 218
231 244 218
231 244 218
231 245 218
231 245 218
232 246 218
232 246 218
232 247 218
232 247 218
233 248 218
233 248 218
233 249 218
233 249 218
234 250 218
234 250 218
234 251 218
234 251 218
235 252 218
235 252 218
235 253 218
235 253 218
236 254 218
236 254 218
236 255 218
236 255 218
109 64 154
109 64 154
109 65 154
110 65 154
110 66 154
110 66 154
110 67 154
111 67 154
111 68 154
111 68 154
111 69 154
112 69 154
112 70 154
112 70 154
112 71 154
113 71 154
113 72 154
113 72 154
113 73 154
114 73 154
114 74 154
114 74 154
114 75 154
115 75 154
115 76 154
115 76 154
115 77 154
116 77 154
116 78 154
116 78 154
116 79 154
117 79 154
181 144 218
181 144 218
181 145 218
182 145 218
182 146 218
182 146 218
182 147 218
183 147 218
183 148 218
183 148 218
183 149 218
184 149 218
184 150 218
184 150 218
184 151 218
185 151 218
185 152 218
185 152 218
185 153 218
186 153 218
186 154 218
186 154 218
186 155 218
187 155 218
187 156 218
187 156 218
187 157 218
188 157 218
188 158 218
188 158 218
188 159 218
189 159 218
125 96 154
125 96 154
125 97 154
126 97 154
126 98 154
126 98 154
126 99 154
127 99 154
127 100 154
127 100 154
127 101 154
128 101 154
128 102 154
128 102 154
128 103 154
129 103 154
129 104 154
129 104 154
129 105 154
130 105 154
130 106 154
130 106 154
130 107 154
131 107 154
131 108 154
131 108 154
131 109 154
132 109 154
132 110 154
132 110 154
132 111 154
133 111 154
197 176 218
197 176 218
197 177 218
198 177 218
198 178 218
198 178 218
198 179 218
199 179 218
199 180 218
199 180 218
199 181 218
200 181 218
200 182 218
200 182 218
200 183 218
201 183 218
201 184 218
201 184 218
201 185 218
202 185 218
202 186 218
202 186 218
202 187 218
203 187 218
203 188 218
203 188 218
203 189 218
204 189 218
204 190 218
204 190 218
204 191 218
205 191 218
141 128 154
141 128 154
141 129 154
142 129 154
142 130 154
142 130 154
142 131 154
143 131 154
143 132 154
143 132 154
143 133 154
144 133 154
144 134 154
144 134 154
144 135 154
145 135 154
145 136 154
145 136 154
145 137 154
146 137 154
146 138 154
146 138 154
146 139 154
147 139 154
147 140 154
147 140 154
147 141 154
148 141 154
148 142 154
148 142 154
148 143 154
149 143 154
213 208 218
213 208 218
213 209 218
214 209 218
214 210 218
214 210 218
214 211 218
215 211 218
215 212 218
215 212 218
215 213 218
216 213 218
216 214 218
216 214 218
216 215 218
217 215 218
217 216 218
217 216 218
217 217 218
218 217 218
218 218 218
218 218 218
218 219 218
219 219 218
219 220 218
219 220 218
219 221 218
220 221 218
220 222 218
220 222 218
220 223 218
221 223 218
157 160 154
157 160 154
157 161 154
158 161 154
158 162 154
158 162 154
158 163 154
159 163 154
159 164 154
159 164 154
159 165 154
160 165 154
160 166 154
160 166 154
160 167 154
161 167 154
161 168 154
161 168 154
161 169 154
162 169 154
162 170 154
162 170 154
162 171 154
163 171 154
163 172 154
163 172 154
163 173 154
164 173 154
164 174 154
164 174 154
164 175 154
165 175 154
229 240 218
229 240 218
229 241 218
230 241 218
230 242 218
230 242 218
230 243 218
231 243 218
231 244 218
231 244 218
231 245 218
232 245 218
232 246 218
232 246 218
232 247 218
233 247 218
233 248 218
233 248 218
233 249 218
234 249 218
234 250 218
234 250 218
234 251 218
235 251 218
235 252 218
235 252 218
235 253 218
236 253 218
236 254 218
236 254 218
236 255 218
237 255 218
109 64 155
109 64 155
110 65 155
110 65 155
110 66 155
110 66 155
111 67 155
111 67 155
111 68 155
111 68 155
112 69 155
112 69 155
112 70 155
112 70 155
113 71 155
113 71 155
113 72 155
113 72 155
114 73 155
114 73 155
114 74 155
114 74 155
115 75 155
115 75 155
115 76 155
115 76 155
116 77 155
116 77 155
116 78 155
116 78 155
117 79 155
117 79 155
181 144 219
181 144 219
182 145 219
182 145 219
182 146 219
182 146 219
183 147 219
183 147 219
183 148 219
183 148 219
184 149 219
184 149 219
184 150 219
184 150 219
185 151 219
185 151 219
185 152 219
185 152 219
186 153 219
186 153 219
186 154 219
186 154 219
187 155 219
187 155 219
187 156 219
187 156 219
188 157 219
188 157 219
188 158 219
188 158 219
189 159 219
189 159 219
125 96 155
125 96 155
126 97 155
126 97 155
126 98 155
126 98 155
127 99 155
127 99 155
127 100 155
127 100 155
128 101 155
128 101 155
128 102 155
128 102 155
129 103 155
129 103 155
129 104 155
129 104 155
130 105 155
130 105 155
130 106 155
130 106 155
131 107 155
131 107 155
131 108 155
131 108 155
132 109 155
132 109 155
132 110 155
132 110 155
133 111 155
133 111 155
197 176 219
197 176 219
198 177 219
198 177 219
198 178 219
198 178 219
199 179 219
199 179 219
199 180 219
199 180 219
200 181 219
200 181 219
200 182 219
200 182 219
201 183 219
201 183 219
201 184 219
201 184 219
202 185 219
202 185 219
202 186 219
202 186 219
203 187 219
203 187 219
203 188 219
203 188 219
204 189 219
204 189 219
204 190 219
204 190 219
205 191 219
205 191 219
141 128 155
141 128 155
142 129 155
142 129 155
142 130 155
142 130 155
143 131 155
143 131 155
143 132 155
143 132 155
144 133 155
144 133 155
144 134 155
144 134 155
145 135 155
145 135 155
145 136 155
145 136 155
146 137 155
146 137 155
146 138 155
146 138 155
147 139 155
147 139 155
147 140 155
147 140 155
148 141 155
148 141 155
148 142 155
148 142 155
149 143 155
149 143 155
213 208 219
213 208 219
214 209 219
214 209 219
214 210 219
214 210 219
215 211 219
215 211 219
215 212 219
215 212 219
216 213 219
216 213 219
216 214 219
216 214 219
217 215 219
217 215 219
217 216 219
217 216 219
218 217 219
218 217 219
218 218 219
218 218 219
219 219 219
219 219 219
219 220 219
219 220 219
220 221 219
220 221 219
220 222 219
220 222 219
221 223 219
221 223 219
157 160 155
157 160 155
158 161 155
158 161 155
158 162 155
158 162 155
159 163 155
159 163 155
159 164 155
159 164 155
160 165 155
160 165 155
160 166 155
160 166 155
161 167 155
161 167 155
161 168 155
161 168 155
162 169 155
162 169 155
162 170 155
162 170 155
163 171 155
163 171 155
163 172 155
163 172 155
164 173 155
164 173 155
164 174 155
164 174 155
165 175 155
165 175 155
229 240 219
229 240 219
230 241 219
230 241 219
230 242 219
230 242 219
231 243 219
231 243 219
231 244 219
231 244 219
232 245 219
232 245 219
232 246 219
232 246 219
233 247 219
233 247 219
233 248 219
233 248 219
234 249 219
234 249 219
234 250 219
234 250 219
235 251 219
235 251 219
235 252 219
235 252 219
236 253 219
236 253 219
236 254 219
236 254 219
237 255 219
237 255 219
109 64 155
110 64 155
110 65 155
110 65 155
110 66 155
111 66 155
111 67 155
111 67 155
111 68 155
112 68 155
112 69 155
112 69 155
112 70 155
113 70 155
113 71 155
113 71 155
113 72 155
114 72 155
114 73 155
114 73 155
114 74 155
115 74 155
115 75 155
115 75 155
115 76 155
116 76 155
116 77 155
116 77 155
116 78 155
117 78 155
117 79 155
117 79 155
181 144 219
182 144 219
182 145 219
182 145 219
182 146 219
183 146 219
183 147 219
183 147 219
183 148 219
184 148 219
184 149 219
184 149 219
184 150 219
185 150 219
185 151 219
185 151 219
185 152 219
186 152 219
186 153 219
186 153 219
186 154 219
187 154 219
187 155 219
187 155 219
187 156 219
188 156 219
188 157 219
188 157 219
188 158 219
189 158 219
189 159 219
189 159 219
125 96 155
126 96 155
126 97 155
126 97 155
126 98 155
127 98 155
127 99 155
127 99 155
127 100 155
128 100 155
128 101 155
128 101 155
128 102 155
129 102 155
129 103 155
129 103 155
129 104 155
130 104 155
130 105 155
130 105 155
130 106 155
131 106 155
131 107 155
131 107 155
131 108 155
132 108 155
132 109 155
132 109 155
132 110 155
133 110 155
133 111 155
133 111 155
197 176 219
198 176 219
198 177 219
198 177 219
198 178 219
199 178 219
199 179 219
199 179 219
199 180 219
200 180 219
200 181 219
200 181 219
200 182 219
201 182 219
201 183 219
201 183 219
201 184 219
202 184 219
202 185 219
202 185 219
202 186 219
203 186 219
203 187 219
203 187 219
203 188 219
204 188 219
204 189 219
204 189 219
204 190 219
205 190 219
205 191 219
205 191 219
141 128 155
142 128 155
142 129 155
142 129 155
142 130 155
143 130 155
143 131 155
143 131 155
143 132 155
144 132 155
144 133 155
144 133 155
144 134 155
145 134 155
145 135 155
145 135 155
145 136 155
146 136 155
146 137 155
146 137 155
146 138 155
147 138 155
147 139 155
147 139 155
147 140 155
148 140 155
148 141 155
148 141 155
148 142 155
149 142 155
149 143 155
149 143 155
213 208 219
214 208 219
214 209 219
214 209 219
214 210 219
215 210 219
215 211 219
215 211 219
215 212 219
216 212 219
216 213 219
216 213 219
216 214 219
217 214 219
217 215 219
217 215 219
217 216 219
218 216 219
218 217 219
218 217 219
218 218 219
219 218 219
219 219 219
219 219 219
219 220 219
220 220 219
220 221 219
220 221 219
220 222 219
221 222 219
221 223 219
221 223 219
157 160 155
158 160 155
158 161 155
158 161 155
158 162 155
159 162 155
159 163 155
159 163 155
159 164 155
160 164 155
160 165 155
160 165 155
160 166 155
161 166 155
161 167 155
161 167 155
161 168 155
162 168 155
162 169 155
162 169 155
162 170 155
163 170 155
163 171 155
163 171 155
163 172 155
164 172 155
164 173 155
164 173 155
164 174 155
165 174 155
165 175 155
165 175 155
229 240 219
230 240 219
230 241 219
230 241 219
230 242 219
231 242 219
231 243 219
231 243 219
231 244 219
232 244 219
232 245 219
232 245 219
232 246 219
233 246 219
233 247 219
233 247 219
233 248 219
234 248 219
234 249 219
234 249 219
234 250 219
235 250 219
235 251 219
235 251 219
235 252 219
236 252 219
236 253 219
236 253 219
236 254 219
237 254 219
237 255 219
237 255 219
110 64 156
110 64 156
110 65 156
110 65 156
111 66 156
111 66 156
111 67 156
111 67 156
112 68 156
112 68 156
112 69 156
112 69 156
113 70 156
113 70 156
113 71 156
113 71 156
114 72 156
114 72 156
114 73 156
114 73 156
115 74 156
115 74 156
115 75 156
115 75 156
116 76 156
116 76 156
116 77 156
116 77 156
117 78 156
117 78 156
117 79 156
117 79 156
182 144 220
182 144 220
182 145 220
182 145 220
183 146 220
183 146 220
183 147 220
183 147 220
184 148 220
184 148 220
184 149 220
184 149 220
185 150 220
185 150 220
185 151 220
185 151 220
186 152 220
186 152 220
186 153 220
186 153 220
187 154 220
187 154 220
187 155 220
187 155 220
188 156 220
188 156 220
188 157 220
188 157 220
189 158 220
189 158 220
189 159 220
189 159 220
126 96 156
126 96 156
126 97 156
126 97 156
127 98 156
127 98 156
127 99 156
127 99 156
128 100 156
128 100 156
128 101 156
128 101 156
129 102 156
129 102 156
129 103 156
129 103 156
130 104 156
130 104 156
130 105 156
130 105 156
131 106 156
131 106 156
131 107 156
131 107 156
132 108 156
132 108 156
132 109 156
132 109 156
133 110 156
133 110 156
133 111 156
133 111 156
198 176 220
198 176 220
198 177 220
198 177 220
199 178 220
199 178 220
199 179 220
199 179 220
200 180 220
200 180 220
200 181 220
200 181 220
201 182 220
201 182 220
201 183 220
201 183 220
202 184 220
202 184 220
202 185 220
202 185 220
203 186 220
203 186 220
203 187 220
203 187 220
204 188 220
204 188 220
204 189 220
204 189 220
205 190 220
205 190 220
205 191 220
205 191 220
142 128 156
142 128 156
142 129 156
142 129 156
143 130 156
143 130 156
143 131 156
143 131 156
144 132 156
144 132 156
144 133 156
144 133 156
145 134 156
145 134 156
145 135 156
145 135 156
146 136 156
146 136 156
146 137 156
146 137 156
147 138 156
147 138 156
147 139 156
147 139 156
148 140 156
148 140 156
148 141 156
148 141 156
149 142 156
149 142 156
149 143 156
149 143 156
214 208 220
214 208 220
214 209 220
214 209 220
215 210 220
215 210 220
215 211 220
215 211 220
216 212 220
216 212 220
216 213 220
216 213 220
217 214 220
217 214 220
217 215 220
217 215 220
218 216 220
218 216 220
218 217 220
218 217 220
219 218 220
219 218 220
219 219 220
219 219 220
220 220 220
220 220 220
220 221 220
220 221 220
221 222 220
221 222 220
221 223 220
221 223 220
158 160 156
158 160 156
158 161 156
158 161 156
159 162 156
159 162 156
159 163 156
159 163 156
160 164 156
160 164 156
160 165 156
160 165 156
161 166 156
161 166 156
161 167 156
161 167 156
162 168 156
162 168 156
162 169 156
162 169 156
163 170 156
163 170 156
163 171 156
163 171 156
164 172 156
164 172 156
164 173 156
164 173 156
165 174 156
165 174 156
165 175 156
165 175 156
230 240 220
230 240 220
230 241 220
230 241 220
231 242 220
231 242 220
231 243 220
231 243 220
232 244 220
232 244 220
232 245 220
232 245 220
233 246 220
233 246 220
233 247 220
233 247 220
234 248 220
234 248 220
234 249 220
234 249 220
235 250 220
235 250 220
235 251 220
235 251 220
236 252 220
236 252 220
236 253 220
236 253 220
237 254 220
237 254 220
237 255 220
237 255 220
110 64 156
110 64 156
110 65 156
111 65 156
111 66 156
111 66 156
111 67 156
112 67 156
112 68 156
112 68 156
112 69 156
113 69 156
113 70 156
113 70 156
113 71 156
114 71 156
114 72 156
114 72 156
114 73 156
115 73 156
115 74 156
115 74 156
115 75 156
116 75 156
116 76 156
116 76 156
116 77 156
117 77 156
117 78 156
117 78 156
117 79 156
118 79 156
182 144 220
182 144 220
182 145 220
183 145 220
183 146 220
183 146 220
183 147 220
184 147 220
184 148 220
184 148 220
184 149 220
185 149 220
185 150 220
185 150 220
185 151 220
186 151 220
186 152 220
186 152 220
186 153 220
187 153 220
187 154 220
187 154 220
187 155 220
188 155 220
188 156 220
188 156 220
188 157 220
189 157 220
189 158 220
189 158 220
189 159 220
190 159 220
126 96 156
126 96 156
126 97 156
127 97 156
127 98 156
127 98 156
127 99 156
128 99 156
128 100 156
128 100 156
128 101 156
129 101 156
129 102 156
129 102 156
129 103 156
130 103 156
130 104 156
130 104 156
130 105 156
131 105 156
131 106 156
131 106 156
131 107 156
132 107 156
132 108 156
132 108 156
132 109 156
133 109 156
133 110 156
133 110 156
133 111 156
134 111 156
198 176 220
198 176 220
198 177 220
199 177 220
199 178 220
199 178 220
199 179 220
200 179 220
200 180 220
200 180 220
200 181 220
201 181 220
201 182 220
201 182 220
201 183 220
202 183 220
202 184 220
202 184 220
202 185 220
203 185 220
203 186 220
203 186 220
203 187 220
204 187 220
204 188 220
204 188 220
204 189 220
205 189 220
205 190 220
205 190 220
205 191 220
206 191 220
142 128 156
142 128 156
142 129 156
143 129 156
143 130 156
143 130 156
143 131 156
144 131 156
144 132 156
144 132 156
144 133 156
145 133 156
145 134 156
145 134 156
145 135 156
146 135 156
146 136 156
146 136 156
146 137 156
147 137 156
147 138 156
147 138 156
147 139 156
148 139 156
148 140 156
148 140 156
148 141 156
149 141 156
149 142 156
149 142 156
149 143 156
150 143 156
214 208 220
214 208 220
214 209 220
215 209 220
215 210 220
215 210 220
215 211 220
216 211 220
216 212 220
216 212 220
216 213 220
217 213 220
217 214 220
217 214 220
217 215 220
218 215 220
218 216 220
218 216 220
218 217 220
219 217 220
219 218 220
219 218 220
219 219 220
220 219 220
220 220 220
220 220 220
220 221 220
221 221 220
221 222 220
221 222 220
221 223 220
222 223 220
158 160 156
158 160 156
158 161 156
159 161 156
159 162 156
159 162 156
159 163 156
160 163 156
160 164 156
160 164 156
160 165 156
161 165 156
161 166 156
161 166 156
161 167 156
162 167 156
162 168 156
162 168 156
162 169 156
163 169 156
163 170 156
163 170 156
163 171 156
164 171 156
164 172 156
164 172 156
164 173 156
165 173 156
165 174 156
165 174 156
165 175 156
166 175 156
230 240 220
230 240 220
230 241 220
231 241 220
231 242 220
231 242 220
231 243 220
232 243 220
232 244 220
232 244 220
232 245 220
233 245 220
233 246 220
233 246 220
233 247 220
234 247 220
234 248 220
234 248 220
234 249 220
235 249 220
235 250 220
235 250 220
235 251 220
236 251 220
236 252 220
236 252 220
236 253 220
237 253 220
237 254 220
237 254 220
237 255 220
238 255 220
110 64 157
110 64 157
111 65 157
111 65 157
111 66 157
111 66 157
112 67 157
112 67 157
112 68 157
112 68 157
113 69 157
113 69 157
113 70 157
113 70 157
114 71 157
114 71 157
114 72 157
114 72 157
115 73 157
115 73 157
115 74 157
115 74 157
116 75 157
116 75 157
116 76 157
116 76 157
117 77 157
117 77 157
117 78 157
117 78 157
118 79 157
118 79 157
182 144 221
182 144 221
183 145 221
183 145 221
183 146 221
183 146 221
184 147 221
184 147 221
184 148 221
184 148 221
185 149 221
185 149 221
185 150 221
185 150 221
186 151 221
186 151 221
186 152 221
186 152 221
187 153 221
187 153 221
187 154 221
187 154 221
188 155 221
188 155 221
188 156 221
188 156 221
189 157 221
189 157 221
189 158 221
189 158 221
190 159 221
190 159 221
126 96 157
126 96 157
127 97 157
127 97 157
127 98 157
127 98 157
128 99 157
128 99 157
128 100 157
128 100 157
129 101 157
129 101 157
129 102 157
129 102 157
130 103 157
130 103 157
130 104 157
130 104 157
131 105 157
131 105 157
131 106 157
131 106 157
132 107 157
132 107 157
132 108 157
132 108 157
133 109 157
133 109 157
133 110 157
133 110 157
134 111 157
134 111 157
198 176 221
198 176 221
199 177 221
199 177 221
199 178 221
199 178 221
200 179 221
200 179 221
200 180 221
200 180 221
201 181 221
201 181 221
201 182 221
201 182 221
202 183 221
202 183 221
202 184 221
202 184 221
203 185 221
203 185 221
203 186 221
203 186 221
204 187 221
204 187 221
204 188 221
204 188 221
205 189 221
205 189 221
205 190 221
205 190 221
206 191 221
206 191 221
142 128 157
142 128 157
143 129 157
143 129 157
143 130 157
143 130 157
144 131 157
144 131 157
144 132 157
144 132 157
145 133 157
145 133 157
145 134 157
145 134 157
146 135 157
146 135 157
146 136 157
146 136 157
147 137 157
147 137 157
147 138 157
147 138 157
148 139 157
148 139 157
148 140 157
148 140 157
149 141 157
149 141 157
149 142 157
149 142 157
150 143 157
150 143 157
214 208 221
214 208 221
215 209 221
215 209 221
215 210 221
215 210 221
216 211 221
216 211 221
216 212 221
216 212 221
217 213 221
217 213 221
217 214 221
217 214 221
218 215 221
218 215 221
218 216 221
218 216 221
219 217 221
219 217 221
219 218 221
219 218 221
220 219 221
220 219 221
220 220 221
220 220 221
221 221 221
221 221 221
221 222 221
221 222 221
222 223 221
222 223 221
158 160 157
158 160 157
159 161 157
159 161 157
159 162 157
159 162 157
160 163 157
160 163 157
160 164 157
160 164 157
161 165 157
161 165 157
161 166 157
161 166 157
162 167 157
162 167 157
162 168 157
162 168 157
163 169 157
163 169 157
163 170 157
163 170 157
164 171 157
164 171 157
164 172 157
164 172 157
165 173 157
165 173 157
165 174 157
165 174 157
166 175 157
166 175 157
230 240 221
230 240 221
231 241 221
231 241 221
231 242 221
231 242 221
232 243 221
232 243 221
232 244 221
232 244 221
233 245 221
233 245 221
233 246 221
233 246 221
234 247 221
234 247 221
234 248 221
234 248 221
235 249 221
235 249 221
235 250 221
235 250 221
236 251 221
236 251 221
236 252 221
236 252 221
237 253 221
237 253 221
237 254 221
237 254 221
238 255 221
238 255 221
110 64 157
111 64 157
111 65 157
111 65 157
111 66 157
112 66 157
112 67 157
112 67 157
112 68 157
113 68 157
113 69 157
113 69 157
113 70 157
114 70 157
114 71 157
114 71 157
114 72 157
115 72 157
115 73 157
115 73 157
115 74 157
116 74 157
116 75 157
116 75 157
116 76 157
117 76 157
117 77 157
117 77 157
117 78 157
118 78 157
118 79 157
118 79 157
182 144 221
183 144 221
183 145 221
183 145 221
183 146 221
184 146 221
184 147 221
184 147 221
184 148 221
185 148 221
185 149 221
185 149 221
185 150 221
186 150 221
186 151 221
186 151 221
186 152 221
187 152 221
187 153 221
187 153 221
187 154 221
188 154 221
188 155 221
188 155 221
188 156 221
189 156 221
189 157 221
189 157 221
189 158 221
190 158 221
190 159 221
190 159 221
126 96 157
127 96 157
127 97 157
127 97 157
127 98 157
128 98 157
128 99 157
128 99 157
128 100 157
129 100 157
129 101 157
129 101 157
129 102 157
130 102 157
130 103 157
130 103 157
130 104 157
131 104 157
131 105 157
131 105 157
131 106 157
132 106 157
132 107 157
132 107 157
132 108 157
133 108 157
133 109 157
133 109 157
133 110 157
134 110 157
134 111 157
134 111 157
198 176 221
199 176 221
199 177 221
199 177 221
199 178 221
200 178 221
200 179 221
200 179 221
200 180 221
201 180 221
201 181 221
201 181 221
201 182 221
202 182 221
202 183 221
202 183 221
202 184 221
203 184 221
203 185 221
203 185 221
203 186 221
204 186 221
204 187 221
204 187 221
204 188 221
205 188 221
205 189 221
205 189 221
205 190 221
206 190 221
206 191 221
206 191 221
142 128 157
143 128 157
143 129 157
143 129 157
143 130 157
144 130 157
144 131 157
144 131 157
144 132 157
145 132 157
145 133 157
145 133 157
145 134 157
146 134 157
146 135 157
146 135 157
146 136 157
147 136 157
147 137 157
147 137 157
147 138 157
148 138 157
148 139 157
148 139 157
148 140 157
149 140 157
149 141 157
149 141 157
149 142 157
150 142 157
150 143 157
150 143 157
214 208 221
215 208 221
215 209 221
215 209 221
215 210 221
216 210 221
216 211 221
216 211 221
216 212 221
217 212 221
217 213 221
217 213 221
217 214 221
218 214 221
218 215 221
218 215 221
218 216 221
219 216 221
219 217 221
219 217 221
219 218 221
220 218 221
220 219 221
220 219 221
220 220 221
221 220 221
221 221 221
221 221 221
221 222 221
222 222 221
222 223 221
222 223 221
158 160 157
159 160 157
159 161 157
159 161 157
159 162 157
160 162 157
160 163 157
160 163 157
160 164 157
161 164 157
161 165 157
161 165 157
161 166 157
162 166 157
162 167 157
162 167 157
162 168 157
163 168 157
163 169 157
163 169 157
163 170 157
164 170 157
164 171 157
164 171 157
164 172 157
165 172 157
165 173 157
165 173 157
165 174 157
166 174 157
166 175 157
166 175 157
230 240 221
231 240 221
231 241 221
231 241 221
231 242 221
232 242 221
232 243 221
232 243 221
232 244 221
233 244 221
233 245 221
233 245 221
233 246 221
234 246 221
234 247 221
234 247 221
234 248 221
235 248 221
235 249 221
235 249 221
235 250 221
236 250 221
236 251 221
236 251 221
236 252 221
237 252 221
237 253 221
237 253 221
237 254 221
238 254 221
238 255 221
238 255 221
111 64 158
111 64 158
111 65 158
111 65 158
112 66 158
112 66 158
112 67 158
112 67 158
113 68 158
113 68 158
113 69 158
113 69 158
114 70 158
114 70 158
114 71 158
114 71 158
115 72 158
115 72 158
115 73 158
115 73 158
116 74 158
116 74 158
116 75 158
116 75 158
117 76 158
117 76 158
117 77 158
117 77 158
118 78 158
118 78 158
118 79 158
118 79 158
183 144 222
183 144 222
183 145 222
183 145 222
184 146 222
184 146 222
184 147 222
184 147 222
185 148 222
185 148 222
185 149 222
185 149 222
186 150 222
186 150 222
186 151 222
186 151 222
187 152 222
187 152 222
187 153 222
187 153 222
188 154 222
188 154 222
188 155 222
188 155 222
189 156 222
189 156 222
189 157 222
189 157 222
190 158 222
190 158 222
190 159 222
190 159 222
127 96 158
127 96 158
127 97 158
127 97 158
128 98 158
128 98 158
128 99 158
128 99 158
129 100 158
129 100 158
129 101 158
129 101 158
130 102 158
130 102 158
130 103 158
130 103 158
131 104 158
131 104 158
131 105 158
131 105 158
132 106 158
132 106 158
132 107 158
132 107 158
133 108 158
133 108 158
133 109 158
133 109 158
134 110 158
134 110 158
134 111 158
134 111 158
199 176 222
199 176 222
199 177 222
199 177 222
200 178 222
200 178 222
200 179 222
200 179 222
201 180 222
201 180 222
201 181 222
201 181 222
202 182 222
202 182 222
202 183 222
202 183 222
203 184 222
203 184 222
203 185 222
203 185 222
204 186 222
204 186 222
204 187 222
204 187 222
205 188 222
205 188 222
205 189 222
205 189 222
206 190 222
206 190 222
206 191 222
206 191 222
143 128 158
143 128 158
143 129 158
143 129 158
144 130 158
144 130 158
144 131 158
144 131 158
145 132 158
145 132 158
145 133 158
145 133 158
146 134 158
146 134 158
146 135 158
146 135 158
147 136 158
147 136 158
147 137 158
147 137 158
148 138 158
148 138 158
148 139 158
148 139 158
149 140 158
149 140 158
149 141 158
149 141 158
150 142 158
150 142 158
150 143 158
150 143 158
215 208 222
215 208 222
215 209 222
215 209 222
216 210 222
216 210 222
216 211 222
216 211 222
217 212 222
217 212 222
217 213 222
217 213 222
218 214 222
218 214 222
218 215 222
218 215 222
219 216 222
219 216 222
219 217 222
219 217 222
220 218 222
220 218 222
220 219 222
220 219 222
221 220 222
221 220 222
221 221 222
221 221 222
222 222 222
222 222 222
222 223 222
222 223 222
159 160 158
159 160 158
159 161 158
159 161 158
160 162 158
160 162 158
160 163 158
160 163 158
161 164 158
161 164 158
161 165 158
161 165 158
162 166 158
162 166 158
162 167 158
162 167 158
163 168 158
163 168 158
163 169 158
163 169 158
164 170 158
164 170 158
164 171 158
164 171 158
165 172 158
165 172 158
165 173 158
165 173 158
166 174 158
166 174 158
166 175 158
166 175 158
231 240 222
231 240 222
231 241 222
231 241 222
232 242 222
232 242 222
232 243 222
232 243 222
233 244 222
233 244 222
233 245 222
233 245 222
234 246 222
234 246 222
234 247 222
234 247 222
235 248 222
235 248 222
235 249 222
235 249 222
236 250 222
236 250 222
236 251 222
236 251 222
237 252 222
237 252 222
237 253 222
237 253 222
238 254 222
238 254 222
238 255 222
238 255 222
111 64 158
111 64 158
111 65 158
112 65 158
112 66 158
112 66 158
112 67 158
113 67 158
113 68 158
113 68 158
113 69 158
114 69 158
114 70 158
114 70 158
114 71 158
115 71 158
115 72 158
115 72 158
115 73 158
116 73 158
116 74 158
116 74 158
116 75 158
117 75 158
117 76 158
117 76 158
117 77 158
118 77 158
118 78 158
118 78 158
118 79 158
119 79 158
183 144 222
183 144 222
183 145 222
184 145 222
184 146 222
184 146 222
184 147 222
185 147 222
185 148 222
185 148 222
185 149 222
186 149 222
186 150 222
186 150 222
186 151 222
187 151 222
187 152 222
187 152 222
187 153 222
188 153 222
188 154 222
188 154 222
188 155 222
189 155 222
189 156 222
189 156 222
189 157 222
190 157 222
190 158 222
190 158 222
190 159 222
191 159 222
127 96 158
127 96 158
127 97 158
128 97 158
128 98 158
128 98 158
128 99 158
129 99 158
129 100 158
129 100 158
129 101 158
130 101 158
130 102 158
130 102 158
130 103 158
131 103 158
131 104 158
131 104 158
131 105 158
132 105 158
132 106 158
132 106 158
132 107 158
133 107 158
133 108 158
133 108 158
133 109 158
134 109 158
134 110 158
134 110 158
134 111 158
135 111 158
199 176 222
199 176 222
199 177 222
200 177 222
200 178 222
200 178 222
200 179 222
201 179 222
201 180 222
201 180 222
201 181 222
202 181 222
202 182 222
202 182 222
202 183 222
203 183 222
203 184 222
203 184 222
203 185 222
204 185 222
204 186 222
204 186 222
204 187 222
205 187 222
205 188 222
205 188 222
205 189 222
206 189 222
206 190 222
206 190 222
206 191 222
207 191 222
143 128 158
143 128 158
143 129 158
144 129 158
144 130 158
144 130 158
144 131 158
145 131 158
145 132 158
145 132 158
145 133 158
146 133 158
146 134 158
146 134 158
146 135 158
147 135 158
147 136 158
147 136 158
147 137 158
148 137 158
148 138 158
148 138 158
148 139 158
149 139 158
149 140 158
149 140 158
149 141 158
150 141 158
150 142 158
150 142 158
150 143 158
151 143 158
215 208 222
215 208 222
215 209 222
216 209 222
216 210 222
216 210 222
216 211 222
217 211 222
217 212 222
217 212 222
217 213 222
218 213 222
218 214 222
218 214 222
218 215 222
219 215 222
219 216 222
219 216 222
219 217 222
220 217 222
220 218 222
220 218 222
220 219 222
221 219 222
221 220 222
221 220 222
221 221 222
222 221 222
222 222 222
222 222 222
222 223 222
223 223 222
159 160 158
159 160 158
159 161 158
160 161 158
160 162 158
160 162 158
160 163 158
161 163 158
161 164 158
161 164 158
161 165 158
162 165 158
162 166 158
162 166 158
162 167 158
163 167 158
163 168 158
163 168 158
163 169 158
164 169 158
164 170 158
164 170 158
164 171 158
165 171 158
165 172 158
165 172 158
165 173 158
166 173 158
166 174 158
166 174 158
166 175 158
167 175 158
231 240 222
231 240 222
231 241 222
232 241 222
232 242 222
232 242 222
232 243 222
233 243 222
233 244 222
233 244 222
233 245 222
234 245 222
234 246 222
234 246 222
234 247 222
235 247 222
235 248 222
235 248 222
235 249 222
236 249 222
236 250 222
236 250 222
236 251 222
237 251 222
237 252 222
237 252 222
237 253 222
238 253 222
238 254 222
238 254 222
238 255 222
239 255 222
111 64 159
111 64 159
112 65 159
112 65 159
112 66 159
112 66 159
113 67 159
113 67 159
113 68 159
113 68 159
114 69 159
114 69 159
114 70 159
114 70 159
115 71 159
115 71 159
115 72 159
115 72 159
116 73 159
116 73 159
116 74 159
116 74 159
117 75 159
117 75 159
117 76 159
117 76 159
118 77 159
118 77 159
118 78 159
118 78 159
119 79 159
119 79 159
183 144 223
183 144 223
184 145 223
184 145 223
184 146 223
184 146 223
185 147 223
185 147 223
185 148 223
185 148 223
186 149 223
186 149 223
186 150 223
186 150 223
187 151 223
187 151 223
187 152 223
187 152 223
188 153 223
188 153 223
188 154 223
188 154 223
189 155 223
189 155 223
189 156 223
189 156 223
190 157 223
190 157 223
190 158 223
190 158 223
191 159 223
191 159 223
127 96 159
127 96 159
128 97 159
128 97 159
128 98 159
128 98 159
129 99 159
129 99 159
129 100 159
129 100 159
130 101 159
130 101 159
130 102 159
130 102 159
131 103 159
131 103 159
131 104 159
131 104 159
132 105 159
132 105 159
132 106 159
132 106 159
133 107 159
133 107 159
133 108 159
133 108 159
134 109 159
134 109 159
134 110 159
134 110 159
135 111 159
135 111 159
199 176 223
199 176 223
200 177 223
200 177 223
200 178 223
200 178 223
201 179 223
201 179 223
201 180 223
201 180 223
202 181 223
202 181 223
202 182 223
202 182 223
203 183 223
203 183 223
203 184 223
203 184 223
204 185 223
204 185 223
204 186 223
204 186 223
205 187 223
205 187 223
205 188 223
205 188 223
206 189 223
206 189 223
206 190 223
206 190 223
207 191 223
207 191 223
143 128 159
143 128 159
144 129 159
144 129 159
144 130 159
144 130 159
145 131 159
145 131 159
145 132 159
145 132 159
146 133 159
146 133 159
146 134 159
146 134 159
147 135 159
147 135 159
147 136 159
147 136 159
148 137 159
148 137 159
148 138 159
148 138 159
149 139 159
149 139 159
149 140 159
149 140 159
150 141 159
150 141 159
150 142 159
150 142 159
151 143 159
151 143 159
215 208 223
215 208 223
216 209 223
216 209 223
216 210 223
216 210 223
217 211 223
217 211 223
217 212 223
217 212 223
218 213 223
218 213 223
218 214 223
218 214 223
219 215 223
219 215 223
219 216 223
219 216 223
220 217 223
220 217 223
220 218 223
220 218 223
221 219 223
221 219 223
221 220 223
221 220 223
222 221 223
222 221 223
222 222 223
222 222 223
223 223 223
223 223 223
159 160 159
159 160 159
160 161 159
160 161 159
160 162 159
160 162 159
161 163 159
161 163 159
161 164 159
161 164 159
162 165 159
162 165 159
162 166 159
162 166 159
163 167 159
163 167 159
163 168 159
163 168 159
164 169 159
164 169 159
164 170 159
164 170 159
165 171 159
165 171 159
165 172 159
165 172 159
166 173 159
166 173 159
166 174 159
166 174 159
167 175 159
167 175 159
231 240 223
231 240 223
232 241 223
232 241 223
232 242 223
232 242 223
233 243 223
233 243 223
233 244 223
233 244 223
234 245 223
234 245 223
234 246 223
234 246 223
235 247 223
235 247 223
235 248 223
235 248 223
236 249 223
236 249 223
236 250 223
236 250 223
237 251 223
237 251 223
237 252 223
237 252 223
238 253 223
238 253 223
238 254 223
238 254 223
239 255 223
239 255 223
111 64 159
112 64 159
112 65 159
112 65 159
112 66 159
113 66 159
113 67 159
113 67 159
113 68 159
114 68 159
114 69 159
114 69 159
114 70 159
115 70 159
115 71 159
115 71 159
115 72 159
116 72 159
116 73 159
116 73 159
116 74 159
117 74 159
117 75 159
117 75 159
117 76 159
118 76 159
118 77 159
118 77 159
118 78 159
119 78 159
119 79 159
119 79 159
183 144 223
184 144 223
184 145 223
184 145 223
184 146 223
185 146 223
185 147 223
185 147 223
185 148 223
186 148 223
186 149 223
186 149 223
186 150 223
187 150 223
187 151 223
187 151 223
187 152 223
188 152 223
188 153 223
188 153 223
188 154 223
189 154 223
189 155 223
189 155 223
189 156 223
190 156 223
190 157 223
190 157 223
190 158 223
191 158 223
191 159 223
191 159 223
127 96 159
128 96 159
128 97 159
128 97 159
128 98 159
129 98 159
129 99 159
129 99 159
129 100 159
130 100 159
130 101 159
130 101 159
130 102 159
131 102 159
131 103 159
131 103 159
131 104 159
132 104 159
132 105 159
132 105 159
132 106 159
133 106 159
133 107 159
133 107 159
133 108 159
134 108 159
134 109 159
134 109 159
134 110 159
135 110 159
135 111 159
135 111 159
199 176 223
200 176 223
200 177 223
200 177 223
200 178 223
201 178 223
201 179 223
201 179 223
201 180 223
202 180 223
202 181 223
202 181 223
202 182 223
203 182 223
203 183 223
203 183 223
203 184 223
204 184 223
204 185 223
204 185 223
204 186 223
205 186 223
205 187 223
205 187 223
205 188 223
206 188 223
206 189 223
206 189 223
206 190 223
207 190 223
207 191 223
207 191 223
143 128 159
144 128 159
144 129 159
144 129 159
144 130 159
145 130 159
145 131 159
145 131 159
145 132 159
146 132 159
146 133 159
146 133 159
146 134 159
147 134 159
147 135 159
147 135 159
147 136 159
148 136 159
148 137 159
148 137 159
148 138 159
149 138 159
149 139 159
149 139 159
149 140 159
150 140 159
150 141 159
150 141 159
150 142 159
151 142 159
151 143 159
151 143 159
215 208 223
216 208 223
216 209 223
216 209 223
216 210 223
217 210 223
217 211 223
217 211 223
217 212 223
218 212 223
218 213 223
218 213 223
218 214 223
219 214 223
219 215 223
219 215 223
219 216 223
220 216 223
220 217 223
220 217 223
220 218 223
221 218 223
221 219 223
221 219 223
221 220 223
222 220 223
222 221 223
222 221 223
222 222 223
223 222 223
223 223 223
223 223 223
159 160 159
160 160 159
160 161 159
160 161 159
160 162 159
161 162 159
161 163 159
161 163 159
161 164 159
162 164 159
162 165 159
162 165 159
162 166 159
163 166 159
163 167 159
163 167 159
163 168 159
164 168 159
164 169 159
164 169 159
164 170 159
165 170 159
165 171 159
165 171 159
165 172 159
166 172 159
166 173 159
166 173 159
166 174 159
167 174 159
167 175 159
167 175 159
231 240 223
232 240 223
232 241 223
232 241 223
232 242 223
233 242 223
233 243 223
233 243 223
233 244 223
234 244 223
234 245 223
234 245 223
234 246 223
235 246 223
235 247 223
235 247 223
235 248 223
236 248 223
236 249 223
236 249 223
236 250 223
237 250 223
237 251 223
237 251 223
237 252 223
238 252 223
238 253 223
238 253 223
238 254 223
239 254 223
239 255 223
239 255 223
176 128 224
176 128 224
176 129 224
176 129 224
177 130 224
177 130 224
177 131 224
177 131 224
178 132 224
178 132 224
178 133 224
178 133 224
179 134 224
179 134 224
179 135 224
179 135 224
180 136 224
180 136 224
180 137 224
180 137 224
181 138 224
181 138 224
181 139 224
181 139 224
182 140 224
182 140 224
182 141 224
182 141 224
183 142 224
183 142 224
183 143 224
183 143 224
120 80 160
120 80 160
120 81 160
120 81 160
121 82 160
121 82 160
121 83 160
121 83 160
122 84 160
122 84 160
122 85 160
122 85 160
123 86 160
123 86 160
123 87 160
123 87 160
124 88 160
124 88 160
124 89 160
124 89 160
125 90 160
125 90 160
125 91 160
125 91 160
126 92 160
126 92 160
126 93 160
126 93 160
127 94 160
127 94 160
127 95 160
127 95 160
192 160 224
192 160 224
192 161 224
192 161 224
193 162 224
193 162 224
193 163 224
193 163 224
194 164 224
194 164 224
194 165 224
194 165 224
195 166 224
195 166 224
195 167 224
195 167 224
196 168 224
196 168 224
196 169 224
196 169 224
197 170 224
197 170 224
197 171 224
197 171 224
198 172 224
198 172 224
198 173 224
198 173 224
199 174 224
199 174 224
199 175 224
199 175 224
136 112 160
136 112 160
136 113 160
136 113 160
137 114 160
137 114 160
137 115 160
137 115 160
138 116 160
138 116 160
138 117 160
138 117 160
139 118 160
139 118 160
139 119 160
139 119 160
140 120 160
140 120 160
140 121 160
140 121 160
141 122 160
141 122 160
141 123 160
141 123 160
142 124 160
142 124 160
142 125 160
142 125 160
143 126 160
143 126 160
143 127 160
143 127 160
208 192 224
208 192 224
208 193 224
208 193 224
209 194 224
209 194 224
209 195 224
209 195 224
210 196 224
210 196 224
210 197 224
210 197 224
211 198 224
211 198 224
211 199 224
211 199 224
212 200 224
212 200 224
212 201 224
212 201 224
213 202 224
213 202 224
213 203 224
213 203 224
214 204 224
214 204 224
214 205 224
214 205 224
215 206 224
215 206 224
215 207 224
215 207 224
152 144 160
152 144 160
152 145 160
152 145 160
153 146 160
153 146 160
153 147 160
153 147 160
154 148 160
154 148 160
154 149 160
154 149 160
155 150 160
155 150 160
155 151 160
155 151 160
156 152 160
156 152 160
156 153 160
156 153 160
157 154 160
157 154 160
157 155 160
157 155 160
158 156 160
158 156 160
158 157 160
158 157 160
159 158 160
159 158 160
159 159 160
159 159 160
224 224 224
224 224 224
224 225 224
224 225 224
225 226 224
225 226 224
225 227 224
225 227 224
226 228 224
226 228 224
226 229 224
226 229 224
227 230 224
227 230 224
227 231 224
227 231 224
228 232 224
228 232 224
228 233 224
228 233 224
229 234 224
229 234 224
229 235 224
229 235 224
230 236 224
230 236 224
230 237 224
230 237 224
231 238 224
231 238 224
231 239 224
231 239 224
168 176 160
168 176 160
168 177 160
168 177 160
169 178 160
169 178 160
169 179 160
169 179 160
170 180 160
170 180 160
170 181 160
170 181 160
171 182 160
171 182 160
171 183 160
171 183 160
172 184 160
172 184 160
172 185 160
172 185 160
173 186 160
173 186 160
173 187 160
173 187 160
174 188 160
174 188 160
174 189 160
174 189 160
175 190 160
175 190 160
175 191 160
175 191 160
176 128 224
176 128 224
176 129 224
177 129 224
177 130 224
177 130 224
177 131 224
178 131 224
178 132 224
178 132 224
178 133 224
179 133 224
179 134 224
179 134 224
179 135 224
180 135 224
180 136 224
180 136 224
180 137 224
181 137 224
181 138 224
181 138 224
181 139 224
182 139 224
182 140 224
182 140 224
182 141 224
183 141 224
183 142 224
183 142 224
183 143 224
184 143 224
120 80 160
120 80 160
120 81 160
121 81 160
121 82 160
121 82 160
121 83 160
122 83 160
122 84 160
122 84 160
122 85 160
123 85 160
123 86 160
123 86 160
123 87 160
124 87 160
124 88 160
124 88 160
124 89 160
125 89 160
125 90 160
125 90 160
125 91 160
126 91 160
126 92 160
126 92 160
126 93 160
127 93 160
127 94 160
127 94 160
127 95 160
128 95 160
192 160 224
192 160 224
192 161 224
193 161 224
193 162 224
193 162 224
193 163 224
194 163 224
194 164 224
194 164 224
194 165 224
195 165 224
195 166 224
195 166 224
195 167 224
196 167 224
196 168 224
196 168 224
196 169 224
197 169 224
197 170 224
197 170 224
197 171 224
198 171 224
198 172 224
198 172 224
198 173 224
199 173 224
199 174 224
199 174 224
199 175 224
200 175 224
136 112 160
136 112 160
136 113 160
137 113 160
137 114 160
137 114 160
137 115 160
138 115 160
138 116 160
138 116 160
138 117 160
139 117 160
139 118 160
139 118 160
139 119 160
140 119 160
140 120 160
140 120 160
140 121 160
141 121 160
141 122 160
141 122 160
141 123 160
142 123 160
142 124 160
142 124 160
142 125 160
143 125 160
143 126 160
143 126 160
143 127 160
144 127 160
208 192 224
208 192 224
208 193 224
209 193 224
209 194 224
209 194 224
209 195 224
210 195 224
210 196 224
210 196 224
210 197 224
211 197 224
211 198 224
211 198 224
211 199 224
212 199 224
212 200 224
212 200 224
212 201 224
213 201 224
213 202 224
213 202 224
213 203 224
214 203 224
214 204 224
214 204 224
214 205 224
215 205 224
215 206 224
215 206 224
215 207 224
216 207 224
152 144 160
152 144 160
152 145 160
153 145 160
153 146 160
153 146 160
153 147 160
154 147 160
154 148 160
154 148 160
154 149 160
155 149 160
155 150 160
155 150 160
155 151 160
156 151 160
156 152 160
156 152 160
156 153 160
157 153 160
157 154 160
157 154 160
157 155 160
158 155 160
158 156 160
158 156 160
158 157 160
159 157 160
159 158 160
159 158 160
159 159 160
160 159 160
224 224 224
224 224 224
224 225 224
225 225 224
225 226 224
225 226 224
225 227 224
226 227 224
226 228 224
226 228 224
226 229 224
227 229 224
227 230 224
227 230 224
227 231 224
228 231 224
228 232 224
228 232 224
228 233 224
229 233 224
229 234 224
229 234 224
229 235 224
230 235 224
230 236 224
230 236 224
230 237 224
231 237 224
231 238 224
231 238 224
231 239 224
232 239 224
168 176 160
168 176 160
168 177 160
169 177 160
169 178 160
169 178 160
169 179 160
170 179 160
170 180 160
170 180 160
170 181 160
171 181 160
171 182 160
171 182 160
171 183 160
172 183 160
172 184 160
172 184 160
172 185 160
173 185 160
173 186 160
173 186 160
173 187 160
174 187 160
174 188 160
174 188 160
174 189 160
175 189 160
175 190 160
175 190 160
175 191 160
176 191 160
176 128 225
176 128 225
177 129 225
177 129 225
177 130 225
177 130 225
178 131 225
178 131 225
178 132 225
178 132 225
179 133 225
179 133 225
179 134 225
179 134 225
180 135 225
180 135 225
180 136 225
180 136 225
181 137 225
181 137 225
181 138 225
181 138 225
182 139 225
182 139 225
182 140 225
182 140 225
183 141 225
183 141 225
183 142 225
183 142 225
184 143 225
184 143 225
120 80 161
120 80 161
121 81 161
121 81 161
121 82 161
121 82 161
122 83 161
122 83 161
122 84 161
122 84 161
123 85 161
123 85 161
123 86 161
123 86 161
124 87 161
124 87 161
124 88 161
124 88 161
125 89 161
125 89 161
125 90 161
125 90 161
126 91 161
126 91 161
126 92 161
126 92 161
127 93 161
127 93 161
127 94 161
127 94 161
128 95 161
128 95 161
192 160 225
192 160 225
193 161 225
193 161 225
193 162 225
193 162 225
194 163 225
194 163 225
194 164 225
194 164 225
195 165 225
195 165 225
195 166 225
195 166 225
196 167 225
196 167 225
196 168 225
196 168 225
197 169 225
197 169 225
197 170 225
197 170 225
198 171 225
198 171 225
198 172 225
198 172 225
199 173 225
199 173 225
199 174 225
199 174 225
200 175 225
200 175 225
136 112 161
136 112 161
137 113 161
137 113 161
137 114 161
137 114 161
138 115 161
138 115 161
138 116 161
138 116 161
139 117 161
139 117 161
139 118 161
139 118 161
140 119 161
140 119 161
140 120 161
140 120 161
141 121 161
141 121 161
141 122 161
141 122 161
142 123 161
142 123 161
142 124 161
142 124 161
143 125 161
143 125 161
143 126 161
143 126 161
144 127 161
144 127 161
208 192 225
208 192 225
209 193 225
209 193 225
209 194 225
209 194 225
210 195 225
210 195 225
210 196 225
210 196 225
211 197 225
211 197 225
211 198 225
211 198 225
212 199 225
212 199 225
212 200 225
212 200 225
213 201 225
213 201 225
213 202 225
213 202 225
214 203 225
214 203 225
214 204 225
214 204 225
215 205 225
215 205 225
215 206 225
215 206 225
216 207 225
216 207 225
152 144 161
152 144 161
153 145 161
153 145 161
153 146 161
153 146 161
154 147 161
154 147 161
154 148 161
154 148 161
155 149 161
155 149 161
155 150 161
155 150 161
156 151 161
156 151 161
156 152 161
156 152 161
157 153 161
157 153 161
157 154 161
157 154 161
158 155 161
158 155 161
158 156 161
158 156 161
159 157 161
159 157 161
159 158 161
159 158 161
160 159 161
160 159 161
224 224 225
224 224 225
225 225 225
225 225 225
225 226 225
225 226 225
226 227 225
226 227 225
226 228 225
226 228 225
227 229 225
227 229 225
227 230 225
227 230 225
228 231 225
228 231 225
228 232 225
228 232 225
229 233 225
229 233 225
229 234 225
229 234 225
230 235 225
230 235 225
230 236 225
230 236 225
231 237 225
231 237 225
231 238 225
231 238 225
232 239 225
232 239 225
168 176 161
168 176 161
169 177 161
169 177 161
169 178 161
169 178 161
170 179 161
170 179 161
170 180 161
170 180 161
171 181 161
171 181 161
171 182 161
171 182 161
172 183 161
172 183 161
172 184 161
172 184 161
173 185 161
173 185 161
173 186 161
173 186 161
174 187 161
174 187 161
174 188 161
174 188 161
175 189 161
175 189 161
175 190 161
175 190 161
176 191 161
176 191 161
176 128 225
177 128 225
177 129 225
177 129 225
177 130 225
178 130 225
178 131 225
178 131 225
178 132 225
179 132 225
179 133 225
179 133 225
179 134 225
180 134 225
180 135 225
180 135 225
180 136 225
181 136 225
181 137 225
181 137 225
181 138 225
182 138 225
182 139 225
182 139 225
182 140 225
183 140 225
183 141 225
183 141 225
183 142 225
184 142 225
184 143 225
184 143 225
120 80 161
121 80 161
121 81 161
121 81 161
121 82 161
122 82 161
122 83 161
122 83 161
122 84 161
123 84 161
123 85 161
123 85 161
123 86 161
124 86 161
124 87 161
124 87 161
124 88 161
125 88 161
125 89 161
125 89 161
125 90 161
126 90 161
126 91 161
126 91 161
126 92 161
127 92 161
127 93 161
127 93 161
127 94 161
128 94 161
128 95 161
128 95 161
192 160 225
193 160 225
193 161 225
193 161 225
193 162 225
194 162 225
194 163 225
194 163 225
194 164 225
195 164 225
195 165 225
195 165 225
195 166 225
196 166 225
196 167 225
196 167 225
196 168 225
197 168 225
197 169 225
197 169 225
197 170 225
198 170 225
198 171 225
198 171 225
198 172 225
199 172 225
199 173 225
199 173 225
199 174 225
200 174 225
200 175 225
200 175 225
136 112 161
137 112 161
137 113 161
137 113 161
137 114 161
138 114 161
138 115 161
138 115 161
138 116 161
139 116 161
139 117 161
139 117 161
139 118 161
140 118 161
140 119 161
140 119 161
140 120 161
141 120 161
141 121 161
141 121 161
141 122 161
142 122 161
142 123 161
142 123 161
142 124 161
143 124 161
143 125 161
143 125 161
143 126 161
144 126 161
144 127 161
144 127 161
208 192 225
209 192 225
209 193 225
209 193 225
209 194 225
210 194 225
210 195 225
210 195 225
210 196 225
211 196 225
211 197 225
211 197 225
211 198 225
212 198 225
212 199 225
212 199 225
212 200 225
213 200 225
213 201 225
213 201 225
213 202 225
214 202 225
214 203 225
214 203 225
214 204 225
215 204 225
215 205 225
215 205 225
215 206 225
216 206 225
216 207 225
216 207 225
152 144 161
153 144 161
153 145 161
153 145 161
153 146 161
154 146 161
154 147 161
154 147 161
154 148 161
155 148 161
155 149 161
155 149 161
155 150 161
156 150 161
156 151 161
156 151 161
156 152 161
157 152 161
157 153 161
157 153 161
157 154 161
158 154 161
158 155 161
158 155 161
158 156 161
159 156 161
159 157 161
159 157 161
159 158 161
160 158 161
160 159 161
160 159 161
224 224 225
225 224 225
225 225 225
225 225 225
225 226 225
226 226 225
226 227 225
226 227 225
226 228 225
227 228 225
227 229 225
227 229 225
227 230 225
228 230 225
228 231 225
228 231 225
228 232 225
229 232 225
229 233 225
229 233 225
229 234 225
230 234 225
230 235 225
230 235 225
230 236 225
231 236 225
231 237 225
231 237 225
231 238 225
232 238 225
232 239 225
232 239 225
168 176 161
169 176 161
169 177 161
169 177 161
169 178 161
170 178 161
170 179 161
170 179 161
170 180 161
171 180 161
171 181 161
171 181 161
171 182 161
172 182 161
172 183 161
172 183 161
172 184 161
173 184 161
173 185 161
173 185 161
173 186 161
174 186 161
174 187 161
174 187 161
174 188 161
175 188 161
175 189 161
175 189 161
175 190 161
176 190 161
176 191 161
176 191 161
177 128 226
177 128 226
177 129 226
177 129 226
178 130 226
178 130 226
178 131 226
178 131 226
179 132 226
179 132 226
179 133 226
179 133 226
180 134 226
180 134 226
180 135 226
180 135 226
181 136 226
181 136 226
181 137 226
181 137 226
182 138 226
182 138 226
182 139 226
182 139 226
183 140 226
183 140 226
183 141 226
183 141 226
184 142 226
184 142 226
184 143 226
184 143 226
121 80 162
121 80 162
121 81 162
121 81 162
122 82 162
122 82 162
122 83 162
122 83 162
123 84 162
123 84 162
123 85 162
123 85 162
124 86 162
124 86 162
124 87 162
124 87 162
125 88 162
125 88 162
125 89 162
125 89 162
126 90 162
126 90 162
126 91 162
126 91 162
127 92 162
127 92 162
127 93 162
127 93 162
128 94 162
128 94 162
128 95 162
128 95 162
193 160 226
193 160 226
193 161 226
193 161 226
194 162 226
194 162 226
194 163 226
194 163 226
195 164 226
195 164 226
195 165 226
195 165 226
196 166 226
196 166 226
196 167 226
196 167 226
197 168 226
197 168 226
197 169 226
197 169 226
198 170 226
198 170 226
198 171 226
198 171 226
199 172 226
199 172 226
199 173 226
199 173 226
200 174 226
200 174 226
200 175 226
200 175 226
137 112 162
137 112 162
137 113 162
137 113 162
138 114 162
138 114 162
138 115 162
138 115 162
139 116 162
139 116 162
139 117 162
139 117 162
140 118 162
140 118 162
140 119 162
140 119 162
141 120 162
141 120 162
141 121 162
141 121 162
142 122 162
142 122 162
142 123 162
142 123 162
143 124 162
143 124 162
143 125 162
143 125 162
144 126 162
144 126 162
144 127 162
144 127 162
209 192 226
209 192 226
209 193 226
209 193 226
210 194 226
210 194 226
210 195 226
210 195 226
211 196 226
211 196 226
211 197 226
211 197 226
212 198 226
212 198 226
212 199 226
212 199 226
213 200 226
213 200 226
213 201 226
213 201 226
214 202 226
214 202 226
214 203 226
214 203 226
215 204 226
215 204 226
215 205 226
215 205 226
216 206 226
216 206 226
216 207 226
216 207 226
153 144 162
153 144 162
153 145 162
153 145 162
154 146 162
154 146 162
154 147 162
154 147 162
155 148 162
155 148 162
155 149 162
155 149 162
156 150 162
156 150 162
156 151 162
156 151 162
157 152 162
157 152 162
157 153 162
157 153 162
158 154 162
158 154 162
158 155 162
158 155 162
159 156 162
159 156 162
159 157 162
159 157 162
160 158 162
160 158 162
160 159 162
160 159 162
225 224 226
225 224 226
225 225 226
225 225 226
226 226 226
226 226 226
226 227 226
226 227 226
227 228 226
227 228 226
227 229 226
227 229 226
228 230 226
228 230 226
228 231 226
228 231 226
229 232 226
229 232 226
229 233 226
229 233 226
230 234 226
230 234 226
230 235 226
230 235 226
231 236 226
231 236 226
231 237 226
231 237 226
232 238 226
232 238 226
232 239 226
232 239 226
169 176 162
169 176 162
169 177 162
169 177 162
170 178 162
170 178 162
170 179 162
170 179 162
171 180 162
171 180 162
171 181 162
171 181 162
172 182 162
172 182 162
172 183 162
172 183 162
173 184 162
173 184 162
173 185 162
173 185 162
174 186 162
174 186 162
174 187 162
174 187 162
175 188 162
175 188 162
175 189 162
175 189 162
176 190 162
176 190 162
176 191 162
176 191 162
177 128 226
177 128 226
177 129 226
178 129 226
178 130 226
178 130 226
178 131 226
179 131 226
179 132 226
179 132 226
179 133 226
180 133 226
180 134 226
180 134 226
180 135 226
181 135 226
181 136 226
181 136 226
181 137 226
182 137 226
182 138 226
182 138 226
182 139 226
183 139 226
183 140 226
183 140 226
183 141 226
184 141 226
184 142 226
184 142 226
184 143 226
185 143 226
121 80 162
121 80 162
121 81 162
122 81 162
122 82 162
122 82 162
122 83 162
123 83 162
123 84 162
123 84 162
123 85 162
124 85 162
124 86 162
124 86 162
124 87 162
125 87 162
125 88 162
125 88 162
125 89 162
126 89 162
126 90 162
126 90 162
126 91 162
127 91 162
127 92 162
127 92 162
127 93 162
128 93 162
128 94 162
128 94 162
128 95 162
129 95 162
193 160 226
193 160 226
193 161 226
194 161 226
194 162 226
194 162 226
194 163 226
195 163 226
195 164 226
195 164 226
195 165 226
196 165 226
196 166 226
196 166 226
196 167 226
197 167 226
197 168 226
197 168 226
197 169 226
198 169 226
198 170 226
198 170 226
198 171 226
199 171 226
199 172 226
199 172 226
199 173 226
200 173 226
200 174 226
200 174 226
200 175 226
201 175 226
137 112 162
137 112 162
137 113 162
138 113 162
138 114 162
138 114 162
138 115 162
139 115 162
139 116 162
139 116 162
139 117 162
140 117 162
140 118 162
140 118 162
140 119 162
141 119 162
141 120 162
141 120 162
141 121 162
142 121 162
142 122 162
142 122 162
142 123 162
143 123 162
143 124 162
143 124 162
143 125 162
144 125 162
144 126 162
144 126 162
144 127 162
145 127 162
209 192 226
209 192 226
209 193 226
210 193 226
210 194 226
210 194 226
210 195 226
211 195 226
211 196 226
211 196 226
211 197 226
212 197 226
212 198 226
212 198 226
212 199 226
213 199 226
213 200 226
213 200 226
213 201 226
214 201 226
214 202 226
214 202 226
214 203 226
215 203 226
215 204 226
215 204 226
215 205 226
216 205 226
216 206 226
216 206 226
216 207 226
217 207 226
153 144 162
153 144 162
153 145 162
154 145 162
154 146 162
154 146 162
154 147 162
155 147 162
155 148 162
155 148 162
155 149 162
156 149 162
156 150 162
156 150 162
156 151 162
157 151 162
157 152 162
157 152 162
157 153 162
158 153 162
158 154 162
158 154 162
158 155 162
159 155 162
159 156 162
159 156 162
159 157 162
160 157 162
160 158 162
160 158 162
160 159 162
161 159 162
225 224 226
225 224 226
225 225 226
226 225 226
226 226 226
226 226 226
226 227 226
227 227 226
227 228 226
227 228 226
227 229 226
228 229 226
228 230 226
228 230 226
228 231 226
229 231 226
229 232 226
229 232 226
229 233 226
230 233 226
230 234 226
230 234 226
230 235 226
231 235 226
231 236 226
231 236 226
231 237 226
232 237 226
232 238 226
232 238 226
232 239 226
233 239 226
169 176 162
169 176 162
169 177 162
170 177 162
170 178 162
170 178 162
170 179 162
171 179 162
171 180 162
171 180 162
171 181 162
172 181 162
172 182 162
172 182 162
172 183 162
173 183 162
173 184 162
173 184 162
173 185 162
174 185 162
174 186 162
174 186 162
174 187 162
175 187 162
175 188 162
175 188 162
175 189 162
176 189 162
176 190 162
176 190 162
176 191 162
177 191 162
177 128 227
177 128 227
178 129 227
178 129 227
178 130 227
178 130 227
179 131 227
179 131 227
179 132 227
179 132 227
180 133 227
180 133 227
180 134 227
180 134 227
181 135 227
181 135 227
181 136 227
181 136 227
182 137 227
182 137 227
182 138 227
182 138 227
183 139 227
183 139 227
183 140 227
183 140 227
184 141 227
184 141 227
184 142 227
184 142 227
185 143 227
185 143 227
121 80 163
121 80 163
122 81 163
122 81 163
122 82 163
122 82 163
123 83 163
123 83 163
123 84 163
123 84 163
124 85 163
124 85 163
124 86 163
124 86 163
125 87 163
125 87 163
125 88 163
125 88 163
126 89 163
126 89 163
126 90 163
126 90 163
127 91 163
127 91 163
127 92 163
127 92 163
128 93 163
128 93 163
128 94 163
128 94 163
129 95 163
129 95 163
193 160 227
193 160 227
194 161 227
194 161 227
194 162 227
194 162 227
195 163 227
195 163 227
195 164 227
195 164 227
196 165 227
196 165 227
196 166 227
196 166 227
197 167 227
197 167 227
197 168 227
197 168 227
198 169 227
198 169 227
198 170 227
198 170 227
199 171 227
199 171 227
199 172 227
199 172 227
200 173 227
200 173 227
200 174 227
200 174 227
201 175 227
201 175 227
137 112 163
137 112 163
138 113 163
138 113 163
138 114 163
138 114 163
139 115 163
139 115 163
139 116 163
139 116 163
140 117 163
140 117 163
140 118 163
140 118 163
141 119 163
141 119 163
141 120 163
141 120 163
142 121 163
142 121 163
142 122 163
142 122 163
143 123 163
143 123 163
143 124 163
143 124 163
144 125 163
144 125 163
144 126 163
144 126 163
145 127 163
145 127 163
209 192 227
209 192 227
210 193 227
210 193 227
210 194 227
210 194 227
211 195 227
211 195 227
211 196 227
211 196 227
212 197 227
212 197 227
212 198 227
212 198 227
213 199 227
213 199 227
213 200 227
213 200 227
214 201 227
214 201 227
214 202 227
214 202 227
215 203 227
215 203 227
215 204 227
215 204 227
216 205 227
216 205 227
216 206 227
216 206 227
217 207 227
217 207 227
153 144 163
153 144 163
154 145 163
154 145 163
154 146 163
154 146 163
155 147 163
155 147 163
155 148 163
155 148 163
156 149 163
156 149 163
156 150 163
156 150 163
157 151 163
157 151 163
157 152 163
157 152 163
158 153 163
158 153 163
158 154 163
158 154 163
159 155 163
159 155 163
159 156 163
159 156 163
160 157 163
160 157 163
160 158 163
160 158 163
161 159 163
161 159 163
225 224 227
225 224 227
226 225 227
226 225 227
226 226 227
226 226 227
227 227 227
227 227 227
227 228 227
227 228 227
228 229 227
228 229 227
228 230 227
228 230 227
229 231 227
229 231 227
229 232 227
229 232 227
230 233 227
230 233 227
230 234 227
230 234 227
231 235 227
231 235 227
231 236 227
231 236 227
232 237 227
232 237 227
232 238 227
232 238 227
233 239 227
233 239 227
169 176 163
169 176 163
170 177 163
170 177 163
170 178 163
170 178 163
171 179 163
171 179 163
171 180 163
171 180 163
172 181 163
172 181 163
172 182 163
172 182 163
173 183 163
173 183 163
173 184 163
173 184 163
174 185 163
174 185 163
174 186 163
174 186 163
175 187 163
175 187 163
175 188 163
175 188 163
176 189 163
176 189 163
176 190 163
176 190 163
177 191 163
177 191 163
177 128 227
178 128 227
178 129 227
178 129 227
178 130 227
179 130 227
179 131 227
179 131 227
179 132 227
180 132 227
180 133 227
180 133 227
180 134 227
181 134 227
181 135 227
181 135 227
181 136 227
182 136 227
182 137 227
182 137 227
182 138 227
183 138 227
183 139 227
183 139 227
183 140 227
184 140 227
184 141 227
184 141 227
184 142 227
185 142 227
185 143 227
185 143 227
121 80 163
122 80 163
122 81 163
122 81 163
122 82 163
123 82 163
123 83 163
123 83 163
123 84 163
124 84 163
124 85 163
124 85 163
124 86 163
125 86 163
125 87 163
125 87 163
125 88 163
126 88 163
126 89 163
126 89 163
126 90 163
127 90 163
127 91 163
127 91 163
127 92 163
128 92 163
128 93 163
128 93 163
128 94 163
129 94 163
129 95 163
129 95 163
193 160 227
194 160 227
194 161 227
194 161 227
194 162 227
195 162 227
195 163 227
195 163 227
195 164 227
196 164 227
196 165 227
196 165 227
196 166 227
197 166 227
197 167 227
197 167 227
197 168 227
198 168 227
198 169 227
198 169 227
198 170 227
199 170 227
199 171 227
199 171 227
199 172 227
200 172 227
200 173 227
200 173 227
200 174 227
201 174 227
201 175 227
201 175 227
137 112 163
138 112 163
138 113 163
138 113 163
138 114 163
139 114 163
139 115 163
139 115 163
139 116 163
140 116 163
140 117 163
140 117 163
140 118 163
141 118 163
141 119 163
141 119 163
141 120 163
142 120 163
142 121 163
142 121 163
142 122 163
143 122 163
143 123 163
143 123 163
143 124 163
144 124 163
144 125 163
144 125 163
144 126 163
145 126 163
145 127 163
145 127 163
209 192 227
210 192 227
210 193 227
210 193 227
210 194 227
211 194 227
211 195 227
211 195 227
211 196 227
212 196 227
212 197 227
212 197 227
212 198 227
213 198 227
213 199 227
213 199 227
213 200 227
214 200 227
214 201 227
214 201 227
214 202 227
215 202 227
215 203 227
215 203 227
215 204 227
216 204 227
216 205 227
216 205 227
216 206 227
217 206 227
217 207 227
217 207 227
153 144 163
154 144 163
154 145 163
154 145 163
154 146 163
155 146 163
155 147 163
155 147 163
155 148 163
156 148 163
156 149 163
156 149 163
156 150 163
157 150 163
157 151 163
157 151 163
157 152 163
158 152 163
158 153 163
158 153 163
158 154 163
159 154 163
159 155 163
159 155 163
159 156 163
160 156 163
160 157 163
160 157 163
160 158 163
161 158 163
161 159 163
161 159 163
225 224 227
226 224 227
226 225 227
226 225 227
226 226 227
227 226 227
227 227 227
227 227 227
227 228 227
228 228 227
228 229 227
228 229 227
228 230 227
229 230 227
229 231 227
229 231 227
229 232 227
230 232 227
230 233 227
230 233 227
230 234 227
231 234 227
231 235 227
231 235 227
231 236 227
232 236 227
232 237 227
232 237 227
232 238 227
233 238 227
233 239 227
233 239 227
169 176 163
170 176 163
170 177 163
170 177 163
170 178 163
171 178 163
171 179 163
171 179 163
171 180 163
172 180 163
172 181 163
172 181 163
172 182 163
173 182 163
173 183 163
173 183 163
173 184 163
174 184 163
174 185 163
174 185 163
174 186 163
175 186 163
175 187 163
175 187 163
175 188 163
176 188 163
176 189 163
176 189 163
176 190 163
177 190 163
177 191 163
177 191 163
178 128 228
178 128 228
178 129 228
178 129 228
179 130 228
179 130 228
179 131 228
179 131 228
180 132 228
180 132 228
180 133 228
180 133 228
181 134 228
181 134 228
181 135 228
181 135 228
182 136 228
182 136 228
182 137 228
182 137 228
183 138 228
183 138 228
183 139 228
183 139 228
184 140 228
184 140 228
184 141 228
184 141 228
185 142 228
185 142 228
185 143 228
185 143 228
122 80 164
122 80 164
122 81 164
122 81 164
123 82 164
123 82 164
123 83 164
123 83 164
124 84 164
124 84 164
124 85 164
124 85 164
125 86 164
125 86 164
125 87 164
125 87 164
126 88 164
126 88 164
126 89 164
126 89 164
127 90 164
127 90 164
127 91 164
127 91 164
128 92 164
128 92 164
128 93 164
128 93 164
129 94 164
129 94 164
129 95 164
129 95 164
194 160 228
194 160 228
194 161 228
194 161 228
195 162 228
195 162 228
195 163 228
195 163 228
196 164 228
196 164 228
196 165 228
196 165 228
197 166 228
197 166 228
197 167 228
197 167 228
198 168 228
198 168 228
198 169 228
198 169 228
199 170 228
199 170 228
199 171 228
199 171 228
200 172 228
200 172 228
200 173 228
200 173 228
201 174 228
201 174 228
201 175 228
201 175 228
138 112 164
138 112 164
138 113 164
138 113 164
139 114 164
139 114 164
139 115 164
139 115 164
140 116 164
140 116 164
140 117 164
140 117 164
141 118 164
141 118 164
141 119 164
141 119 164
142 120 164
142 120 164
142 121 164
142 121 164
143 122 164
143 122 164
143 123 164
143 123 164
144 124 164
144 124 164
144 125 164
144 125 164
145 126 164
145 126 164
145 127 164
145 127 164
210 192 228
210 192 228
210 193 228
210 193 228
211 194 228
211 194 228
211 195 228
211 195 228
212 196 228
212 196 228
212 197 228
212 197 228
213 198 228
213 198 228
213 199 228
213 199 228
214 200 228
214 200 228
214 201 228
214 201 228
215 202 228
215 202 228
215 203 228
215 203 228
216 204 228
216 204 228
216 205 228
216 205 228
217 206 228
217 206 228
217 207 228
217 207 228
154 144 164
154 144 164
154 145 164
154 145 164
155 146 164
155 146 164
155 147 164
155 147 164
156 148 164
156 148 164
156 149 164
156 149 164
157 150 164
157 150 164
157 151 164
157 151 164
158 152 164
158 152 164
158 153 164
158 153 164
159 154 164
159 154 164
159 155 164
159 155 164
160 156 164
160 156 164
160 157 164
160 157 164
161 158 164
161 158 164
161 159 164
161 159 164
226 224 228
226 224 228
226 225 228
226 225 228
227 226 228
227 226 228
227 227 228
227 227 228
228 228 228
228 228 228
228 229 228
228 229 228
229 230 228
229 230 228
229 231 228
229 231 228
230 232 228
230 232 228
230 233 228
230 233 228
231 234 228
231 234 228
231 235 228
231 235 228
232 236 228
232 236 228
232 237 228
232 237 228
233 238 228
233 238 228
233 239 228
233 239 228
170 176 164
170 176 164
170 177 164
170 177 164
171 178 164
171 178 164
171 179 164
171 179 164
172 180 164
172 180 164
172 181 164
172 181 164
173 182 164
173 182 164
173 183 164
173 183 164
174 184 164
174 184 164
174 185 164
174 185 164
175 186 164
175 186 164
175 187 164
175 187 164
176 188 164
176 188 164
176 189 164
176 189 164
177 190 164
177 190 164
177 191 164
177 191 164
178 128 228
178 128 228
178 129 228
179 129 228
179 130 228
179 130 228
179 131 228
180 131 228
180 132 228
180 132 228
180 133 228
181 133 228
181 134 228
181 134 228
181 135 228
182 135 228
182 136 228
182 136 228
182 137 228
183 137 228
183 138 228
183 138 228
183 139 228
184 139 228
184 140 228
184 140 228
184 141 228
185 141 228
185 142 228
185 142 228
185 143 228
186 143 228
122 80 164
122 80 164
122 81 164
123 81 164
123 82 164
123 82 164
123 83 164
124 83 164
124 84 164
124 84 164
124 85 164
125 85 164
125 86 164
125 86 164
125 87 164
126 87 164
126 88 164
126 88 164
126 89 164
127 89 164
127 90 164
127 90 164
127 91 164
128 91 164
128 92 164
128 92 164
128 93 164
129 93 164
129 94 164
129 94 164
129 95 164
130 95 164
194 160 228
194 160 228
194 161 228
195 161 228
195 162 228
195 162 228
195 163 228
196 163 228
196 164 228
196 164 228
196 165 228
197 165 228
197 166 228
197 166 228
197 167 228
198 167 228
198 168 228
198 168 228
198 169 228
199 169 228
199 170 228
199 170 228
199 171 228
200 171 228
200 172 228
200 172 228
200 173 228
201 173 228
201 174 228
201 174 228
201 175 228
202 175 228
138 112 164
138 112 164
138 113 164
139 113 164
139 114 164
139 114 164
139 115 164
140 115 164
140 116 164
140 116 164
140 117 164
141 117 164
141 118 164
141 118 164
141 119 164
142 119 164
142 120 164
142 120 164
142 121 164
143 121 164
143 122 164
143 122 164
143 123 164
144 123 164
144 124 164
144 124 164
144 125 164
145 125 164
145 126 164
145 126 164
145 127 164
146 127 164
210 192 228
210 192 228
210 193 228
211 193 228
211 194 228
211 194 228
211 195 228
212 195 228
212 196 228
212 196 228
212 197 228
213 197 228
213 198 228
213 198 228
213 199 228
214 199 228
214 200 228
214 200 228
214 201 228
215 201 228
215 202 228
215 202 228
215 203 228
216 203 228
216 204 228
216 204 228
216 205 228
217 205 228
217 206 228
217 206 228
217 207 228
218 207 228
154 144 164
154 144 164
154 145 164
155 145 164
155 146 164
155 146 164
155 147 164
156 147 164
156 148 164
156 148 164
156 149 164
157 149 164
157 150 164
157 150 164
157 151 164
158 151 164
158 152 164
158 152 164
158 153 164
159 153 164
159 154 164
159 154 164
159 155 164
160 155 164
160 156 164
160 156 164
160 157 164
161 157 164
161 158 164
161 158 164
161 159 164
162 159 164
226 224 228
226 224 228
226 225 228
227 225 228
227 226 228
227 226 228
227 227 228
228 227 228
228 228 228
228 228 228
228 229 228
229 229 228
229 230 228
229 230 228
229 231 228
230 231 228
230 232 228
230 232 228
230 233 228
231 233 228
231 234 228
231 234 228
231 235 228
232 235 228
232 236 228
232 236 228
232 237 228
233 237 228
233 238 228
233 238 228
233 239 228
234 239 228
170 176 164
170 176 164
170 177 164
171 177 164
171 178 164
171 178 164
171 179 164
172 179 164
172 180 164
172 180 164
172 181 164
173 181 164
173 182 164
173 182 164
173 183 164
174 183 164
174 184 164
174 184 164
174 185 164
175 185 164
175 186 164
175 186 164
175 187 164
176 187 164
176 188 164
176 188 164
176 189 164
177 189 164
177 190 164
177 190 164
177 191 164
178 191 164
178 128 229
178 128 229
179 129 229
179 129 229
179 130 229
179 130 229
180 131 229
180 131 229
180 132 229
180 132 229
181 133 229
181 133 229
181 134 229
181 134 229
182 135 229
182 135 229
182 136 229
182 136 229
183 137 229
183 137 229
183 138 229
183 138 229
184 139 229
184 139 229
184 140 229
184 140 229
185 141 229
185 141 229
185 142 229
185 142 229
186 143 229
186 143 229
122 80 165
122 80 165
123 81 165
123 81 165
123 82 165
123 82 165
124 83 165
124 83 165
124 84 165
124 84 165
125 85 165
125 85 165
125 86 165
125 86 165
126 87 165
126 87 165
126 88 165
126 88 165
127 89 165
127 89 165
127 90 165
127 90 165
128 91 165
128 91 165
128 92 165
128 92 165
129 93 165
129 93 165
129 94 165
129 94 165
130 95 165
130 95 165
194 160 229
194 160 229
195 161 229
195 161 229
195 162 229
195 162 229
196 163 229
196 163 229
196 164 229
196 164 229
197 165 229
197 165 229
197 166 229
197 166 229
198 167 229
198 167 229
198 168 229
198 168 229
199 169 229
199 169 229
199 170 229
199 170 229
200 171 229
200 171 229
200 172 229
200 172 229
201 173 229
201 173 229
201 174 229
201 174 229
202 175 229
202 175 229
138 112 165
138 112 165
139 113 165
139 113 165
139 114 165
139 114 165
140 115 165
140 115 165
140 116 165
140 116 165
141 117 165
141 117 165
141 118 165
141 118 165
142 119 165
142 119 165
142 120 165
142 120 165
143 121 165
143 121 165
143 122 165
143 122 165
144 123 165
144 123 165
144 124 165
144 124 165
145 125 165
145 125 165
145 126 165
145 126 165
146 127 165
146 127 165
210 192 229
210 192 229
211 193 229
211 193 229
211 194 229
211 194 229
212 195 229
212 195 229
212 196 229
212 196 229
213 197 229
213 197 229
213 198 229
213 198 229
214 199 229
214 199 229
214 200 229
214 200 229
215 201 229
215 201 229
215 202 229
215 202 229
216 203 229
216 203 229
216 204 229
216 204 229
217 205 229
217 205 229
217 206 229
217 206 229
218 207 229
218 207 229
154 144 165
154 144 165
155 145 165
155 145 165
155 146 165
155 146 165
156 147 165
156 147 165
156 148 165
156 148 165
157 149 165
157 149 165
157 150 165
157 150 165
158 151 165
158 151 165
158 152 165
158 152 165
159 153 165
159 153 165
159 154 165
159 154 165
160 155 165
160 155 165
160 156 165
160 156 165
161 157 165
161 157 165
161 158 165
161 158 165
162 159 165
162 159 165
226 224 229
226 224 229
227 225 229
227 225 229
227 226 229
227 226 229
228 227 229
228 227 229
228 228 229
228 228 229
229 229 229
229 229 229
229 230 229
229 230 229
230 231 229
230 231 229
230 232 229
230 232 229
231 233 229
231 233 229
231 234 229
231 234 229
232 235 229
232 235 229
232 236 229
232 236 229
233 237 229
233 237 229
233 238 229
233 238 229
234 239 229
234 239 229
170 176 165
170 176 165
171 177 165
171 177 165
171 178 165
171 178 165
172 179 165
172 179 165
172 180 165
172 180 165
173 181 165
173 181 165
173 182 165
173 182 165
174 183 165
174 183 165
174 184 165
174 184 165
175 185 165
175 185 165
175 186 165
175 186 165
176 187 165
176 187 165
176 188 165
176 188 165
177 189 165
177 189 165
177 190 165
177 190 165
178 191 165
178 191 165
178 128 229
179 128 229
179 129 229
179 129 229
179 130 229
180 130 229
180 131 229
180 131 229
180 132 229
181 132 229
181 133 229
181 133 229
181 134 229
182 134 229
182 135 229
182 135 229
182 136 229
183 136 229
183 137 229
183 137 229
183 138 229
184 138 229
184 139 229
184 139 229
184 140 229
185 140 229
185 141 229
185 141 229
185 142 229
186 142 229
186 143 229
186 143 229
122 80 165
123 80 165
123 81 165
123 81 165
123 82 165
124 82 165
124 83 165
124 83 165
124 84 165
125 84 165
125 85 165
125 85 165
125 86 165
126 86 165
126 87 165
126 87 165
126 88 165
127 88 165
127 89 165
127 89 165
127 90 165
128 90 165
128 91 165
128 91 165
128 92 165
129 92 165
129 93 165
129 93 165
129 94 165
130 94 165
130 95 165
130 95 165
194 160 229
195 160 229
195 161 229
195 161 229
195 162 229
196 162 229
196 163 229
196 163 229
196 164 229
197 164 229
197 165 229
197 165 229
197 166 229
198 166 229
198 167 229
198 167 229
198 168 229
199 168 229
199 169 229
199 169 229
199 170 229
200 170 229
200 171 229
200 171 229
200 172 229
201 172 229
201 173 229
201 173 229
201 174 229
202 174 229
202 175 229
202 175 229
138 112 165
139 112 165
139 113 165
139 113 165
139 114 165
140 114 165
140 115 165
140 115 165
140 116 165
141 116 165
141 117 165
141 117 165
141 118 165
142 118 165
142 119 165
142 119 165
142 120 165
143 120 165
143 121 165
143 121 165
143 122 165
144 122 165
144 123 165
144 123 165
144 124 165
145 124 165
145 125 165
145 125 165
145 126 165
146 126 165
146 127 165
146 127 165
210 192 229
211 192 229
211 193 229
211 193 229
211 194 229
212 194 229
212 195 229
212 195 229
212 196 229
213 196 229
213 197 229
213 197 229
213 198 229
214 198 229
214 199 229
214 199 229
214 200 229
215 200 229
215 201 229
215 201 229
215 202 229
216 202 229
216 203 229
216 203 229
216 204 229
217 204 229
217 205 229
217 205 229
217 206 229
218 206 229
218 207 229
218 207 229
154 144 165
155 144 165
155 145 165
155 145 165
155 146 165
156 146 165
156 147 165
156 147 165
156 148 165
157 148 165
157 149 165
157 149 165
157 150 165
158 150 165
158 151 165
158 151 165
158 152 165
159 152 165
159 153 165
159 153 165
159 154 165
160 154 165
160 155 165
160 155 165
160 156 165
161 156 165
161 157 165
161 157 165
161 158 165
162 158 165
162 159 165
162 159 165
226 224 229
227 224 229
227 225 229
227 225 229
227 226 229
228 226 229
228 227 229
228 227 229
228 228 229
229 228 229
229 229 229
229 229 229
229 230 229
230 230 229
230 231 229
230 231 229
230 232 229
231 232 229
231 233 229
231 233 229
231 234 229
232 234 229
232 235 229
232 235 229
232 236 229
233 236 229
233 237 229
233 237 229
233 238 229
234 238 229
234 239 229
234 239 229
170 176 165
171 176 165
171 177 165
171 177 165
171 178 165
172 178 165
172 179 165
172 179 165
172 180 165
173 180 165
173 181 165
173 181 165
173 182 165
174 182 165
174 183 165
174 183 165
174 184 165
175 184 165
175 185 165
175 185 165
175 186 165
176 186 165
176 187 165
176 187 165
176 188 165
177 188 165
177 189 165
177 189 165
177 190 165
178 190 165
178 191 165
178 191 165
179 128 230
179 128 230
179 129 230
179 129 230
180 130 230
180 130 230
180 131 230
180 131 230
181 132 230
181 132 230
181 133 230
181 133 230
182 134 230
182 134 230
182 135 230
182 135 230
183 136 230
183 136 230
183 137 230
183 137 230
184 138 230
184 138 230
184 139 230
184 139 230
185 140 230
185 140 230
185 141 230
185 141 230
186 142 230
186 142 230
186 143 230
186 143 230
123 80 166
123 80 166
123 81 166
123 81 166
124 82 166
124 82 166
124 83 166
124 83 166
125 84 166
125 84 166
125 85 166
125 85 166
126 86 166
126 86 166
126 87 166
126 87 166
127 88 166
127 88 166
127 89 166
127 89 166
128 90 166
128 90 166
128 91 166
128 91 166
129 92 166
129 92 166
129 93 166
129 93 166
130 94 166
130 94 166
130 95 166
130 95 166
195 160 230
195 160 230
195 161 230
195 161 230
196 162 230
196 162 230
196 163 230
196 163 230
197 164 230
197 164 230
197 165 230
197 165 230
198 166 230
198 166 230
198 167 230
198 167 230
199 168 230
199 168 230
199 169 230
199 169 230
200 170 230
200 170 230
200 171 230
200 171 230
201 172 230
201 172 230
201 173 230
201 173 230
202 174 230
202 174 230
202 175 230
202 175 230
139 112 166
139 112 166
139 113 166
139 113 166
140 114 166
140 114 166
140 115 166
140 115 166
141 116 166
141 116 166
141 117 166
141 117 166
142 118 166
142 118 166
142 119 166
142 119 166
143 120 166
143 120 166
143 121 166
143 121 166
144 122 166
144 122 166
144 123 166
144 123 166
145 124 166
145 124 166
145 125 166
145 125 166
146 126 166
146 126 166
146 127 166
146 127 166
211 192 230
211 192 230
211 193 230
211 193 230
212 194 230
212 194 230
212 195 230
212 195 230
213 196 230
213 196 230
213 197 230
213 197 230
214 198 230
214 198 230
214 199 230
214 199 230
215 200 230
215 200 230
215 201 230
215 201 230
216 202 230
216 202 230
216 203 230
216 203 230
217 204 230
217 204 230
217 205 230
217 205 230
218 206 230
218 206 230
218 207 230
218 207 230
155 144 166
155 144 166
155 145 166
155 145 166
156 146 166
156 146 166
156 147 166
156 147 166
157 148 166
157 148 166
157 149 166
157 149 166
158 150 166
158 150 166
158 151 166
158 151 166
159 152 166
159 152 166
159 153 166
159 153 166
160 154 166
160 154 166
160 155 166
160 155 166
161 156 166
161 156 166
161 157 166
161 157 166
162 158 166
162 158 166
162 159 166
162 159 166
227 224 230
227 224 230
227 225 230
227 225 230
228 226 230
228 226 230
228 227 230
228 227 230
229 228 230
229 228 230
229 229 230
229 229 230
230 230 230
230 230 230
230 231 230
230 231 230
231 232 230
231 232 230
231 233 230
231 233 230
232 234 230
232 234 230
232 235 230
232 235 230
233 236 230
233 236 230
233 237 230
233 237 230
234 238 230
234 238 230
234 239 230
234 239 230
171 176 166
171 176 166
171 177 166
171 177 166
172 178 166
172 178 166
172 179 166
172 179 166
173 180 166
173 180 166
173 181 166
173 181 166
174 182 166
174 182 166
174 183 166
174 183 166
175 184 166
175 184 166
175 185 166
175 185 166
176 186 166
176 186 166
176 187 166
176 187 166
177 188 166
177 188 166
177 189 166
177 189 166
178 190 166
178 190 166
178 191 166
178 191 166
179 128 230
179 128 230
179 129 230
180 129 230
180 130 230
180 130 230
180 131 230
181 131 230
181 132 230
181 132 230
181 133 230
182 133 230
182 134 230
182 134 230
182 135 230
183 135 230
183 136 230
183 136 230
183 137 230
184 137 230
184 138 230
184 138 230
184 139 230
185 139 230
185 140 230
185 140 230
185 141 230
186 141 230
186 142 230
186 142 230
186 143 230
187 143 230
123 80 166
123 80 166
123 81 166
124 81 166
124 82 166
124 82 166
124 83 166
125 83 166
125 84 166
125 84 166
125 85 166
126 85 166
126 86 166
126 86 166
126 87 166
127 87 166
127 88 166
127 88 166
127 89 166
128 89 166
128 90 166
128 90 166
128 91 166
129 91 166
129 92 166
129 92 166
129 93 166
130 93 166
130 94 166
130 94 166
130 95 166
131 95 166
195 160 230
195 160 230
195 161 230
196 161 230
196 162 230
196 162 230
196 163 230
197 163 230
197 164 230
197 164 230
197 165 230
198 165 230
198 166 230
198 166 230
198 167 230
199 167 230
199 168 230
199 168 230
199 169 230
200 169 230
200 170 230
200 170 230
200 171 230
201 171 230
201 172 230
201 172 230
201 173 230
202 173 230
202 174 230
202 174 230
202 175 230
203 175 230
139 112 166
139 112 166
139 113 166
140 113 166
140 114 166
140 114 166
140 115 166
141 115 166
141 116 166
141 116 166
141 117 166
142 117 166
142 118 166
142 118 166
142 119 166
143 119 166
143 120 166
143 120 166
143 121 166
144 121 166
144 122 166
144 122 166
144 123 166
145 123 166
145 124 166
145 124 166
145 125 166
146 125 166
146 126 166
146 126 166
146 127 166
147 127 166
211 192 230
211 192 230
211 193 230
212 193 230
212 194 230
212 194 230
212 195 230
213 195 230
213 196 230
213 196 230
213 197 230
214 197 230
214 198 230
214 198 230
214 199 230
215 199 230
215 200 230
215 200 230
215 201 230
216 201 230
216 202 230
216 202 230
216 203 230
217 203 230
217 204 230
217 204 230
217 205 230
218 205 230
218 206 230
218 206 230
218 207 230
219 207 230
155 144 166
155 144 166
155 145 166
156 145 166
156 146 166
156 146 166
156 147 166
157 147 166
157 148 166
157 148 166
157 149 166
158 149 166
158 150 166
158 150 166
158 151 166
159 151 166
159 152 166
159 152 166
159 153 166
160 153 166
160 154 166
160 154 166
160 155 166
161 155 166
161 156 166
161 156 166
161 157 166
162 157 166
162 158 166
162 158 166
162 159 166
163 159 166
227 224 230
227 224 230
227 225 230
228 225 230
228 226 230
228 226 230
228 227 230
229 227 230
229 228 230
229 228 230
229 229 230
230 229 230
230 230 230
230 230 230
230 231 230
231 231 230
231 232 230
231 232 230
231 233 230
232 233 230
232 234 230
232 234 230
232 235 230
233 235 230
233 236 230
233 236 230
233 237 230
234 237 230
234 238 230
234 238 230
234 239 230
235 239 230
171 176 166
171 176 166
171 177 166
172 177 166
172 178 166
172 178 166
172 179 166
173 179 166
173 180 166
173 180 166
173 181 166
174 181 166
174 182 166
174 182 166
174 183 166
175 183 166
175 184 166
175 184 166
175 185 166
176 185 166
176 186 166
176 186 166
176 187 166
177 187 166
177 188 166
177 188 166
177 189 166
178 189 166
178 190 166
178 190 166
178 191 166
179 191 166
179 128 231
179 128 231
180 129 231
180 129 231
180 130 231
180 130 231
181 131 231
181 131 231
181 132 231
181 132 231
182 133 231
182 133 231
182 134 231
182 134 231
183 135 231
183 135 231
183 136 231
183 136 231
184 137 231
184 137 231
184 138 231
184 138 231
185 139 231
185 139 231
185 140 231
185 140 231
186 141 231
186 141 231
186 142 231
186 142 231
187 143 231
187 143 231
123 80 167
123 80 167
124 81 167
124 81 167
124 82 167
124 82 167
125 83 167
125 83 167
125 84 167
125 84 167
126 85 167
126 85 167
126 86 167
126 86 167
127 87 167
127 87 167
127 88 167
127 88 167
128 89 167
128 89 167
128 90 167
128 90 167
129 91 167
129 91 167
129 92 167
129 92 167
130 93 167
130 93 167
130 94 167
130 94 167
131 95 167
131 95 167
195 160 231
195 160 231
196 161 231
196 161 231
196 162 231
196 162 231
197 163 231
197 163 231
197 164 231
197 164 231
198 165 231
198 165 231
198 166 231
198 166 231
199 167 231
199 167 231
199 168 231
199 168 231
200 169 231
200 169 231
200 170 231
200 170 231
201 171 231
201 171 231
201 172 231
201 172 231
202 173 231
202 173 231
202 174 231
202 174 231
203 175 231
203 175 231
139 112 167
139 112 167
140 113 167
140 113 167
140 114 167
140 114 167
141 115 167
141 115 167
141 116 167
141 116 167
142 117 167
142 117 167
142 118 167
142 118 167
143 119 167
143 119 167
143 120 167
143 120 167
144 121 167
144 121 167
144 122 167
144 122 167
145 123 167
145 123 167
145 124 167
145 124 167
146 125 167
146 125 167
146 126 167
146 126 167
147 127 167
147 127 167
211 192 231
211 192 231
212 193 231
212 193 231
212 194 231
212 194 231
213 195 231
213 195 231
213 196 231
213 196 231
214 197 231
214 197 231
214 198 231
214 198 231
215 199 231
215 199 231
215 200 231
215 200 231
216 201 231
216 201 231
216 202 231
216 202 231
217 203 231
217 203 231
217 204 231
217 204 231
218 205 231
218 205 231
218 206 231
218 206 231
219 207 231
219 207 231
155 144 167
155 144 167
156 145 167
156 145 167
156 146 167
156 146 167
157 147 167
157 147 167
157 148 167
157 148 167
158 149 167
158 149 167
158 150 167
158 150 167
159 151 167
159 151 167
159 152 167
159 152 167
160 153 167
160 153 167
160 154 167
160 154 167
161 155 167
161 155 167
161 156 167
161 156 167
162 157 167
162 157 167
162 158 167
162 158 167
163 159 167
163 159 167
227 224 231
227 224 231
228 225 231
228 225 231
228 226 231
228 226 231
229 227 231
229 227 231
229 228 231
229 228 231
230 229 231
230 229 231
230 230 231
230 230 231
231 231 231
231 231 231
231 232 231
231 232 231
232 233 231
232 233 231
232 234 231
232 234 231
233 235 231
233 235 231
233 236 231
233 236 231
234 237 231
234 237 231
234 238 231
234 238 231
235 239 231
235 239 231
171 176 167
171 176 167
172 177 167
172 177 167
172 178 167
172 178 167
173 179 167
173 179 167
173 180 167
173 180 167
174 181 167
174 181 167
174 182 167
174 182 167
175 183 167
175 183 167
175 184 167
175 184 167
176 185 167
176 185 167
176 186 167
176 186 167
177 187 167
177 187 167
177 188 167
177 188 167
178 189 167
178 189 167
178 190 167
178 190 167
179 191 167
179 191 167
179 128 231
180 128 231
180 129 231
180 129 231
180 130 231
181 130 231
181 131 231
181 131 231
181 132 231
182 132 231
182 133 231
182 133 231
182 134 231
183 134 231
183 135 231
183 135 231
183 136 231
184 136 231
184 137 231
184 137 231
184 138 231
185 138 231
185 139 231
185 139 231
185 140 231
186 140 231
186 141 231
186 141 231
186 142 231
187 142 231
187 143 231
187 143 231
123 80 167
124 80 167
124 81 167
124 81 167
124 82 167
125 82 167
125 83 167
125 83 167
125 84 167
126 84 167
126 85 167
126 85 167
126 86 167
127 86 167
127 87 167
127 87 167
127 88 167
128 88 167
128 89 167
128 89 167
128 90 167
129 90 167
129 91 167
129 91 167
129 92 167
130 92 167
130 93 167
130 93 167
130 94 167
131 94 167
131 95 167
131 95 167
195 160 231
196 160 231
196 161 231
196 161 231
196 162 231
197 162 231
197 163 231
197 163 231
197 164 231
198 164 231
198 165 231
198 165 231
198 166 231
199 166 231
199 167 231
199 167 231
199 168 231
200 168 231
200 169 231
200 169 231
200 170 231
201 170 231
201 171 231
201 171 231
201 172 231
202 172 231
202 173 231
202 173 231
202 174 231
203 174 231
203 175 231
203 175 231
139 112 167
140 112 167
140 113 167
140 113 167
140 114 167
141 114 167
141 115 167
141 115 167
141 116 167
142 116 167
142 117 167
142 117 167
142 118 167
143 118 167
143 119 167
143 119 167
143 120 167
144 120 167
144 121 167
144 121 167
144 122 167
145 122 167
145 123 167
145 123 167
145 124 167
146 124 167
146 125 167
146 125 167
146 126 167
147 126 167
147 127 167
147 127 167
211 192 231
212 192 231
212 193 231
212 193 231
212 194 231
213 194 231
213 195 231
213 195 231
213 196 231
214 196 231
214 197 231
214 197 231
214 198 231
215 198 231
215 199 231
215 199 231
215 200 231
216 200 231
216 201 231
216 201 231
216 202 231
217 202 231
217 203 231
217 203 231
217 204 231
218 204 231
218 205 231
218 205 231
218 206 231
219 206 231
219 207 231
219 207 231
155 144 167
156 144 167
156 145 167
156 145 167
156 146 167
157 146 167
157 147 167
157 147 167
157 148 167
158 148 167
158 149 167
158 149 167
158 150 167
159 150 167
159 151 167
159 151 167
159 152 167
160 152 167
160 153 167
160 153 167
160 154 167
161 154 167
161 155 167
161 155 167
161 156 167
162 156 167
162 157 167
162 157 167
162 158 167
163 158 167
163 159 167
163 159 167
227 224 231
228 224 231
228 225 231
228 225 231
228 226 231
229 226 231
229 227 231
229 227 231
229 228 231
230 228 231
230 229 231
230 229 231
230 230 231
231 230 231
231 231 231
231 231 231
231 232 231
232 232 231
232 233 231
232 233 231
232 234 231
233 234 231
233 235 231
233 235 231
233 236 231
234 236 231
234 237 231
234 237 231
234 238 231
235 238 231
235 239 231
235 239 231
171 176 167
172 176 167
172 177 167
172 177 167
172 178 167
173 178 167
173 179 167
173 179 167
173 180 167
174 180 167
174 181 167
174 181 167
174 182 167
175 182 167
175 183 167
175 183 167
175 184 167
176 184 167
176 185 167
176 185 167
176 186 167
177 186 167
177 187 167
177 187 167
177 188 167
178 188 167
178 189 167
178 189 167
178 190 167
179 190 167
179 191 167
179 191 167
180 128 232
180 128 232
180 129 232
180 129 232
181 130 232
181 130 232
181 131 232
181 131 232
182 132 232
182 132 232
182 133 232
182 133 232
183 134 232
183 134 232
183 135 232
183 135 232
184 136 232
184 136 232
184 137 232
184 137 232
185 138 232
185 138 232
185 139 232
185 139 232
186 140 232
186 140 232
186 141 232
186 141 232
187 142 232
187 142 232
187 143 232
187 143 232
124 80 168
124 80 168
124 81 168
124 81 168
125 82 168
125 82 168
125 83 168
125 83 168
126 84 168
126 84 168
126 85 168
126 85 168
127 86 168
127 86 168
127 87 168
127 87 168
128 88 168
128 88 168
128 89 168
128 89 168
129 90 168
129 90 168
129 91 168
129 91 168
130 92 168
130 92 168
130 93 168
130 93 168
131 94 168
131 94 168
131 95 168
131 95 168
196 160 232
196 160 232
196 161 232
196 161 232
197 162 232
197 162 232
197 163 232
197 163 232
198 164 232
198 164 232
198 165 232
198 165 232
199 166 232
199 166 232
199 167 232
199 167 232
200 168 232
200 168 232
200 169 232
200 169 232
201 170 232
201 170 232
201 171 232
201 171 232
202 172 232
202 172 232
202 173 232
202 173 232
203 174 232
203 174 232
203 175 232
203 175 232
140 112 168
140 112 168
140 113 168
140 113 168
141 114 168
141 114 168
141 115 168
141 115 168
142 116 168
142 116 168
142 117 168
142 117 168
143 118 168
143 118 168
143 119 168
143 119 168
144 120 168
144 120 168
144 121 168
144 121 168
145 122 168
145 122 168
145 123 168
145 123 168
146 124 168
146 124 168
146 125 168
146 125 168
147 126 168
147 126 168
147 127 168
147 127 168
212 192 232
212 192 232
212 193 232
212 193 232
213 194 232
213 194 232
213 195 232
213 195 232
214 196 232
214 196 232
214 197 232
214 197 232
215 198 232
215 198 232
215 199 232
215 199 232
216 200 232
216 200 232
216 201 232
216 201 232
217 202 232
217 202 232
217 203 232
217 203 232
218 204 232
218 204 232
218 205 232
218 205 232
219 206 232
219 206 232
219 207 232
219 207 232
156 144 168
156 144 168
156 145 168
156 145 168
157 146 168
157 146 168
157 147 168
157 147 168
158 148 168
158 148 168
158 149 168
158 149 168
159 150 168
159 150 168
159 151 168
159 151 168
160 152 168
160 152 168
160 153 168
160 153 168
161 154 168
161 154 168
161 155 168
161 155 168
162 156 168
162 156 168
162 157 168
162 157 168
163 158 168
163 158 168
163 159 168
163 159 168
228 224 232
228 224 232
228 225 232
228 225 232
229 226 232
229 226 232
229 227 232
229 227 232
230 228 232
230 228 232
230 229 232
230 229 232
231 230 232
231 230 232
231 231 232
231 231 232
232 232 232
232 232 232
232 233 232
232 233 232
233 234 232
233 234 232
233 235 232
233 235 232
234 236 232
234 236 232
234 237 232
234 237 232
235 238 232
235 238 232
235 239 232
235 239 232
172 176 168
172 176 168
172 177 168
172 177 168
173 178 168
173 178 168
173 179 168
173 179 168
174 180 168
174 180 168
174 181 168
174 181 168
175 182 168
175 182 168
175 183 168
175 183 168
176 184 168
176 184 168
176 185 168
176 185 168
177 186 168
177 186 168
177 187 168
177 187 168
178 188 168
178 188 168
178 189 168
178 189 168
179 190 168
179 190 168
179 191 168
179 191 168
180 128 232
180 128 232
180 129 232
181 129 232
181 130 232
181 130 232
181 131 232
182 131 232
182 132 232
182 132 232
182 133 232
183 133 232
183 134 232
183 134 232
183 135 232
184 135 232
184 136 232
184 136 232
184 137 232
185 137 232
185 138 232
185 138 232
185 139 232
186 139 232
186 140 232
186 140 232
186 141 232
187 141 232
187 142 232
187 142 232
187 143 232
188 143 232
124 80 168
124 80 168
124 81 168
125 81 168
125 82 168
125 82 168
125 83 168
126 83 168
126 84 168
126 84 168
126 85 168
127 85 168
127 86 168
127 86 168
127 87 168
128 87 168
128 88 168
128 88 168
128 89 168
129 89 168
129 90 168
129 90 168
129 91 168
130 91 168
130 92 168
130 92 168
130 93 168
131 93 168
131 94 168
131 94 168
131 95 168
132 95 168
196 160 232
196 160 232
196 161 232
197 161 232
197 162 232
197 162 232
197 163 232
198 163 232
198 164 232
198 164 232
198 165 232
199 165 232
199 166 232
199 166 232
199 167 232
200 167 232
200 168 232
200 168 232
200 169 232
201 169 232
201 170 232
201 170 232
201 171 232
202 171 232
202 172 232
202 172 232
202 173 232
203 173 232
203 174 232
203 174 232
203 175 232
204 175 232
140 112 168
140 112 168
140 113 168
141 113 168
141 114 168
141 114 168
141 115 168
142 115 168
142 116 168
142 116 168
142 117 168
143 117 168
143 118 168
143 118 168
143 119 168
144 119 168
144 120 168
144 120 168
144 121 168
145 121 168
145 122 168
145 122 168
145 123 168
146 123 168
146 124 168
146 124 168
146 125 168
147 125 168
147 126 168
147 126 168
147 127 168
148 127 168
212 192 232
212 192 232
212 193 232
213 193 232
213 194 232
213 194 232
213 195 232
214 195 232
214 196 232
214 196 232
214 197 232
215 197 232
215 198 232
215 198 232
215 199 232
216 199 232
216 200 232
216 200 232
216 201 232
217 201 232
217 202 232
217 202 232
217 203 232
218 203 232
218 204 232
218 204 232
218 205 232
219 205 232
219 206 232
219 206 232
219 207 232
220 207 232
156 144 168
156 144 168
156 145 168
157 145 168
157 146 168
157 146 168
157 147 168
158 147 168
158 148 168
158 148 168
158 149 168
159 149 168
159 150 168
159 150 168
159 151 168
160 151 168
160 152 168
160 152 168
160 153 168
161 153 168
161 154 168
161 154 168
161 155 168
162 155 168
162 156 168
162 156 168
162 157 168
163 157 168
163 158 168
163 158 168
163 159 168
164 159 168
228 224 232
228 224 232
228 225 232
229 225 232
229 226 232
229 226 232
229 227 232
230 227 232
230 228 232
230 228 232
230 229 232
231 229 232
231 230 232
231 230 232
231 231 232
232 231 232
232 232 232
232 232 232
232 233 232
233 233 232
233 234 232
233 234 232
233 235 232
234 235 232
234 236 232
234 236 232
234 237 232
235 237 232
235 238 232
235 238 232
235 239 232
236 239 232
172 176 168
172 176 168
172 177 168
173 177 168
173 178 168
173 178 168
173 179 168
174 179 168
174 180 168
174 180 168
174 181 168
175 181 168
175 182 168
175 182 168
175 183 168
176 183 168
176 184 168
176 184 168
176 185 168
177 185 168
177 186 168
177 186 168
177 187 168
178 187 168
178 188 168
178 188 168
178 189 168
179 189 168
179 190 168
179 190 168
179 191 168
180 191 168
180 128 233
180 128 233
181 129 233
181 129 233
181 130 233
181 130 233
182 131 233
182 131 233
182 132 233
182 132 233
183 133 233
183 133 233
183 134 233
183 134 233
184 135 233
184 135 233
184 136 233
184 136 233
185 137 233
185 137 233
185 138 233
185 138 233
186 139 233
186 139 233
186 140 233
186 140 233
187 141 233
187 141 233
187 142 233
187 142 233
188 143 233
188 143 233
124 80 169
124 80 169
125 81 169
125 81 169
125 82 169
125 82 169
126 83 169
126 83 169
126 84 169
126 84 169
127 85 169
127 85 169
127 86 169
127 86 169
128 87 169
128 87 169
128 88 169
128 88 169
129 89 169
129 89 169
129 90 169
129 90 169
130 91 169
130 91 169
130 92 169
130 92 169
131 93 169
131 93 169
131 94 169
131 94 169
132 95 169
132 95 169
196 160 233
196 160 233
197 161 233
197 161 233
197 162 233
197 162 233
198 163 233
198 163 233
198 164 233
198 164 233
199 165 233
199 165 233
199 166 233
199 166 233
200 167 233
200 167 233
200 168 233
200 168 233
201 169 233
201 169 233
201 170 233
201 170 233
202 171 233
202 171 233
202 172 233
202 172 233
203 173 233
203 173 233
203 174 233
203 174 233
204 175 233
204 175 233
140 112 169
140 112 169
141 113 169
141 113 169
141 114 169
141 114 169
142 115 169
142 115 169
142 116 169
142 116 169
143 117 169
143 117 169
143 118 169
143 118 169
144 119 169
144 119 169
144 120 169
144 120 169
145 121 169
145 121 169
145 122 169
145 122 169
146 123 169
146 123 169
146 124 169
146 124 169
147 125 169
147 125 169
147 126 169
147 126 169
148 127 169
148 127 169
212 192 233
212 192 233
213 193 233
213 193 233
213 194 233
213 194 233
214 195 233
214 195 233
214 196 233
214 196 233
215 197 233
215 197 233
215 198 233
215 198 233
216 199 233
216 199 233
216 200 233
216 200 233
217 201 233
217 201 233
217 202 233
217 202 233
218 203 233
218 203 233
218 204 233
218 204 233
219 205 233
219 205 233
219 206 233
219 206 233
220 207 233
220 207 233
156 144 169
156 144 169
157 145 169
157 145 169
157 146 169
157 146 169
158 147 169
158 147 169
158 148 169
158 148 169
159 149 169
159 149 169
159 150 169
159 150 169
160 151 169
160 151 169
160 152 169
160 152 169
161 153 169
161 153 169
161 154 169
161 154 169
162 155 169
162 155 169
162 156 169
162 156 169
163 157 169
163 157 169
163 158 169
163 158 169
164 159 169
164 159 169
228 224 233
228 224 233
229 225 233
229 225 233
229 226 233
229 226 233
230 227 233
230 227 233
230 228 233
230 228 233
231 229 233
231 229 233
231 230 233
231 230 233
232 231 233
232 231 233
232 232 233
232 232 233
233 233 233
233 233 233
233 234 233
233 234 233
234 235 233
234 235 233
234 236 233
234 236 233
235 237 233
235 237 233
235 238 233
235 238 233
236 239 233
236 239 233
172 176 169
172 176 169
173 177 169
173 177 169
173 178 169
173 178 169
174 179 169
174 179 169
174 180 169
174 180 169
175 181 169
175 181 169
175 182 169
175 182 169
176 183 169
176 183 169
176 184 169
176 184 169
177 185 169
177 185 169
177 186 169
177 186 169
178 187 169
178 187 169
178 188 169
178 188 169
179 189 169
179 189 169
179 190 169
179 190 169
180 191 169
180 191 169
180 128 233
181 128 233
181 129 233
181 129 233
181 130 233
182 130 233
182 131 233
182 131 233
182 132 233
183 132 233
183 133 233
183 133 233
183 134 233
184 134 233
184 135 233
184 135 233
184 136 233
185 136 233
185 137 233
185 137 233
185 138 233
186 138 233
186 139 233
186 139 233
186 140 233
187 140 233
187 141 233
187 141 233
187 142 233
188 142 233
188 143 233
188 143 233
124 80 169
125 80 169
125 81 169
125 81 169
125 82 169
126 82 169
126 83 169
126 83 169
126 84 169
127 84 169
127 85 169
127 85 169
127 86 169
128 86 169
128 87 169
128 87 169
128 88 169
129 88 169
129 89 169
129 89 169
129 90 169
130 90 169
130 91 169
130 91 169
130 92 169
131 92 169
131 93 169
131 93 169
131 94 169
132 94 169
132 95 169
132 95 169
196 160 233
197 160 233
197 161 233
197 161 233
197 162 233
198 162 233
198 163 233
198 163 233
198 164 233
199 164 233
199 165 233
199 165 233
199 166 233
200 166 233
200 167 233
200 167 233
200 168 233
201 168 233
201 169 233
201 169 233
201 170 233
202 170 233
202 171 233
202 171 233
202 172 233
203 172 233
203 173 233
203 173 233
203 174 233
204 174 233
204 175 233
204 175 233
140 112 169
141 112 169
141 113 169
141 113 169
141 114 169
142 114 169
142 115 169
142 115 169
142 116 169
143 116 169
143 117 169
143 117 169
143 118 169
144 118 169
144 119 169
144 119 169
144 120 169
145 120 169
145 121 169
145 121 169
145 122 169
146 122 169
146 123 169
146 123 169
146 124 169
147 124 169
147 125 169
147 125 169
147 126 169
148 126 169
148 127 169
148 127 169
212 192 233
213 192 233
213 193 233
213 193 233
213 194 233
214 194 233
214 195 233
214 195 233
214 196 233
215 196 233
215 197 233
215 197 233
215 198 233
216 198 233
216 199 233
216 199 233
216 200 233
217 200 233
217 201 233
217 201 233
217 202 233
218 202 233
218 203 233
218 203 233
218 204 233
219 204 233
219 205 233
219 205 233
219 206 233
220 206 233
220 207 233
220 207 233
156 144 169
157 144 169
157 145 169
157 145 169
157 146 169
158 146 169
158 147 169
158 147 169
158 148 169
159 148 169
159 149 169
159 149 169
159 150 169
160 150 169
160 151 169
160 151 169
160 152 169
161 152 169
161 153 169
161 153 169
161 154 169
162 154 169
162 155 169
162 155 169
162 156 169
163 156 169
163 157 169
163 157 169
163 158 169
164 158 169
164 159 169
164 159 169
228 224 233
229 224 233
229 225 233
229 225 233
229 226 233
230 226 233
230 227 233
230 227 233
230 228 233
231 228 233
231 229 233
231 229 233
231 230 233
232 230 233
232 231 233
232 231 233
232 232 233
233 232 233
233 233 233
233 233 233
233 234 233
234 234 233
234 235 233
234 235 233
234 236 233
235 236 233
235 237 233
235 237 233
235 238 233
236 238 233
236 239 233
236 239 233
172 176 169
173 176 169
173 177 169
173 177 169
173 178 169
174 178 169
174 179 169
174 179 169
174 180 169
175 180 169
175 181 169
175 181 169
175 182 169
176 182 169
176 183 169
176 183 169
176 184 169
177 184 169
177 185 169
177 185 169
177 186 169
178 186 169
178 187 169
178 187 169
178 188 169
179 188 169
179 189 169
179 189 169
179 190 169
180 190 169
180 191 169
180 191 169
181 128 234
181 128 234
181 129 234
181 129 234
182 130 234
182 130 234
182 131 234
182 131 234
183 132 234
183 132 234
183 133 234
183 133 234
184 134 234
184 134 234
184 135 234
184 135 234
185 136 234
185 136 234
185 137 234
185 137 234
186 138 234
186 138 234
186 139 234
186 139 234
187 140 234
187 140 234
187 141 234
187 141 234
188 142 234
188 142 234
188 143 234
188 143 234
125 80 170
125 80 170
125 81 170
125 81 170
126 82 170
126 82 170
126 83 170
126 83 170
127 84 170
127 84 170
127 85 170
127 85 170
128 86 170
128 86 170
128 87 170
128 87 170
129 88 170
129 88 170
129 89 170
129 89 170
130 90 170
130 90 170
130 91 170
130 91 170
131 92 170
131 92 170
131 93 170
131 93 170
132 94 170
132 94 170
132 95 170
132 95 170
197 160 234
197 160 234
197 161 234
197 161 234
198 162 234
198 162 234
198 163 234
198 163 234
199 164 234
199 164 234
199 165 234
199 165 234
200 166 234
200 166 234
200 167 234
200 167 234
201 168 234
201 168 234
201 169 234
201 169 234
202 170 234
202 170 234
202 171 234
202 171 234
203 172 234
203 172 234
203 173 234
203 173 234
204 174 234
204 174 234
204 175 234
204 175 234
141 112 170
141 112 170
141 113 170
141 113 170
142 114 170
142 114 170
142 115 170
142 115 170
143 116 170
143 116 170
143 117 170
143 117 170
144 118 170
144 118 170
144 119 170
144 119 170
145 120 170
145 120 170
145 121 170
145 121 170
146 122 170
146 122 170
146 123 170
146 123 170
147 124 170
147 124 170
147 125 170
147 125 170
148 126 170
148 126 170
148 127 170
148 127 170
213 192 234
213 192 234
213 193 234
213 193 234
214 194 234
214 194 234
214 195 234
214 195 234
215 196 234
215 196 234
215 197 234
215 197 234
216 198 234
216 198 234
216 199 234
216 199 234
217 200 234
217 200 234
217 201 234
217 201 234
218 202 234
218 202 234
218 203 234
218 203 234
219 204 234
219 204 234
219 205 234
219 205 234
220 206 234
220 206 234
220 207 234
220 207 234
157 144 170
157 144 170
157 145 170
157 145 170
158 146 170
158 146 170
158 147 170
158 147 170
159 148 170
159 148 170
159 149 170
159 149 170
160 150 170
160 150 170
160 151 170
160 151 170
161 152 170
161 152 170
161 153 170
161 153 170
162 154 170
162 154 170
162 155 170
162 155 170
163 156 170
163 156 170
163 157 170
163 157 170
164 158 170
164 158 170
164 159 170
164 159 170
229 224 234
229 224 234
229 225 234
229 225 234
230 226 234
230 226 234
230 227 234
230 227 234
231 228 234
231 228 234
231 229 234
231 229 234
232 230 234
232 230 234
232 231 234
232 231 234
233 232 234
233 232 234
233 233 234
233 233 234
234 234 234
234 234 234
234 235 234
234 235 234
235 236 234
235 236 234
235 237 234
235 237 234
236 238 234
236 238 234
236 239 234
236 239 234
173 176 170
173 176 170
173 177 170
173 177 170
174 178 170
174 178 170
174 179 170
174 179 170
175 180 170
175 180 170
175 181 170
175 181 170
176 182 170
176 182 170
176 183 170
176 183 170
177 184 170
177 184 170
177 185 170
177 185 170
178 186 170
178 186 170
178 187 170
178 187 170
179 188 170
179 188 170
179 189 170
179 189 170
180 190 170
180 190 170
180 191 170
180 191 170
181 128 234
181 128 234
181 129 234
182 129 234
182 130 234
182 130 234
182 131 234
183 131 234
183 132 234
183 132 234
183 133 234
184 133 234
184 134 234
184 134 234
184 135 234
185 135 234
185 136 234
185 136 234
185 137 234
186 137 234
186 138 234
186 138 234
186 139 234
187 139 234
187 140 234
187 140 234
187 141 234
188 141 234
188 142 234
188 142 234
188 143 234
189 143 234
125 80 170
125 80 170
125 81 170
126 81 170
126 82 170
126 82 170
126 83 170
127 83 170
127 84 170
127 84 170
127 85 170
128 85 170
128 86 170
128 86 170
128 87 170
129 87 170
129 88 170
129 88 170
129 89 170
130 89 170
130 90 170
130 90 170
130 91 170
131 91 170
131 92 170
131 92 170
131 93 170
132 93 170
132 94 170
132 94 170
132 95 170
133 95 170
197 160 234
197 160 234
197 161 234
198 161 234
198 162 234
198 162 234
198 163 234
199 163 234
199 164 234
199 164 234
199 165 234
200 165 234
200 166 234
200 166 234
200 167 234
201 167 234
201 168 234
201 168 234
201 169 234
202 169 234
202 170 234
202 170 234
202 171 234
203 171 234
203 172 234
203 172 234
203 173 234
204 173 234
204 174 234
204 174 234
204 175 234
205 175 234
141 112 170
141 112 170
141 113 170
142 113 170
142 114 170
142 114 170
142 115 170
143 115 170
143 116 170
143 116 170
143 117 170
144 117 170
144 118 170
144 118 170
144 119 170
145 119 170
145 120 170
145 120 170
145 121 170
146 121 170
146 122 170
146 122 170
146 123 170
147 123 170
147 124 170
147 124 170
147 125 170
148 125 170
148 126 170
148 126 170
148 127 170
149 127 170
213 192 234
213 192 234
213 193 234
214 193 234
214 194 234
214 194 234
214 195 234
215 195 234
215 196 234
215 196 234
215 197 234
216 197 234
216 198 234
216 198 234
216 199 234
217 199 234
217 200 234
217 200 234
217 201 234
218 201 234
218 202 234
218 202 234
218 203 234
219 203 234
219 204 234
219 204 234
219 205 234
220 205 234
220 206 234
220 206 234
220 207 234
221 207 234
157 144 170
157 144 170
157 145 170
158 145 170
158 146 170
158 146 170
158 147 170
159 147 170
159 148 170
159 148 170
159 149 170
160 149 170
160 150 170
160 150 170
160 151 170
161 151 170
161 152 170
161 152 170
161 153 170
162 153 170
162 154 170
162 154 170
162 155 170
163 155 170
163 156 170
163 156 170
163 157 170
164 157 170
164 158 170
164 158 170
164 159 170
165 159 170
229 224 234
229 224 234
229 225 234
230 225 234
230 226 234
230 226 234
230 227 234
231 227 234
231 228 234
231 228 234
231 229 234
232 229 234
232 230 234
232 230 234
232 231 234
233 231 234
233 232 234
233 232 234
233 233 234
234 233 234
234 234 234
234 234 234
234 235 234
235 235 234
235 236 234
235 236 234
235 237 234
236 237 234
236 238 234
236 238 234
236 239 234
237 239 234
173 176 170
173 176 170
173 177 170
174 177 170
174 178 170
174 178 170
174 179 170
175 179 170
175 180 170
175 180 170
175 181 170
176 181 170
176 182 170
176 182 170
176 183 170
177 183 170
177 184 170
177 184 170
177 185 170
178 185 170
178 186 170
178 186 170
178 187 170
179 187 170
179 188 170
179 188 170
179 189 170
180 189 170
180 190 170
180 190 170
180 191 170
181 191 170
181 128 235
181 128 235
182 129 235
182 129 235
182 130 235
182 130 235
183 131 235
183 131 235
183 132 235
183 132 235
184 133 235
184 133 235
184 134 235
184 134 235
185 135 235
185 135 235
185 136 235
185 136 235
186 137 235
186 137 235
186 138 235
186 138 235
187 139 235
187 139 235
187 140 235
187 140 235
188 141 235
188 141 235
188 142 235
188 142 235
189 143 235
189 143 235
125 80 171
125 80 171
126 81 171
126 81 171
126 82 171
126 82 171
127 83 171
127 83 171
127 84 171
127 84 171
128 85 171
128 85 171
128 86 171
128 86 171
129 87 171
129 87 171
129 88 171
129 88 171
130 89 171
130 89 171
130 90 171
130 90 171
131 91 171
131 91 171
131 92 171
131 92 171
132 93 171
132 93 171
132 94 171
132 94 171
133 95 171
133 95 171
197 160 235
197 160 235
198 161 235
198 161 235
198 162 235
198 162 235
199 163 235
199 163 235
199 164 235
199 164 235
200 165 235
200 165 235
200 166 235
200 166 235
201 167 235
201 167 235
201 168 235
201 168 235
202 169 235
202 169 235
202 170 235
202 170 235
203 171 235
203 171 235
203 172 235
203 172 235
204 173 235
204 173 235
204 174 235
204 174 235
205 175 235
205 175 235
141 112 171
141 112 171
142 113 171
142 113 171
142 114 171
142 114 171
143 115 171
143 115 171
143 116 171
143 116 171
144 117 171
144 117 171
144 118 171
144 118 171
145 119 171
145 119 171
145 120 171
145 120 171
146 121 171
146 121 171
146 122 171
146 122 171
147 123 171
147 123 171
147 124 171
147 124 171
148 125 171
148 125 171
148 126 171
148 126 171
149 127 171
149 127 171
213 192 235
213 192 235
214 193 235
214 193 235
214 194 235
214 194 235
215 195 235
215 195 235
215 196 235
215 196 235
216 197 235
216 197 235
216 198 235
216 198 235
217 199 235
217 199 235
217 200 235
217 200 235
218 201 235
218 201 235
218 202 235
218 202 235
219 203 235
219 203 235
219 204 235
219 204 235
220 205 235
220 205 235
220 206 235
220 206 235
221 207 235
221 207 235
157 144 171
157 144 171
158 145 171
158 145 171
158 146 171
158 146 171
159 147 171
159 147 171
159 148 171
159 148 171
160 149 171
160 149 171
160 150 171
160 150 171
161 151 171
161 151 171
161 152 171
161 152 171
162 153 171
162 153 171
162 154 171
162 154 171
163 155 171
163 155 171
163 156 171
163 156 171
164 157 171
164 157 171
164 158 171
164 158 171
165 159 171
165 159 171
229 224 235
229 224 235
230 225 235
230 225 235
230 226 235
230 226 235
231 227 235
231 227 235
231 228 235
231 228 235
232 229 235
232 229 235
232 230 235
232 230 235
233 231 235
233 231 235
233 232 235
233 232 235
234 233 235
234 233 235
234 234 235
234 234 235
235 235 235
235 235 235
235 236 235
235 236 235
236 237 235
236 237 235
236 238 235
236 238 235
237 239 235
237 239 235
173 176 171
173 176 171
174 177 171
174 177 171
174 178 171
174 178 171
175 179 171
175 179 171
175 180 171
175 180 171
176 181 171
176 181 171
176 182 171
176 182 171
177 183 171
177 183 171
177 184 171
177 184 171
178 185 171
178 185 171
178 186 171
178 186 171
179 187 171
179 187 171
179 188 171
179 188 171
180 189 171
180 189 171
180 190 171
180 190 171
181 191 171
181 191 171
181 128 235
182 128 235
182 129 235
182 129 235
182 130 235
183 130 235
183 131 235
183 131 235
183 132 235
184 132 235
184 133 235
184 133 235
184 134 235
185 134 235
185 135 235
185 135 235
185 136 235
186 136 235
186 137 235
186 137 235
186 138 235
187 138 235
187 139 235
187 139 235
187 140 235
188 140 235
188 141 235
188 141 235
188 142 235
189 142 235
189 143 235
189 143 235
125 80 171
126 80 171
126 81 171
126 81 171
126 82 171
127 82 171
127 83 171
127 83 171
127 84 171
128 84 171
128 85 171
128 85 171
128 86 171
129 86 171
129 87 171
129 87 171
129 88 171
130 88 171
130 89 171
130 89 171
130 90 171
131 90 171
131 91 171
131 91 171
131 92 171
132 92 171
132 93 171
132 93 171
132 94 171
133 94 171
133 95 171
133 95 171
197 160 235
198 160 235
198 161 235
198 161 235
198 162 235
199 162 235
199 163 235
199 163 235
199 164 235
200 164 235
200 165 235
200 165 235
200 166 235
201 166 235
201 167 235
201 167 235
201 168 235
202 168 235
202 169 235
202 169 235
202 170 235
203 170 235
203 171 235
203 171 235
203 172 235
204 172 235
204 173 235
204 173 235
204 174 235
205 174 235
205 175 235
205 175 235
141 112 171
142 112 171
142 113 171
142 113 171
142 114 171
143 114 171
143 115 171
143 115 171
143 116 171
144 116 171
144 117 171
144 117 171
144 118 171
145 118 171
145 119 171
145 119 171
145 120 171
146 120 171
146 121 171
146 121 171
146 122 171
147 122 171
147 123 171
147 123 171
147 124 171
148 124 171
148 125 171
148 125 171
148 126 171
149 126 171
149 127 171
149 127 171
213 192 235
214 192 235
214 193 235
214 193 235
214 194 235
215 194 235
215 195 235
215 195 235
215 196 235
216 196 235
216 197 235
216 197 235
216 198 235
217 198 235
217 199 235
217 199 235
217 200 235
218 200 235
218 201 235
218 201 235
218 202 235
219 202 235
219 203 235
219 203 235
219 204 235
220 204 235
220 205 235
220 205 235
220 206 235
221 206 235
221 207 235
221 207 235
157 144 171
158 144 171
158 145 171
158 145 171
158 146 171
159 146 171
159 147 171
159 147 171
159 148 171
160 148 171
160 149 171
160 149 171
160 150 171
161 150 171
161 151 171
161 151 171
161 152 171
162 152 171
162 153 171
162 153 171
162 154 171
163 154 171
163 155 171
163 155 171
163 156 171
164 156 171
164 157 171
164 157 171
164 158 171
165 158 171
165 159 171
165 159 171
229 224 235
230 224 235
230 225 235
230 225 235
230 226 235
231 226 235
231 227 235
231 227 235
231 228 235
232 228 235
232 229 235
232 229 235
232 230 235
233 230 235
233 231 235
233 231 235
233 232 235
234 232 235
234 233 235
234 233 235
234 234 235
235 234 235
235 235 235
235 235 235
235 236 235
236 236 235
236 237 235
236 237 235
236 238 235
237 238 235
237 239 235
237 239 235
173 176 171
174 176 171
174 177 171
174 177 171
174 178 171
175 178 171
175 179 171
175 179 171
175 180 171
176 180 171
176 181 171
176 181 171
176 182 171
177 182 171
177 183 171
177 183 171
177 184 171
178 184 171
178 185 171
178 185 171
178 186 171
179 186 171
179 187 171
179 187 171
179 188 171
180 188 171
180 189 171
180 189 171
180 190 171
181 190 171
181 191 171
181 191 171
182 128 236
182 128 236
182 129 236
182 129 236
183 130 236
183 130 236
183 131 236
183 131 236
184 132 236
184 132 236
184 133 236
184 133 236
185 134 236
185 134 236
185 135 236
185 135 236
186 136 236
186 136 236
186 137 236
186 137 236
187 138 236
187 138 236
187 139 236
187 139 236
188 140 236
188 140 236
188 141 236
188 141 236
189 142 236
189 142 236
189 143 236
189 143 236
126 80 172
126 80 172
126 81 172
126 81 172
127 82 172
127 82 172
127 83 172
127 83 172
128 84 172
128 84 172
128 85 172
128 85 172
129 86 172
129 86 172
129 87 172
129 87 172
130 88 172
130 88 172
130 89 172
130 89 172
131 90 172
131 90 172
131 91 172
131 91 172
132 92 172
132 92 172
132 93 172
132 93 172
133 94 172
133 94 172
133 95 172
133 95 172
198 160 236
198 160 236
198 161 236
198 161 236
199 162 236
199 162 236
199 163 236
199 163 236
200 164 236
200 164 236
200 165 236
200 165 236
201 166 236
201 166 236
201 167 236
201 167 236
202 168 236
202 168 236
202 169 236
202 169 236
203 170 236
203 170 236
203 171 236
203 171 236
204 172 236
204 172 236
204 173 236
204 173 236
205 174 236
205 174 236
205 175 236
205 175 236
142 112 172
142 112 172
142 113 172
142 113 172
143 114 172
143 114 172
143 115 172
143 115 172
144 116 172
144 116 172
144 117 172
144 117 172
145 118 172
145 118 172
145 119 172
145 119 172
146 120 172
146 120 172
146 121 172
146 121 172
147 122 172
147 122 172
147 123 172
147 123 172
148 124 172
148 124 172
148 125 172
148 125 172
149 126 172
149 126 172
149 127 172
149 127 172
214 192 236
214 192 236
214 193 236
214 193 236
215 194 236
215 194 236
215 195 236
215 195 236
216 196 236
216 196 236
216 197 236
216 197 236
217 198 236
217 198 236
217 199 236
217 199 236
218 200 236
218 200 236
218 201 236
218 201 236
219 202 236
219 202 236
219 203 236
219 203 236
220 204 236
220 204 236
220 205 236
220 205 236
221 206 236
221 206 236
221 207 236
221 207 236
158 144 172
158 144 172
158 145 172
158 145 172
159 146 172
159 146 172
159 147 172
159 147 172
160 148 172
160 148 172
160 149 172
160 149 172
161 150 172
161 150 172
161 151 172
161 151 172
162 152 172
162 152 172
162 153 172
162 153 172
163 154 172
163 154 172
163 155 172
163 155 172
164 156 172
164 156 172
164 157 172
164 157 172
165 158 172
165 158 172
165 159 172
165 159 172
230 224 236
230 224 236
230 225 236
230 225 236
231 226 236
231 226 236
231 227 236
231 227 236
232 228 236
232 228 236
232 229 236
232 229 236
233 230 236
233 230 236
233 231 236
233 231 236
234 232 236
234 232 236
234 233 236
234 233 236
235 234 236
235 234 236
235 235 236
235 235 236
236 236 236
236 236 236
236 237 236
236 237 236
237 238 236
237 238 236
237 239 236
237 239 236
174 176 172
174 176 172
174 177 172
174 177 172
175 178 172
175 178 172
175 179 172
175 179 172
176 180 172
176 180 172
176 181 172
176 181 172
177 182 172
177 182 172
177 183 172
177 183 172
178 184 172
178 184 172
178 185 172
178 185 172
179 186 172
179 186 172
179 187 172
179 187 172
180 188 172
180 188 172
180 189 172
180 189 172
181 190 172
181 190 172
181 191 172
181 191 172
182 128 236
182 128 236
182 129 236
183 129 236
183 130 236
183 130 236
183 131 236
184 131 236
184 132 236
184 132 236
184 133 236
185 133 236
185 134 236
185 134 236
185 135 236
186 135 236
186 136 236
186 136 236
186 137 236
187 137 236
187 138 236
187 138 236
187 139 236
188 139 236
188 140 236
188 140 236
188 141 236
189 141 236
189 142 236
189 142 236
189 143 236
190 143 236
126 80 172
126 80 172
126 81 172
127 81 172
127 82 172
127 82 172
127 83 172
128 83 172
128 84 172
128 84 172
128 85 172
129 85 172
129 86 172
129 86 172
129 87 172
130 87 172
130 88 172
130 88 172
130 89 172
131 89 172
131 90 172
131 90 172
131 91 172
132 91 172
132 92 172
132 92 172
132 93 172
133 93 172
133 94 172
133 94 172
133 95 172
134 95 172
198 160 236
198 160 236
198 161 236
199 161 236
199 162 236
199 162 236
199 163 236
200 163 236
200 164 236
200 164 236
200 165 236
201 165 236
201 166 236
201 166 236
201 167 236
202 167 236
202 168 236
202 168 236
202 169 236
203 169 236
203 170 236
203 170 236
203 171 236
204 171 236
204 172 236
204 172 236
204 173 236
205 173 236
205 174 236
205 174 236
205 175 236
206 175 236
142 112 172
142 112 172
142 113 172
143 113 172
143 114 172
143 114 172
143 115 172
144 115 172
144 116 172
144 116 172
144 117 172
145 117 172
145 118 172
145 118 172
145 119 172
146 119 172
146 120 172
146 120 172
146 121 172
147 121 172
147 122 172
147 122 172
147 123 172
148 123 172
148 124 172
148 124 172
148 125 172
149 125 172
149 126 172
149 126 172
149 127 172
150 127 172
214 192 236
214 192 236
214 193 236
215 193 236
215 194 236
215 194 236
215 195 236
216 195 236
216 196 236
216 196 236
216 197 236
217 197 236
217 198 236
217 198 236
217 199 236
218 199 236
218 200 236
218 200 236
218 201 236
219 201 236
219 202 236
219 202 236
219 203 236
220 203 236
220 204 236
220 204 236
220 205 236
221 205 236
221 206 236
221 206 236
221 207 236
222 207 236
158 144 172
158 144 172
158 145 172
159 145 172
159 146 172
159 146 172
159 147 172
160 147 172
160 148 172
160 148 172
160 149 172
161 149 172
161 150 172
161 150 172
161 151 172
162 151 172
162 152 172
162 152 172
162 153 172
163 153 172
163 154 172
163 154 172
163 155 172
164 155 172
164 156 172
164 156 172
164 157 172
165 157 172
165 158 172
165 158 172
165 159 172
166 159 172
230 224 236
230 224 236
230 225 236
231 225 236
231 226 236
231 226 236
231 227 236
232 227 236
232 228 236
232 228 236
232 229 236
233 229 236
233 230 236
233 230 236
233 231 236
234 231 236
234 232 236
234 232 236
234 233 236
235 233 236
235 234 236
235 234 236
235 235 236
236 235 236
236 236 236
236 236 236
236 237 236
237 237 236
237 238 236
237 238 236
237 239 236
238 239 236
174 176 172
174 176 172
174 177 172
175 177 172
175 178 172
175 178 172
175 179 172
176 179 172
176 180 172
176 180 172
176 181 172
177 181 172
177 182 172
177 182 172
177 183 172
178 183 172
178 184 172
178 184 172
178 185 172
179 185 172
179 186 172
179 186 172
179 187 172
180 187 172
180 188 172
180 188 172
180 189 172
181 189 172
181 190 172
181 190 172
181 191 172
182 191 172
182 128 237
182 128 237
183 129 237
183 129 237
183 130 237
183 130 237
184 131 237
184 131 237
184 132 237
184 132 237
185 133 237
185 133 237
185 134 237
185 134 237
186 135 237
186 135 237
186 136 237
186 136 237
187 137 237
187 137 237
187 138 237
187 138 237
188 139 237
188 139 237
188 140 237
188 140 237
189 141 237
189 141 237
189 142 237
189 142 237
190 143 237
190 143 237
126 80 173
126 80 173
127 81 173
127 81 173
127 82 173
127 82 173
128 83 173
128 83 173
128 84 173
128 84 173
129 85 173
129 85 173
129 86 173
129 86 173
130 87 173
130 87 173
130 88 173
130 88 173
131 89 173
131 89 173
131 90 173
131 90 173
132 91 173
132 91 173
132 92 173
132 92 173
133 93 173
133 93 173
133 94 173
133 94 173
134 95 173
134 95 173
198 160 237
198 160 237
199 161 237
199 161 237
199 162 237
199 162 237
200 163 237
200 163 237
200 164 237
200 164 237
201 165 237
201 165 237
201 166 237
201 166 237
202 167 237
202 167 237
202 168 237
202 168 237
203 169 237
203 169 237
203 170 237
203 170 237
204 171 237
204 171 237
204 172 237
204 172 237
205 173 237
205 173 237
205 174 237
205 174 237
206 175 237
206 175 237
142 112 173
142 112 173
143 113 173
143 113 173
143 114 173
143 114 173
144 115 173
144 115 173
144 116 173
144 116 173
145 117 173
145 117 173
145 118 173
145 118 173
146 119 173
146 119 173
146 120 173
146 120 173
147 121 173
147 121 173
147 122 173
147 122 173
148 123 173
148 123 173
148 124 173
148 124 173
149 125 173
149 125 173
149 126 173
149 126 173
150 127 173
150 127 173
214 192 237
214 192 237
215 193 237
215 193 237
215 194 237
215 194 237
216 195 237
216 195 237
216 196 237
216 196 237
217 197 237
217 197 237
217 198 237
217 198 237
218 199 237
218 199 237
218 200 237
218 200 237
219 201 237
219 201 237
219 202 237
219 202 237
220 203 237
220 203 237
220 204 237
220 204 237
221 205 237
221 205 237
221 206 237
221 206 237
222 207 237
222 207 237
158 144 173
158 144 173
159 145 173
159 145 173
159 146 173
159 146 173
160 147 173
160 147 173
160 148 173
160 148 173
161 149 173
161 149 173
161 150 173
161 150 173
162 151 173
162 151 173
162 152 173
162 152 173
163 153 173
163 153 173
163 154 173
163 154 173
164 155 173
164 155 173
164 156 173
164 156 173
165 157 173
165 157 173
165 158 173
165 158 173
166 159 173
166 159 173
230 224 237
230 224 237
231 225 237
231 225 237
231 226 237
231 226 237
232 227 237
232 227 237
232 228 237
232 228 237
233 229 237
233 229 237
233 230 237
233 230 237
234 231 237
234 231 237
234 232 237
234 232 237
235 233 237
235 233 237
235 234 237
235 234 237
236 235 237
236 235 237
236 236 237
236 236 237
237 237 237
237 237 237
237 238 237
237 238 237
238 239 237
238 239 237
174 176 173
174 176 173
175 177 173
175 177 173
175 178 173
175 178 173
176 179 173
176 179 173
176 180 173
176 180 173
177 181 173
177 181 173
177 182 173
177 182 173
178 183 173
178 183 173
178 184 173
178 184 173
179 185 173
179 185 173
179 186 173
179 186 173
180 187 173
180 187 173
180 188 173
180 188 173
181 189 173
181 189 173
181 190 173
181 190 173
182 191 173
182 191 173
182 128 237
183 128 237
183 129 237
183 129 237
183 130 237
184 130 237
184 131 237
184 131 237
184 132 237
185 132 237
185 133 237
185 133 237
185 134 237
186 134 237
186 135 237
186 135 237
186 136 237
187 136 237
187 137 237
187 137 237
187 138 237
188 138 237
188 139 237
188 139 237
188 140 237
189 140 237
189 141 237
189 141 237
189 142 237
190 142 237
190 143 237
190 143 237
126 80 173
127 80 173
127 81 173
127 81 173
127 82 173
128 82 173
128 83 173
128 83 173
128 84 173
129 84 173
129 85 173
129 85 173
129 86 173
130 86 173
130 87 173
130 87 173
130 88 173
131 88 173
131 89 173
131 89 173
131 90 173
132 90 173
132 91 173
132 91 173
132 92 173
133 92 173
133 93 173
133 93 173
133 94 173
134 94 173
134 95 173
134 95 173
198 160 237
199 160 237
199 161 237
199 161 237
199 162 237
200 162 237
200 163 237
200 163 237
200 164 237
201 164 237
201 165 237
201 165 237
201 166 237
202 166 237
202 167 237
202 167 237
202 168 237
203 168 237
203 169 237
203 169 237
203 170 237
204 170 237
204 171 237
204 171 237
204 172 237
205 172 237
205 173 237
205 173 237
205 174 237
206 174 237
206 175 237
206 175 237
142 112 173
143 112 173
143 113 173
143 113 173
143 114 173
144 114 173
144 115 173
144 115 173
144 116 173
145 116 173
145 117 173
145 117 173
145 118 173
146 118 173
146 119 173
146 119 173
146 120 173
147 120 173
147 121 173
147 121 173
147 122 173
148 122 173
148 123 173
148 123 173
148 124 173
149 124 173
149 125 173
149 125 173
149 126 173
150 126 173
150 127 173
150 127 173
214 192 237
215 192 237
215 193 237
215 193 237
215 194 237
216 194 237
216 195 237
216 195 237
216 196 237
217 196 237
217 197 237
217 197 237
217 198 237
218 198 237
218 199 237
218 199 237
218 200 237
219 200 237
219 201 237
219 201 237
219 202 237
220 202 237
220 203 237
220 203 237
220 204 237
221 204 237
221 205 237
221 205 237
221 206 237
222 206 237
222 207 237
222 207 237
158 144 173
159 144 173
159 145 173
159 145 173
159 146 173
160 146 173
160 147 173
160 147 173
160 148 173
161 148 173
161 149 173
161 149 173
161 150 173
162 150 173
162 151 173
162 151 173
162 152 173
163 152 173
163 153 173
163 153 173
163 154 173
164 154 173
164 155 173
164 155 173
164 156 173
165 156 173
165 157 173
165 157 173
165 158 173
166 158 173
166 159 173
166 159 173
230 224 237
231 224 237
231 225 237
231 225 237
231 226 237
232 226 237
232 227 237
232 227 237
232 228 237
233 228 237
233 229 237
233 229 237
233 230 237
234 230 237
234 231 237
234 231 237
234 232 237
235 232 237
235 233 237
235 233 237
235 234 237
236 234 237
236 235 237
236 235 237
236 236 237
237 236 237
237 237 237
237 237 237
237 238 237
238 238 237
238 239 237
238 239 237
174 176 173
175 176 173
175 177 173
175 177 173
175 178 173
176 178 173
176 179 173
176 179 173
176 180 173
177 180 173
177 181 173
177 181 173
177 182 173
178 182 173
178 183 173
178 183 173
178 184 173
179 184 173
179 185 173
179 185 173
179 186 173
180 186 173
180 187 173
180 187 173
180 188 173
181 188 173
181 189 173
181 189 173
181 190 173
182 190 173
182 191 173
182 191 173
183 128 238
183 128 238
183 129 238
183 129 238
184 130 238
184 130 238
184 131 238
184 131 238
185 132 238
185 132 238
185 133 238
185 133 238
186 134 238
186 134 238
186 135 238
186 135 238
187 136 238
187 136 238
187 137 238
187 137 238
188 138 238
188 138 238
188 139 238
188 139 238
189 140 238
189 140 238
189 141 238
189 141 238
190 142 238
190 142 238
190 143 238
190 143 238
127 80 174
127 80 174
127 81 174
127 81 174
128 82 174
128 82 174
128 83 174
128 83 174
129 84 174
129 84 174
129 85 174
129 85 174
130 86 174
130 86 174
130 87 174
130 87 174
131 88 174
131 88 174
131 89 174
131 89 174
132 90 174
132 90 174
132 91 174
132 91 174
133 92 174
133 92 174
133 93 174
133 93 174
134 94 174
134 94 174
134 95 174
134 95 174
199 160 238
199 160 238
199 161 238
199 161 238
200 162 238
200 162 238
200 163 238
200 163 238
201 164 238
201 164 238
201 165 238
201 165 238
202 166 238
202 166 238
202 167 238
202 167 238
203 168 238
203 168 238
203 169 238
203 169 238
204 170 238
204 170 238
204 171 238
204 171 238
205 172 238
205 172 238
205 173 238
205 173 238
206 174 238
206 174 238
206 175 238
206 175 238
143 112 174
143 112 174
143 113 174
143 113 174
144 114 174
144 114 174
144 115 174
144 115 174
145 116 174
145 116 174
145 117 174
145 117 174
146 118 174
146 118 174
146 119 174
146 119 174
147 120 174
147 120 174
147 121 174
147 121 174
148 122 174
148 122 174
148 123 174
148 123 174
149 124 174
149 124 174
149 125 174
149 125 174
150 126 174
150 126 174
150 127 174
150 127 174
215 192 238
215 192 238
215 193 238
215 193 238
216 194 238
216 194 238
216 195 238
216 195 238
217 196 238
217 196 238
217 197 238
217 197 238
218 198 238
218 198 238
218 199 238
218 199 238
219 200 238
219 200 238
219 201 238
219 201 238
220 202 238
220 202 238
220 203 238
220 203 238
221 204 238
221 204 238
221 205 238
221 205 238
222 206 238
222 206 238
222 207 238
222 207 238
159 144 174
159 144 174
159 145 174
159 145 174
160 146 174
160 146 174
160 147 174
160 147 174
161 148 174
161 148 174
161 149 174
161 149 174
162 150 174
162 150 174
162 151 174
162 151 174
163 152 174
163 152 174
163 153 174
163 153 174
164 154 174
164 154 174
164 155 174
164 155 174
165 156 174
165 156 174
165 157 174
165 157 174
166 158 174
166 158 174
166 159 174
166 159 174
231 224 238
231 224 238
231 225 238
231 225 238
232 226 238
232 226 238
232 227 238
232 227 238
233 228 238
233 228 238
233 229 238
233 229 238
234 230 238
234 230 238
234 231 238
234 231 238
235 232 238
235 232 238
235 233 238
235 233 238
236 234 238
236 234 238
236 235 238
236 235 238
237 236 238
237 236 238
237 237 238
237 237 238
238 238 238
238 238 238
238 239 238
238 239 238
175 176 174
175 176 174
175 177 174
175 177 174
176 178 174
176 178 174
176 179 174
176 179 174
177 180 174
177 180 174
177 181 174
177 181 174
178 182 174
178 182 174
178 183 174
178 183 174
179 184 174
179 184 174
179 185 174
179 185 174
180 186 174
180 186 174
180 187 174
180 187 174
181 188 174
181 188 174
181 189 174
181 189 174
182 190 174
182 190 174
182 191 174
182 191 174
183 128 238
183 128 238
183 129 238
184 129 238
184 130 238
184 130 238
184 131 238
185 131 238
185 132 238
185 132 238
185 133 238
186 133 238
186 134 238
186 134 238
186 135 238
187 135 238
187 136 238
187 136 238
187 137 238
188 137 238
188 138 238
188 138 238
188 139 238
189 139 238
189 140 238
189 140 238
189 141 238
190 141 238
190 142 238
190 142 238
190 143 238
191 143 238
127 80 174
127 80 174
127 81 174
128 81 174
128 82 174
128 82 174
128 83 174
129 83 174
129 84 174
129 84 174
129 85 174
130 85 174
130 86 174
130 86 174
130 87 174
131 87 174
131 88 174
131 88 174
131 89 174
132 89 174
132 90 174
132 90 174
132 91 174
133 91 174
133 92 174
133 92 174
133 93 174
134 93 174
134 94 174
134 94 174
134 95 174
135 95 174
199 160 238
199 160 238
199 161 238
200 161 238
200 162 238
200 162 238
200 163 238
201 163 238
201 164 238
201 164 238
201 165 238
202 165 238
202 166 238
202 166 238
202 167 238
203 167 238
203 168 238
203 168 238
203 169 238
204 169 238
204 170 238
204 170 238
204 171 238
205 171 238
205 172 238
205 172 238
205 173 238
206 173 238
206 174 238
206 174 238
206 175 238
207 175 238
143 112 174
143 112 174
143 113 174
144 113 174
144 114 174
144 114 174
144 115 174
145 115 174
145 116 174
145 116 174
145 117 174
146 117 174
146 118 174
146 118 174
146 119 174
147 119 174
147 120 174
147 120 174
147 121 174
148 121 174
148 122 174
148 122 174
148 123 174
149 123 174
149 124 174
149 124 174
149 125 174
150 125 174
150 126 174
150 126 174
150 127 174
151 127 174
215 192 238
215 192 238
215 193 238
216 193 238
216 194 238
216 194 238
216 195 238
217 195 238
217 196 238
217 196 238
217 197 238
218 197 238
218 198 238
218 198 238
218 199 238
219 199 238
219 200 238
219 200 238
219 201 238
220 201 238
220 202 238
220 202 238
220 203 238
221 203 238
221 204 238
221 204 238
221 205 238
222 205 238
222 206 238
222 206 238
222 207 238
223 207 238
159 144 174
159 144 174
159 145 174
160 145 174
160 146 174
160 146 174
160 147 174
161 147 174
161 148 174
161 148 174
161 149 174
162 149 174
162 150 174
162 150 174
162 151 174
163 151 174
163 152 174
163 152 174
163 153 174
164 153 174
164 154 174
164 154 174
164 155 174
165 155 174
165 156 174
165 156 174
165 157 174
166 157 174
166 158 174
166 158 174
166 159 174
167 159 174
231 224 238
231 224 238
231 225 238
232 225 238
232 226 238
232 226 238
232 227 238
233 227 238
233 228 238
233 228 238
233 229 238
234 229 238
234 230 238
234 230 238
234 231 238
235 231 238
235 232 238
235 232 238
235 233 238
236 233 238
236 234 238
236 234 238
236 235 238
237 235 238
237 236 238
237 236 238
237 237 238
238 237 238
238 238 238
238 238 238
238 239 238
239 239 238
175 176 174
175 176 174
175 177 174
176 177 174
176 178 174
176 178 174
176 179 174
177 179 174
177 180 174
177 180 174
177 181 174
178 181 174
178 182 174
178 182 174
178 183 174
179 183 174
179 184 174
179 184 174
179 185 174
180 185 174
180 186 174
180 186 174
180 187 174
181 187 174
181 188 174
181 188 174
181 189 174
182 189 174
182 190 174
182 190 174
182 191 174
183 191 174
183 128 239
183 128 239
184 129 239
184 129 239
184 130 239
184 130 239
185 131 239
185 131 239
185 132 239
185 132 239
186 133 239
186 133 239
186 134 239
186 134 239
187 135 239
187 135 239
187 136 239
187 136 239
188 137 239
188 137 239
188 138 239
188 138 239
189 139 239
189 139 239
189 140 239
189 140 239
190 141 239
190 141 239
190 142 239
190 142 239
191 143 239
191 143 239
127 80 175
127 80 175
128 81 175
128 81 175
128 82 175
128 82 175
129 83 175
129 83 175
129 84 175
129 84 175
130 85 175
130 85 175
130 86 175
130 86 175
131 87 175
131 87 175
131 88 175
131 88 175
132 89 175
132 89 175
132 90 175
132 90 175
133 91 175
133 91 175
133 92 175
133 92 175
134 93 175
134 93 175
134 94 175
134 94 175
135 95 175
135 95 175
199 160 239
199 160 239
200 161 239
200 161 239
200 162 239
200 162 239
201 163 239
201 163 239
201 164 239
201 164 239
202 165 239
202 165 239
202 166 239
202 166 239
203 167 239
203 167 239
203 168 239
203 168 239
204 169 239
204 169 239
204 170 239
204 170 239
205 171 239
205 171 239
205 172 239
205 172 239
206 173 239
206 173 239
206 174 239
206 174 239
207 175 239
207 175 239
143 112 175
143 112 175
144 113 175
144 113 175
144 114 175
144 114 175
145 115 175
145 115 175
145 116 175
145 116 175
146 117 175
146 117 175
146 118 175
146 118 175
147 119 175
147 119 175
147 120 175
147 120 175
148 121 175
148 121 175
148 122 175
148 122 175
149 123 175
149 123 175
149 124 175
149 124 175
150 125 175
150 125 175
150 126 175
150 126 175
151 127 175
151 127 175
215 192 239
215 192 239
216 193 239
216 193 239
216 194 239
216 194 239
217 195 239
217 195 239
217 196 239
217 196 239
218 197 239
218 197 239
218 198 239
218 198 239
219 199 239
219 199 239
219 200 239
219 200 239
220 201 239
220 201 239
220 202 239
220 202 239
221 203 239
221 203 239
221 204 239
221 204 239
222 205 239
222 205 239
222 206 239
222 206 239
223 207 239
223 207 239
159 144 175
159 144 175
160 145 175
160 145 175
160 146 175
160 146 175
161 147 175
161 147 175
161 148 175
161 148 175
162 149 175
162 149 175
162 150 175
162 150 175
163 151 175
163 151 175
163 152 175
163 152 175
164 153 175
164 153 175
164 154 175
164 154 175
165 155 175
165 155 175
165 156 175
165 156 175
166 157 175
166 157 175
166 158 175
166 158 175
167 159 175
167 159 175
231 224 239
231 224 239
232 225 239
232 225 239
232 226 239
232 226 239
233 227 239
233 227 239
233 228 239
233 228 239
234 229 239
234 229 239
234 230 239
234 230 239
235 231 239
235 231 239
235 232 239
235 232 239
236 233 239
236 233 239
236 234 239
236 234 239
237 235 239
237 235 239
237 236 239
237 236 239
238 237 239
238 237 239
238 238 239
238 238 239
239 239 239
239 239 239
175 176 175
175 176 175
176 177 175
176 177 175
176 178 175
176 178 175
177 179 175
177 179 175
177 180 175
177 180 175
178 181 175
178 181 175
178 182 175
178 182 175
179 183 175
179 183 175
179 184 175
179 184 175
180 185 175
180 185 175
180 186 175
180 186 175
181 187 175
181 187 175
181 188 175
181 188 175
182 189 175
182 189 175
182 190 175
182 190 175
183 191 175
183 191 175
183 128 239
184 128 239
184 129 239
184 129 239
184 130 239
185 130 239
185 131 239
185 131 239
185 132 239
186 132 239
186 133 239
186 133 239
186 134 239
187 134 239
187 135 239
187 135 239
187 136 239
188 136 239
188 137 239
188 137 239
188 138 239
189 138 239
189 139 239
189 139 239
189 140 239
190 140 239
190 141 239
190 141 239
190 142 239
191 142 239
191 143 239
191 143 239
127 80 175
128 80 175
128 81 175
128 81 175
128 82 175
129 82 175
129 83 175
129 83 175
129 84 175
130 84 175
130 85 175
130 85 175
130 86 175
131 86 175
131 87 175
131 87 175
131 88 175
132 88 175
132 89 175
132 89 175
132 90 175
133 90 175
133 91 175
133 91 175
133 92 175
134 92 175
134 93 175
134 93 175
134 94 175
135 94 175
135 95 175
135 95 175
199 160 239
200 160 239
200 161 239
200 161 239
200 162 239
201 162 239
201 163 239
201 163 239
201 164 239
202 164 239
202 165 239
202 165 239
202 166 239
203 166 239
203 167 239
203 167 239
203 168 239
204 168 239
204 169 239
204 169 239
204 170 239
205 170 239
205 171 239
205 171 239
205 172 239
206 172 239
206 173 239
206 173 239
206 174 239
207 174 239
207 175 239
207 175 239
143 112 175
144 112 175
144 113 175
144 113 175
144 114 175
145 114 175
145 115 175
145 115 175
145 116 175
146 116 175
146 117 175
146 117 175
146 118 175
147 118 175
147 119 175
147 119 175
147 120 175
148 120 175
148 121 175
148 121 175
148 122 175
149 122 175
149 123 175
149 123 175
149 124 175
150 124 175
150 125 175
150 125 175
150 126 175
151 126 175
151 127 175
151 127 175
215 192 239
216 192 239
216 193 239
216 193 239
216 194 239
217 194 239
217 195 239
217 195 239
217 196 239
218 196 239
218 197 239
218 197 239
218 198 239
219 198 239
219 199 239
219 199 239
219 200 239
220 200 239
220 201 239
220 201 239
220 202 239
221 202 239
221 203 239
221 203 239
221 204 239
222 204 239
222 205 239
222 205 239
222 206 239
223 206 239
223 207 239
223 207 239
159 144 175
160 144 175
160 145 175
160 145 175
160 146 175
161 146 175
161 147 175
161 147 175
161 148 175
162 148 175
162 149 175
162 149 175
162 150 175
163 150 175
163 151 175
163 151 175
163 152 175
164 152 175
164 153 175
164 153 175
164 154 175
165 154 175
165 155 175
165 155 175
165 156 175
166 156 175
166 157 175
166 157 175
166 158 175
167 158 175
167 159 175
167 159 175
231 224 239
232 224 239
232 225 239
232 225 239
232 226 239
233 226 239
233 227 239
233 227 239
233 228 239
234 228 239
234 229 239
234 229 239
234 230 239
235 230 239
235 231 239
235 231 239
235 232 239
236 232 239
236 233 239
236 233 239
236 234 239
237 234 239
237 235 239
237 235 239
237 236 239
238 236 239
238 237 239
238 237 239
238 238 239
239 238 239
239 239 239
239 239 239
175 176 175
176 176 175
176 177 175
176 177 175
176 178 175
177 178 175
177 179 175
177 179 175
177 180 175
178 180 175
178 181 175
178 181 175
178 182 175
179 182 175
179 183 175
179 183 175
179 184 175
180 184 175
180 185 175
180 185 175
180 186 175
181 186 175
181 187 175
181 187 175
181 188 175
182 188 175
182 189 175
182 189 175
182 190 175
183 190 175
183 191 175
183 191 175
120 64 176
120 64 176
120 65 176
120 65 176
121 66 176
121 66 176
121 67 176
121 67 176
122 68 176
122 68 176
122 69 176
122 69 176
123 70 176
123 70 176
123 71 176
123 71 176
124 72 176
124 72 176
124 73 176
124 73 176
125 74 176
125 74 176
125 75 176
125 75 176
126 76 176
126 76 176
126 77 176
126 77 176
127 78 176
127 78 176
127 79 176
127 79 176
192 144 240
192 144 240
192 145 240
192 145 240
193 146 240
193 146 240
193 147 240
193 147 240
194 148 240
194 148 240
194 149 240
194 149 240
195 150 240
195 150 240
195 151 240
195 151 240
196 152 240
196 152 240
196 153 240
196 153 240
197 154 240
197 154 240
197 155 240
197 155 240
198 156 240
198 156 240
198 157 240
198 157 240
199 158 240
199 158 240
199 159 240
199 159 240
136 96 176
136 96 176
136 97 176
136 97 176
137 98 176
137 98 176
137 99 176
137 99 176
138 100 176
138 100 176
138 101 176
138 101 176
139 102 176
139 102 176
139 103 176
139 103 176
140 104 176
140 104 176
140 105 176
140 105 176
141 106 176
141 106 176
141 107 176
141 107 176
142 108 176
142 108 176
142 109 176
142 109 176
143 110 176
143 110 176
143 111 176
143 111 176
208 176 240
208 176 240
208 177 240
208 177 240
209 178 240
209 178 240
209 179 240
209 179 240
210 180 240
210 180 240
210 181 240
210 181 240
211 182 240
211 182 240
211 183 240
211 183 240
212 184 240
212 184 240
212 185 240
212 185 240
213 186 240
213 186 240
213 187 240
213 187 240
214 188 240
214 188 240
214 189 240
214 189 240
215 190 240
215 190 240
215 191 240
215 191 240
152 128 176
152 128 176
152 129 176
152 129 176
153 130 176
153 130 176
153 131 176
153 131 176
154 132 176
154 132 176
154 133 176
154 133 176
155 134 176
155 134 176
155 135 176
155 135 176
156 136 176
156 136 176
156 137 176
156 137 176
157 138 176
157 138 176
157 139 176
157 139 176
158 140 176
158 140 176
158 141 176
158 141 176
159 142 176
159 142 176
159 143 176
159 143 176
224 208 240
224 208 240
224 209 240
224 209 240
225 210 240
225 210 240
225 211 240
225 211 240
226 212 240
226 212 240
226 213 240
226 213 240
227 214 240
227 214 240
227 215 240
227 215 240
228 216 240
228 216 240
228 217 240
228 217 240
229 218 240
229 218 240
229 219 240
229 219 240
230 220 240
230 220 240
230 221 240
230 221 240
231 222 240
231 222 240
231 223 240
231 223 240
168 160 176
168 160 176
168 161 176
168 161 176
169 162 176
169 162 176
169 163 176
169 163 176
170 164 176
170 164 176
170 165 176
170 165 176
171 166 176
171 166 176
171 167 176
171 167 176
172 168 176
172 168 176
172 169 176
172 169 176
173 170 176
173 170 176
173 171 176
173 171 176
174 172 176
174 172 176
174 173 176
174 173 176
175 174 176
175 174 176
175 175 176
175 175 176
240 240 240
240 240 240
240 241 240
240 241 240
241 242 240
241 242 240
241 243 240
241 243 240
242 244 240
242 244 240
242 245 240
242 245 240
243 246 240
243 246 240
243 247 240
243 247 240
244 248 240
244 248 240
244 249 240
244 249 240
245 250 240
245 250 240
245 251 240
245 251 240
246 252 240
246 252 240
246 253 240
246 253 240
247 254 240
247 254 240
247 255 240
247 255 240
120 64 176
120 64 176
120 65 176
121 65 176
121 66 176
121 66 176
121 67 176
122 67 176
122 68 176
122 68 176
122 69 176
123 69 176
123 70 176
123 70 176
123 71 176
124 71 176
124 72 176
124 72 176
124 73 176
125 73 176
125 74 176
125 74 176
125 75 176
126 75 176
126 76 176
126 76 176
126 77 176
127 77 176
127 78 176
127 78 176
127 79 176
128 79 176
192 144 240
192 144 240
192 145 240
193 145 240
193 146 240
193 146 240
193 147 240
194 147 240
194 148 240
194 148 240
194 149 240
195 149 240
195 150 240
195 150 240
195 151 240
196 151 240
196 152 240
196 152 240
196 153 240
197 153 240
197 154 240
197 154 240
197 155 240
198 155 240
198 156 240
198 156 240
198 157 240
199 157 240
199 158 240
199 158 240
199 159 240
200 159 240
136 96 176
136 96 176
136 97 176
137 97 176
137 98 176
137 98 176
137 99 176
138 99 176
138 100 176
138 100 176
138 101 176
139 101 176
139 102 176
139 102 176
139 103 176
140 103 176
140 104 176
140 104 176
140 105 176
141 105 176
141 106 176
141 106 176
141 107 176
142 107 176
142 108 176
142 108 176
142 109 176
143 109 176
143 110 176
143 110 176
143 111 176
144 111 176
208 176 240
208 176 240
208 177 240
209 177 240
209 178 240
209 178 240
209 179 240
210 179 240
210 180 240
210 180 240
210 181 240
211 181 240
211 182 240
211 182 240
211 183 240
212 183 240
212 184 240
212 184 240
212 185 240
213 185 240
213 186 240
213 186 240
213 187 240
214 187 240
214 188 240
214 188 240
214 189 240
215 189 240
215 190 240
215 190 240
215 191 240
216 191 240
152 128 176
152 128 176
152 129 176
153 129 176
153 130 176
153 130 176
153 131 176
154 131 176
154 132 176
154 132 176
154 133 176
155 133 176
155 134 176
155 134 176
155 135 176
156 135 176
156 136 176
156 136 176
156 137 176
157 137 176
157 138 176
157 138 176
157 139 176
158 139 176
158 140 176
158 140 176
158 141 176
159 141 176
159 142 176
159 142 176
159 143 176
160 143 176
224 208 240
224 208 240
224 209 240
225 209 240
225 210 240
225 210 240
225 211 240
226 211 240
226 212 240
226 212 240
226 213 240
227 213 240
227 214 240
227 214 240
227 215 240
228 215 240
228 216 240
228 216 240
228 217 240
229 217 240
229 218 240
229 218 240
229 219 240
230 219 240
230 220 240
230 220 240
230 221 240
231 221 240
231 222 240
231 222 240
231 223 240
232 223 240
168 160 176
168 160 176
168 161 176
169 161 176
169 162 176
169 162 176
169 163 176
170 163 176
170 164 176
170 164 176
170 165 176
171 165 176
171 166 176
171 166 176
171 167 176
172 167 176
172 168 176
172 168 176
172 169 176
173 169 176
173 170 176
173 170 176
173 171 176
174 171 176
174 172 176
174 172 176
174 173 176
175 173 176
175 174 176
175 174 176
175 175 176
176 175 176
240 240 240
240 240 240
240 241 240
241 241 240
241 242 240
241 242 240
241 243 240
242 243 240
242 244 240
242 244 240
242 245 240
243 245 240
243 246 240
243 246 240
243 247 240
244 247 240
244 248 240
244 248 240
244 249 240
245 249 240
245 250 240
245 250 240
245 251 240
246 251 240
246 252 240
246 252 240
246 253 240
247 253 240
247 254 240
247 254 240
247 255 240
248 255 240
120 64 177
120 64 177
121 65 177
121 65 177
121 66 177
121 66 177
122 67 177
122 67 177
122 68 177
122 68 177
123 69 177
123 69 177
123 70 177
123 70 177
124 71 177
124 71 177
124 72 177
124 72 177
125 73 177
125 73 177
125 74 177
125 74 177
126 75 177
126 75 177
126 76 177
126 76 177
127 77 177
127 77 177
127 78 177
127 78 177
128 79 177
128 79 177
192 144 241
192 144 241
193 145 241
193 145 241
193 146 241
193 146 241
194 147 241
194 147 241
194 148 241
194 148 241
195 149 241
195 149 241
195 150 241
195 150 241
196 151 241
196 151 241
196 152 241
196 152 241
197 153 241
197 153 241
197 154 241
197 154 241
198 155 241
198 155 241
198 156 241
198 156 241
199 157 241
199 157 241
199 158 241
199 158 241
200 159 241
200 159 241
136 96 177
136 96 177
137 97 177
137 97 177
137 98 177
137 98 177
138 99 177
138 99 177
138 100 177
138 100 177
139 101 177
139 101 177
139 102 177
139 102 177
140 103 177
140 103 177
140 104 177
140 104 177
141 105 177
141 105 177
141 106 177
141 106 177
142 107 177
142 107 177
142 108 177
142 108 177
143 109 177
143 109 177
143 110 177
143 110 177
144 111 177
144 111 177
208 176 241
208 176 241
209 177 241
209 177 241
209 178 241
209 178 241
210 179 241
210 179 241
210 180 241
210 180 241
211 181 241
211 181 241
211 182 241
211 182 241
212 183 241
212 183 241
212 184 241
212 184 241
213 185 241
213 185 241
213 186 241
213 186 241
214 187 241
214 187 241
214 188 241
214 188 241
215 189 241
215 189 241
215 190 241
215 190 241
216 191 241
216 191 241
152 128 177
152 128 177
153 129 177
153 129 177
153 130 177
153 130 177
154 131 177
154 131 177
154 132 177
154 132 177
155 133 177
155 133 177
155 134 177
155 134 177
156 135 177
156 135 177
156 136 177
156 136 177
157 137 177
157 137 177
157 138 177
157 138 177
158 139 177
158 139 177
158 140 177
158 140 177
159 141 177
159 141 177
159 142 177
159 142 177
160 143 177
160 143 177
224 208 241
224 208 241
225 209 241
225 209 241
225 210 241
225 210 241
226 211 241
226 211 241
226 212 241
226 212 241
227 213 241
227 213 241
227 214 241
227 214 241
228 215 241
228 215 241
228 216 241
228 216 241
229 217 241
229 217 241
229 218 241
229 218 241
230 219 241
230 219 241
230 220 241
230 220 241
231 221 241
231 221 241
231 222 241
231 222 241
232 223 241
232 223 241
168 160 177
168 160 177
169 161 177
169 161 177
169 162 177
169 162 177
170 163 177
170 163 177
170 164 177
170 164 177
171 165 177
171 165 177
171 166 177
171 166 177
172 167 177
172 167 177
172 168 177
172 168 177
173 169 177
173 169 177
173 170 177
173 170 177
174 171 177
174 171 177
174 172 177
174 172 177
175 173 177
175 173 177
175 174 177
175 174 177
176 175 177
176 175 177
240 240 241
240 240 241
241 241 241
241 241 241
241 242 241
241 242 241
242 243 241
242 243 241
242 244 241
242 244 241
243 245 241
243 245 241
243 246 241
243 246 241
244 247 241
244 247 241
244 248 241
244 248 241
245 249 241
245 249 241
245 250 241
245 250 241
246 251 241
246 251 241
246 252 241
246 252 241
247 253 241
247 253 241
247 254 241
247 254 241
248 255 241
248 255 241
120 64 177
121 64 177
121 65 177
121 65 177
121 66 177
122 66 177
122 67 177
122 67 177
122 68 177
123 68 177
123 69 177
123 69 177
123 70 177
124 70 177
124 71 177
124 71 177
124 72 177
125 72 177
125 73 177
125 73 177
125 74 177
126 74 177
126 75 177
126 75 177
126 76 177
127 76 177
127 77 177
127 77 177
127 78 177
128 78 177
128 79 177
128 79 177
192 144 241
193 144 241
193 145 241
193 145 241
193 146 241
194 146 241
194 147 241
194 147 241
194 148 241
195 148 241
195 149 241
195 149 241
195 150 241
196 150 241
196 151 241
196 151 241
196 152 241
197 152 241
197 153 241
197 153 241
197 154 241
198 154 241
198 155 241
198 155 241
198 156 241
199 156 241
199 157 241
199 157 241
199 158 241
200 158 241
200 159 241
200 159 241
136 96 177
137 96 177
137 97 177
137 97 177
137 98 177
138 98 177
138 99 177
138 99 177
138 100 177
139 100 177
139 101 177
139 101 177
139 102 177
140 102 177
140 103 177
140 103 177
140 104 177
141 104 177
141 105 177
141 105 177
141 106 177
142 106 177
142 107 177
142 107 177
142 108 177
143 108 177
143 109 177
143 109 177
143 110 177
144 110 177
144 111 177
144 111 177
208 176 241
209 176 241
209 177 241
209 177 241
209 178 241
210 178 241
210 179 241
210 179 241
210 180 241
211 180 241
211 181 241
211 181 241
211 182 241
212 182 241
212 183 241
212 183 241
212 184 241
213 184 241
213 185 241
213 185 241
213 186 241
214 186 241
214 187 241
214 187 241
214 188 241
215 188 241
215 189 241
215 189 241
215 190 241
216 190 241
216 191 241
216 191 241
152 128 177
153 128 177
153 129 177
153 129 177
153 130 177
154 130 177
154 131 177
154 131 177
154 132 177
155 132 177
155 133 177
155 133 177
155 134 177
156 134 177
156 135 177
156 135 177
156 136 177
157 136 177
157 137 177
157 137 177
157 138 177
158 138 177
158 139 177
158 139 177
158 140 177
159 140 177
159 141 177
159 141 177
159 142 177
160 142 177
160 143 177
160 143 177
224 208 241
225 208 241
225 209 241
225 209 241
225 210 241
226 210 241
226 211 241
226 211 241
226 212 241
227 212 241
227 213 241
227 213 241
227 214 241
228 214 241
228 215 241
228 215 241
228 216 241
229 216 241
229 217 241
229 217 241
229 218 241
230 218 241
230 219 241
230 219 241
230 220 241
231 220 241
231 221 241
231 221 241
231 222 241
232 222 241
232 223 241
232 223 241
168 160 177
169 160 177
169 161 177
169 161 177
169 162 177
170 162 177
170 163 177
170 163 177
170 164 177
171 164 177
171 165 177
171 165 177
171 166 177
172 166 177
172 167 177
172 167 177
172 168 177
173 168 177
173 169 177
173 169 177
173 170 177
174 170 177
174 171 177
174 171 177
174 172 177
175 172 177
175 173 177
175 173 177
175 174 177
176 174 177
176 175 177
176 175 177
240 240 241
241 240 241
241 241 241
241 241 241
241 242 241
242 242 241
242 243 241
242 243 241
242 244 241
243 244 241
243 245 241
243 245 241
243 246 241
244 246 241
244 247 241
244 247 241
244 248 241
245 248 241
245 249 241
245 249 241
245 250 241
246 250 241
246 251 241
246 251 241
246 252 241
247 252 241
247 253 241
247 253 241
247 254 241
248 254 241
248 255 241
248 255 241
121 64 178
121 64 178
121 65 178
121 65 178
122 66 178
122 66 178
122 67 178
122 67 178
123 68 178
123 68 178
123 69 178
123 69 178
124 70 178
124 70 178
124 71 178
124 71 178
125 72 178
125 72 178
125 73 178
125 73 178
126 74 178
126 74 178
126 75 178
126 75 178
127 76 178
127 76 178
127 77 178
127 77 178
128 78 178
128 78 178
128 79 178
128 79 178
193 144 242
193 144 242
193 145 242
193 145 242
194 146 242
194 146 242
194 147 242
194 147 242
195 148 242
195 148 242
195 149 242
195 149 242
196 150 242
196 150 242
196 151 242
196 151 242
197 152 242
197 152 242
197 153 242
197 153 242
198 154 242
198 154 242
198 155 242
198 155 242
199 156 242
199 156 242
199 157 242
199 157 242
200 158 242
200 158 242
200 159 242
200 159 242
137 96 178
137 96 178
137 97 178
137 97 178
138 98 178
138 98 178
138 99 178
138 99 178
139 100 178
139 100 178
139 101 178
139 101 178
140 102 178
140 102 178
140 103 178
140 103 178
141 104 178
141 104 178
141 105 178
141 105 178
142 106 178
142 106 178
142 107 178
142 107 178
143 108 178
143 108 178
143 109 178
143 109 178
144 110 178
144 110 178
144 111 178
144 111 178
209 176 242
209 176 242
209 177 242
209 177 242
210 178 242
210 178 242
210 179 242
210 179 242
211 180 242
211 180 242
211 181 242
211 181 242
212 182 242
212 182 242
212 183 242
212 183 242
213 184 242
213 184 242
213 185 242
213 185 242
214 186 242
214 186 242
214 187 242
214 187 242
215 188 242
215 188 242
215 189 242
215 189 242
216 190 242
216 190 242
216 191 242
216 191 242
153 128 178
153 128 178
153 129 178
153 129 178
154 130 178
154 130 178
154 131 178
154 131 178
155 132 178
155 132 178
155 133 178
155 133 178
156 134 178
156 134 178
156 135 178
156 135 178
157 136 178
157 136 178
157 137 178
157 137 178
158 138 178
158 138 178
158 139 178
158 139 178
159 140 178
159 140 178
159 141 178
159 141 178
160 142 178
160 142 178
160 143 178
160 143 178
225 208 242
225 208 242
225 209 242
225 209 242
226 210 242
226 210 242
226 211 242
226 211 242
227 212 242
227 212 242
227 213 242
227 213 242
228 214 242
228 214 242
228 215 242
228 215 242
229 216 242
229 216 242
229 217 242
229 217 242
230 218 242
230 218 242
230 219 242
230 219 242
231 220 242
231 220 242
231 221 242
231 221 242
232 222 242
232 222 242
232 223 242
232 223 242
169 160 178
169 160 178
169 161 178
169 161 178
170 162 178
170 162 178
170 163 178
170 163 178
171 164 178
171 164 178
171 165 178
171 165 178
172 166 178
172 166 178
172 167 178
172 167 178
173 168 178
173 168 178
173 169 178
173 169 178
174 170 178
174 170 178
174 171 178
174 171 178
175 172 178
175 172 178
175 173 178
175 173 178
176 174 178
176 174 178
176 175 178
176 175 178
241 240 242
241 240 242
241 241 242
241 241 242
242 242 242
242 242 242
242 243 242
242 243 242
243 244 242
243 244 242
243 245 242
243 245 242
244 246 242
244 246 242
244 247 242
244 247 242
245 248 242
245 248 242
245 249 242
245 249 242
246 250 242
246 250 242
246 251 242
246 251 242
247 252 242
247 252 242
247 253 242
247 253 242
248 254 242
248 254 242
248 255 242
248 255 242
121 64 178
121 64 178
121 65 178
122 65 178
122 66 178
122 66 178
122 67 178
123 67 178
123 68 178
123 68 178
123 69 178
124 69 178
124 70 178
124 70 178
124 71 178
125 71 178
125 72 178
125 72 178
125 73 178
126 73 178
126 74 178
126 74 178
126 75 178
127 75 178
127 76 178
127 76 178
127 77 178
128 77 178
128 78 178
128 78 178
128 79 178
129 79 178
193 144 242
193 144 242
193 145 242
194 145 242
194 146 242
194 146 242
194 147 242
195 147 242
195 148 242
195 148 242
195 149 242
196 149 242
196 150 242
196 150 242
196 151 242
197 151 242
197 152 242
197 152 242
197 153 242
198 153 242
198 154 242
198 154 242
198 155 242
199 155 242
199 156 242
199 156 242
199 157 242
200 157 242
200 158 242
200 158 242
200 159 242
201 159 242
137 96 178
137 96 178
137 97 178
138 97 178
138 98 178
138 98 178
138 99 178
139 99 178
139 100 178
139 100 178
139 101 178
140 101 178
140 102 178
140 102 178
140 103 178
141 103 178
141 104 178
141 104 178
141 105 178
142 105 178
142 106 178
142 106 178
142 107 178
143 107 178
143 108 178
143 108 178
143 109 178
144 109 178
144 110 178
144 110 178
144 111 178
145 111 178
209 176 242
209 176 242
209 177 242
210 177 242
210 178 242
210 178 242
210 179 242
211 179 242
211 180 242
211 180 242
211 181 242
212 181 242
212 182 242
212 182 242
212 183 242
213 183 242
213 184 242
213 184 242
213 185 242
214 185 242
214 186 242
214 186 242
214 187 242
215 187 242
215 188 242
215 188 242
215 189 242
216 189 242
216 190 242
216 190 242
216 191 242
217 191 242
153 128 178
153 128 178
153 129 178
154 129 178
154 130 178
154 130 178
154 131 178
155 131 178
155 132 178
155 132 178
155 133 178
156 133 178
156 134 178
156 134 178
156 135 178
157 135 178
157 136 178
157 136 178
157 137 178
158 137 178
158 138 178
158 138 178
158 139 178
159 139 178
159 140 178
159 140 178
159 141 178
160 141 178
160 142 178
160 142 178
160 143 178
161 143 178
225 208 242
225 208 242
225 209 242
226 209 242
226 210 242
226 210 242
226 211 242
227 211 242
227 212 242
227 212 242
227 213 242
228 213 242
228 214 242
228 214 242
228 215 242
229 215 242
229 216 242
229 216 242
229 217 242
230 217 242
230 218 242
230 218 242
230 219 242
231 219 242
231 220 242
231 220 242
231 221 242
232 221 242
232 222 242
232 222 242
232 223 242
233 223 242
169 160 178
169 160 178
169 161 178
170 161 178
170 162 178
170 162 178
170 163 178
171 163 178
171 164 178
171 164 178
171 165 178
172 165 178
172 166 178
172 166 178
172 167 178
173 167 178
173 168 178
173 168 178
173 169 178
174 169 178
174 170 178
174 170 178
174 171 178
175 171 178
175 172 178
175 172 178
175 173 178
176 173 178
176 174 178
176 174 178
176 175 178
177 175 178
241 240 242
241 240 242
241 241 242
242 241 242
242 242 242
242 242 242
242 243 242
243 243 242
243 244 242
243 244 242
243 245 242
244 245 242
244 246 242
244 246 242
244 247 242
245 247 242
245 248 242
245 248 242
245 249 242
246 249 242
246 250 242
246 250 242
246 251 242
247 251 242
247 252 242
247 252 242
247 253 242
248 253 242
248 254 242
248 254 242
248 255 242
249 255 242
121 64 179
121 64 179
122 65 179
122 65 179
122 66 179
122 66 179
123 67 179
123 67 179
123 68 179
123 68 179
124 69 179
124 69 179
124 70 179
124 70 179
125 71 179
125 71 179
125 72 179
125 72 179
126 73 179
126 73 179
126 74 179
126 74 179
127 75 179
127 75 179
127 76 179
127 76 179
128 77 179
128 77 179
128 78 179
128 78 179
129 79 179
129 79 179
193 144 243
193 144 243
194 145 243
194 145 243
194 146 243
194 146 243
195 147 243
195 147 243
195 148 243
195 148 243
196 149 243
196 149 243
196 150 243
196 150 243
197 151 243
197 151 243
197 152 243
197 152 243
198 153 243
198 153 243
198 154 243
198 154 243
199 155 243
199 155 243
199 156 243
199 156 243
200 157 243
200 157 243
200 158 243
200 158 243
201 159 243
201 159 243
137 96 179
137 96 179
138 97 179
138 97 179
138 98 179
138 98 179
139 99 179
139 99 179
139 100 179
139 100 179
140 101 179
140 101 179
140 102 179
140 102 179
141 103 179
141 103 179
141 104 179
141 104 179
142 105 179
142 105 179
142 106 179
142 106 179
143 107 179
143 107 179
143 108 179
143 108 179
144 109 179
144 109 179
144 110 179
144 110 179
145 111 179
145 111 179
209 176 243
209 176 243
210 177 243
210 177 243
210 178 243
210 178 243
211 179 243
211 179 243
211 180 243
211 180 243
212 181 243
212 181 243
212 182 243
212 182 243
213 183 243
213 183 243
213 184 243
213 184 243
214 185 243
214 185 243
214 186 243
214 186 243
215 187 243
215 187 243
215 188 243
215 188 243
216 189 243
216 189 243
216 190 243
216 190 243
217 191 243
217 191 243
153 128 179
153 128 179
154 129 179
154 129 179
154 130 179
154 130 179
155 131 179
155 131 179
155 132 179
155 132 179
156 133 179
156 133 179
156 134 179
156 134 179
157 135 179
157 135 179
157 136 179
157 136 179
158 137 179
158 137 179
158 138 179
158 138 179
159 139 179
159 139 179
159 140 179
159 140 179
160 141 179
160 141 179
160 142 179
160 142 179
161 143 179
161 143 179
225 208 243
225 208 243
226 209 243
226 209 243
226 210 243
226 210 243
227 211 243
227 211 243
227 212 243
227 212 243
228 213 243
228 213 243
228 214 243
228 214 243
229 215 243
229 215 243
229 216 243
229 216 243
230 217 243
230 217 243
230 218 243
230 218 243
231 219 243
231 219 243
231 220 243
231 220 243
232 221 243
232 221 243
232 222 243
232 222 243
233 223 243
233 223 243
169 160 179
169 160 179
170 161 179
170 161 179
170 162 179
170 162 179
171 163 179
171 163 179
171 164 179
171 164 179
172 165 179
172 165 179
172 166 179
172 166 179
173 167 179
173 167 179
173 168 179
173 168 179
174 169 179
174 169 179
174 170 179
174 170 179
175 171 179
175 171 179
175 172 179
175 172 179
176 173 179
176 173 179
176 174 179
176 174 179
177 175 179
177 175 179
241 240 243
241 240 243
242 241 243
242 241 243
242 242 243
242 242 243
243 243 243
243 243 243
243 244 243
243 244 243
244 245 243
244 245 243
244 246 243
244 246 243
245 247 243
245 247 243
245 248 243
245 248 243
246 249 243
246 249 243
246 250 243
246 250 243
247 251 243
247 251 243
247 252 243
247 252 243
248 253 243
248 253 243
248 254 243
248 254 243
249 255 243
249 255 243
121 64 179
122 64 179
122 65 179
122 65 179
122 66 179
123 66 179
123 67 179
123 67 179
123 68 179
124 68 179
124 69 179
124 69 179
124 70 179
125 70 179
125 71 179
125 71 179
125 72 179
126 72 179
126 73 179
126 73 179
126 74 179
127 74 179
127 75 179
127 75 179
127 76 179
128 76 179
128 77 179
128 77 179
128 78 179
129 78 179
129 79 179
129 79 179
193 144 243
194 144 243
194 145 243
194 145 243
194 146 243
195 146 243
195 147 243
195 147 243
195 148 243
196 148 243
196 149 243
196 149 243
196 150 243
197 150 243
197 151 243
197 151 243
197 152 243
198 152 243
198 153 243
198 153 243
198 154 243
199 154 243
199 155 243
199 155 243
199 156 243
200 156 243
200 157 243
200 157 243
200 158 243
201 158 243
201 159 243
201 159 243
137 96 179
138 96 179
138 97 179
138 97 179
138 98 179
139 98 179
139 99 179
139 99 179
139 100 179
140 100 179
140 101 179
140 101 179
140 102 179
141 102 179
141 103 179
141 103 179
141 104 179
142 104 179
142 105 179
142 105 179
142 106 179
143 106 179
143 107 179
143 107 179
143 108 179
144 108 179
144 109 179
144 109 179
144 110 179
145 110 179
145 111 179
145 111 179
209 176 243
210 176 243
210 177 243
210 177 243
210 178 243
211 178 243
211 179 243
211 179 243
211 180 243
212 180 243
212 181 243
212 181 243
212 182 243
213 182 243
213 183 243
213 183 243
213 184 243
214 184 243
214 185 243
214 185 243
214 186 243
215 186 243
215 187 243
215 187 243
215 188 243
216 188 243
216 189 243
216 189 243
216 190 243
217 190 243
217 191 243
217 191 243
153 128 179
154 128 179
154 129 179
154 129 179
154 130 179
155 130 179
155 131 179
155 131 179
155 132 179
156 132 179
156 133 179
156 133 179
156 134 179
157 134 179
157 135 179
157 135 179
157 136 179
158 136 179
158 137 179
158 137 179
158 138 179
159 138 179
159 139 179
159 139 179
159 140 179
160 140 179
160 141 179
160 141 179
160 142 179
161 142 179
161 143 179
161 143 179
225 208 243
226 208 243
226 209 243
226 209 243
226 210 243
227 210 243
227 211 243
227 211 243
227 212 243
228 212 243
228 213 243
228 213 243
228 214 243
229 214 243
229 215 243
229 215 243
229 216 243
230 216 243
230 217 243
230 217 243
230 218 243
231 218 243
231 219 243
231 219 243
231 220 243
232 220 243
232 221 243
232 221 243
232 222 243
233 222 243
233 223 243
233 223 243
169 160 179
170 160 179
170 161 179
170 161 179
170 162 179
171 162 179
171 163 179
171 163 179
171 164 179
172 164 179
172 165 179
172 165 179
172 166 179
173 166 179
173 167 179
173 167 179
173 168 179
174 168 179
174 169 179
174 169 179
174 170 179
175 170 179
175 171 179
175 171 179
175 172 179
176 172 179
176 173 179
176 173 179
176 174 179
177 174 179
177 175 179
177 175 179
241 240 243
242 240 243
242 241 243
242 241 243
242 242 243
243 242 243
243 243 243
243 243 243
243 244 243
244 244 243
244 245 243
244 245 243
244 246 243
245 246 243
245 247 243
245 247 243
245 248 243
246 248 243
246 249 243
246 249 243
246 250 243
247 250 243
247 251 243
247 251 243
247 252 243
248 252 243
248 253 243
248 253 243
248 254 243
249 254 243
249 255 243
249 255 243
122 64 180
122 64 180
122 65 180
122 65 180
123 66 180
123 66 180
123 67 180
123 67 180
124 68 180
124 68 180
124 69 180
124 69 180
125 70 180
125 70 180
125 71 180
125 71 180
126 72 180
126 72 180
126 73 180
126 73 180
127 74 180
127 74 180
127 75 180
127 75 180
128 76 180
128 76 180
128 77 180
128 77 180
129 78 180
129 78 180
129 79 180
129 79 180
194 144 244
194 144 244
194 145 244
194 145 244
195 146 244
195 146 244
195 147 244
195 147 244
196 148 244
196 148 244
196 149 244
196 149 244
197 150 244
197 150 244
197 151 244
197 151 244
198 152 244
198 152 244
198 153 244
198 153 244
199 154 244
199 154 244
199 155 244
199 155 244
200 156 244
200 156 244
200 157 244
200 157 244
201 158 244
201 158 244
201 159 244
201 159 244
138 96 180
138 96 180
138 97 180
138 97 180
139 98 180
139 98 180
139 99 180
139 99 180
140 100 180
140 100 180
140 101 180
140 101 180
141 102 180
141 102 180
141 103 180
141 103 180
142 104 180
142 104 180
142 105 180
142 105 180
143 106 180
143 106 180
143 107 180
143 107 180
144 108 180
144 108 180
144 109 180
144 109 180
145 110 180
145 110 180
145 111 180
145 111 180
210 176 244
210 176 244
210 177 244
210 177 244
211 178 244
211 178 244
211 179 244
211 179 244
212 180 244
212 180 244
212 181 244
212 181 244
213 182 244
213 182 244
213 183 244
213 183 244
214 184 244
214 184 244
214 185 244
214 185 244
215 186 244
215 186 244
215 187 244
215 187 244
216 188 244
216 188 244
216 189 244
216 189 244
217 190 244
217 190 244
217 191 244
217 191 244
154 128 180
154 128 180
154 129 180
154 129 180
155 130 180
155 130 180
155 131 180
155 131 180
156 132 180
156 132 180
156 133 180
156 133 180
157 134 180
157 134 180
157 135 180
157 135 180
158 136 180
158 136 180
158 137 180
158 137 180
159 138 180
159 138 180
159 139 180
159 139 180
160 140 180
160 140 180
160 141 180
160 141 180
161 142 180
161 142 180
161 143 180
161 143 180
226 208 244
226 208 244
226 209 244
226 209 244
227 210 244
227 210 244
227 211 244
227 211 244
228 212 244
228 212 244
228 213 244
228 213 244
229 214 244
229 214 244
229 215 244
229 215 244
230 216 244
230 216 244
230 217 244
230 217 244
231 218 244
231 218 244
231 219 244
231 219 244
232 220 244
232 220 244
232 221 244
232 221 244
233 222 244
233 222 244
233 223 244
233 223 244
170 160 180
170 160 180
170 161 180
170 161 180
171 162 180
171 162 180
171 163 180
171 163 180
172 164 180
172 164 180
172 165 180
172 165 180
173 166 180
173 166 180
173 167 180
173 167 180
174 168 180
174 168 180
174 169 180
174 169 180
175 170 180
175 170 180
175 171 180
175 171 180
176 172 180
176 172 180
176 173 180
176 173 180
177 174 180
177 174 180
177 175 180
177 175 180
242 240 244
242 240 244
242 241 244
242 241 244
243 242 244
243 242 244
243 243 244
243 243 244
244 244 244
244 244 244
244 245 244
244 245 244
245 246 244
245 246 244
245 247 244
245 247 244
246 248 244
246 248 244
246 249 244
246 249 244
247 250 244
247 250 244
247 251 244
247 251 244
248 252 244
248 252 244
248 253 244
248 253 244
249 254 244
249 254 244
249 255 244
249 255 244
122 64 180
122 64 180
122 65 180
123 65 180
123 66 180
123 66 180
123 67 180
124 67 180
124 68 180
124 68 180
124 69 180
125 69 180
125 70 180
125 70 180
125 71 180
126 71 180
126 72 180
126 72 180
126 73 180
127 73 180
127 74 180
127 74 180
127 75 180
128 75 180
128 76 180
128 76 180
128 77 180
129 77 180
129 78 180
129 78 180
129 79 180
130 79 180
194 144 244
194 144 244
194 145 244
195 145 244
195 146 244
195 146 244
195 147 244
196 147 244
196 148 244
196 148 244
196 149 244
197 149 244
197 150 244
197 150 244
197 151 244
198 151 244
198 152 244
198 152 244
198 153 244
199 153 244
199 154 244
199 154 244
199 155 244
200 155 244
200 156 244
200 156 244
200 157 244
201 157 244
201 158 244
201 158 244
201 159 244
202 159 244
138 96 180
138 96 180
138 97 180
139 97 180
139 98 180
139 98 180
139 99 180
140 99 180
140 100 180
140 100 180
140 101 180
141 101 180
141 102 180
141 102 180
141 103 180
142 103 180
142 104 180
142 104 180
142 105 180
143 105 180
143 106 180
143 106 180
143 107 180
144 107 180
144 108 180
144 108 180
144 109 180
145 109 180
145 110 180
145 110 180
145 111 180
146 111 180
210 176 244
210 176 244
210 177 244
211 177 244
211 178 244
211 178 244
211 179 244
212 179 244
212 180 244
212 180 244
212 181 244
213 181 244
213 182 244
213 182 244
213 183 244
214 183 244
214 184 244
214 184 244
214 185 244
215 185 244
215 186 244
215 186 244
215 187 244
216 187 244
216 188 244
216 188 244
216 189 244
217 189 244
217 190 244
217 190 244
217 191 244
218 191 244
154 128 180
154 128 180
154 129 180
155 129 180
155 130 180
155 130 180
155 131 180
156 131 180
156 132 180
156 132 180
156 133 180
157 133 180
157 134 180
157 134 180
157 135 180
158 135 180
158 136 180
158 136 180
158 137 180
159 137 180
159 138 180
159 138 180
159 139 180
160 139 180
160 140 180
160 140 180
160 141 180
161 141 180
161 142 180
161 142 180
161 143 180
162 143 180
226 208 244
226 208 244
226 209 244
227 209 244
227 210 244
227 210 244
227 211 244
228 211 244
228 212 244
228 212 244
228 213 244
229 213 244
229 214 244
229 214 244
229 215 244
230 215 244
230 216 244
230 216 244
230 217 244
231 217 244
231 218 244
231 218 244
231 219 244
232 219 244
232 220 244
232 220 244
232 221 244
233 221 244
233 222 244
233 222 244
233 223 244
234 223 244
170 160 180
170 160 180
170 161 180
171 161 180
171 162 180
171 162 180
171 163 180
172 163 180
172 164 180
172 164 180
172 165 180
173 165 180
173 166 180
173 166 180
173 167 180
174 167 180
174 168 180
174 168 180
174 169 180
175 169 180
175 170 180
175 170 180
175 171 180
176 171 180
176 172 180
176 172 180
176 173 180
177 173 180
177 174 180
177 174 180
177 175 180
178 175 180
242 240 244
242 240 244
242 241 244
243 241 244
243 242 244
243 242 244
243 243 244
244 243 244
244 244 244
244 244 244
244 245 244
245 245 244
245 246 244
245 246 244
245 247 244
246 247 244
246 248 244
246 248 244
246 249 244
247 249 244
247 250 244
247 250 244
247 251 244
248 251 244
248 252 244
248 252 244
248 253 244
249 253 244
249 254 244
249 254 244
249 255 244
250 255 244
122 64 181
122 64 181
123 65 181
123 65 181
123 66 181
123 66 181
124 67 181
124 67 181
124 68 181
124 68 181
125 69 181
125 69 181
125 70 181
125 70 181
126 71 181
126 71 181
126 72 181
126 72 181
127 73 181
127 73 181
127 74 181
127 74 181
128 75 181
128 75 181
128 76 181
128 76 181
129 77 181
129 77 181
129 78 181
129 78 181
130 79 181
130 79 181
194 144 245
194 144 245
195 145 245
195 145 245
195 146 245
195 146 245
196 147 245
196 147 245
196 148 245
196 148 245
197 149 245
197 149 245
197 150 245
197 150 245
198 151 245
198 151 245
198 152 245
198 152 245
199 153 245
199 153 245
199 154 245
199 154 245
200 155 245
200 155 245
200 156 245
200 156 245
201 157 245
201 157 245
201 158 245
201 158 245
202 159 245
202 159 245
138 96 181
138 96 181
139 97 181
139 97 181
139 98 181
139 98 181
140 99 181
140 99 181
140 100 181
140 100 181
141 101 181
141 101 181
141 102 181
141 102 181
142 103 181
142 103 181
142 104 181
142 104 181
143 105 181
143 105 181
143 106 181
143 106 181
144 107 181
144 107 181
144 108 181
144 108 181
145 109 181
145 109 181
145 110 181
145 110 181
146 111 181
146 111 181
210 176 245
210 176 245
211 177 245
211 177 245
211 178 245
211 178 245
212 179 245
212 179 245
212 180 245
212 180 245
213 181 245
213 181 245
213 182 245
213 182 245
214 183 245
214 183 245
214 184 245
214 184 245
215 185 245
215 185 245
215 186 245
215 186 245
216 187 245
216 187 245
216 188 245
216 188 245
217 189 245
217 189 245
217 190 245
217 190 245
218 191 245
218 191 245
154 128 181
154 128 181
155 129 181
155 129 181
155 130 181
155 130 181
156 131 181
156 131 181
156 132 181
156 132 181
157 133 181
157 133 181
157 134 181
157 134 181
158 135 181
158 135 181
158 136 181
158 136 181
159 137 181
159 137 181
159 138 181
159 138 181
160 139 181
160 139 181
160 140 181
160 140 181
161 141 181
161 141 181
161 142 181
161 142 181
162 143 181
162 143 181
226 208 245
226 208 245
227 209 245
227 209 245
227 210 245
227 210 245
228 211 245
228 211 245
228 212 245
228 212 245
229 213 245
229 213 245
229 214 245
229 214 245
230 215 245
230 215 245
230 216 245
230 216 245
231 217 245
231 217 245
231 218 245
231 218 245
232 219 245
232 219 245
232 220 245
232 220 245
233 221 245
233 221 245
233 222 245
233 222 245
234 223 245
234 223 245
170 160 181
170 160 181
171 161 181
171 161 181
171 162 181
171 162 181
172 163 181
172 163 181
172 164 181
172 164 181
173 165 181
173 165 181
173 166 181
173 166 181
174 167 181
174 167 181
174 168 181
174 168 181
175 169 181
175 169 181
175 170 181
175 170 181
176 171 181
176 171 181
176 172 181
176 172 181
177 173 181
177 173 181
177 174 181
177 174 181
178 175 181
178 175 181
242 240 245
242 240 245
243 241 245
243 241 245
243 242 245
243 242 245
244 243 245
244 243 245
244 244 245
244 244 245
245 245 245
245 245 245
245 246 245
245 246 245
246 247 245
246 247 245
246 248 245
246 248 245
247 249 245
247 249 245
247 250 245
247 250 245
248 251 245
248 251 245
248 252 245
248 252 245
249 253 245
249 253 245
249 254 245
249 254 245
250 255 245
250 255 245
122 64 181
123 64 181
123 65 181
123 65 181
123 66 181
124 66 181
124 67 181
124 67 181
124 68 181
125 68 181
125 69 181
125 69 181
125 70 181
126 70 181
126 71 181
126 71 181
126 72 181
127 72 181
127 73 181
127 73 181
127 74 181
128 74 181
128 75 181
128 75 181
128 76 181
129 76 181
129 77 181
129 77 181
129 78 181
130 78 181
130 79 181
130 79 181
194 144 245
195 144 245
195 145 245
195 145 245
195 146 245
196 146 245
196 147 245
196 147 245
196 148 245
197 148 245
197 149 245
197 149 245
197 150 245
198 150 245
198 151 245
198 151 245
198 152 245
199 152 245
199 153 245
199 153 245
199 154 245
200 154 245
200 155 245
200 155 245
200 156 245
201 156 245
201 157 245
201 157 245
201 158 245
202 158 245
202 159 245
202 159 245
138 96 181
139 96 181
139 97 181
139 97 181
139 98 181
140 98 181
140 99 181
140 99 181
140 100 181
141 100 181
141 101 181
141 101 181
141 102 181
142 102 181
142 103 181
142 103 181
142 104 181
143 104 181
143 105 181
143 105 181
143 106 181
144 106 181
144 107 181
144 107 181
144 108 181
145 108 181
145 109 181
145 109 181
145 110 181
146 110 181
146 111 181
146 111 181
210 176 245
211 176 245
211 177 245
211 177 245
211 178 245
212 178 245
212 179 245
212 179 245
212 180 245
213 180 245
213 181 245
213 181 245
213 182 245
214 182 245
214 183 245
214 183 245
214 184 245
215 184 245
215 185 245
215 185 245
215 186 245
216 186 245
216 187 245
216 187 245
216 188 245
217 188 245
217 189 245
217 189 245
217 190 245
218 190 245
218 191 245
218 191 245
154 128 181
155 128 181
155 129 181
155 129 181
155 130 181
156 130 181
156 131 181
156 131 181
156 132 181
157 132 181
157 133 181
157 133 181
157 134 181
158 134 181
158 135 181
158 135 181
158 136 181
159 136 181
159 137 181
159 137 181
159 138 181
160 138 181
160 139 181
160 139 181
160 140 181
161 140 181
161 141 181
161 141 181
161 142 181
162 142 181
162 143 181
162 143 181
226 208 245
227 208 245
227 209 245
227 209 245
227 210 245
228 210 245
228 211 245
228 211 245
228 212 245
229 212 245
229 213 245
229 213 245
229 214 245
230 214 245
230 215 245
230 215 245
230 216 245
231 216 245
231 217 245
231 217 245
231 218 245
232 218 245
232 219 245
232 219 245
232 220 245
233 220 245
233 221 245
233 221 245
233 222 245
234 222 245
234 223 245
234 223 245
170 160 181
171 160 181
171 161 181
171 161 181
171 162 181
172 162 181
172 163 181
172 163 181
172 164 181
173 164 181
173 165 181
173 165 181
173 166 181
174 166 181
174 167 181
174 167 181
174 168 181
175 168 181
175 169 181
175 169 181
175 170 181
176 170 181
176 171 181
176 171 181
176 172 181
177 172 181
177 173 181
177 173 181
177 174 181
178 174 181
178 175 181
178 175 181
242 240 245
243 240 245
243 241 245
243 241 245
243 242 245
244 242 245
244 243 245
244 243 245
244 244 245
245 244 245
245 245 245
245 245 245
245 246 245
246 246 245
246 247 245
246 247 245
246 248 245
247 248 245
247 249 245
247 249 245
247 250 245
248 250 245
248 251 245
248 251 245
248 252 245
249 252 245
249 253 245
249 253 245
249 254 245
250 254 245
250 255 245
250 255 245
123 64 182
123 64 182
123 65 182
123 65 182
124 66 182
124 66 182
124 67 182
124 67 182
125 68 182
125 68 182
125 69 182
125 69 182
126 70 182
126 70 182
126 71 182
126 71 182
127 72 182
127 72 182
127 73 182
127 73 182
128 74 182
128 74 182
128 75 182
128 75 182
129 76 182
129 76 182
129 77 182
129 77 182
130 78 182
130 78 182
130 79 182
130 79 182
195 144 246
195 144 246
195 145 246
195 145 246
196 146 246
196 146 246
196 147 246
196 147 246
197 148 246
197 148 246
197 149 246
197 149 246
198 150 246
198 150 246
198 151 246
198 151 246
199 152 246
199 152 246
199 153 246
199 153 246
200 154 246
200 154 246
200 155 246
200 155 246
201 156 246
201 156 246
201 157 246
201 157 246
202 158 246
202 158 246
202 159 246
202 159 246
139 96 182
139 96 182
139 97 182
139 97 182
140 98 182
140 98 182
140 99 182
140 99 182
141 100 182
141 100 182
141 101 182
141 101 182
142 102 182
142 102 182
142 103 182
142 103 182
143 104 182
143 104 182
143 105 182
143 105 182
144 106 182
144 106 182
144 107 182
144 107 182
145 108 182
145 108 182
145 109 182
145 109 182
146 110 182
146 110 182
146 111 182
146 111 182
211 176 246
211 176 246
211 177 246
211 177 246
212 178 246
212 178 246
212 179 246
212 179 246
213 180 246
213 180 246
213 181 246
213 181 246
214 182 246
214 182 246
214 183 246
214 183 246
215 184 246
215 184 246
215 185 246
215 185 246
216 186 246
216 186 246
216 187 246
216 187 246
217 188 246
217 188 246
217 189 246
217 189 246
218 190 246
218 190 246
218 191 246
218 191 246
155 128 182
155 128 182
155 129 182
155 129 182
156 130 182
156 130 182
156 131 182
156 131 182
157 132 182
157 132 182
157 133 182
157 133 182
158 134 182
158 134 182
158 135 182
158 135 182
159 136 182
159 136 182
159 137 182
159 137 182
160 138 182
160 138 182
160 139 182
160 139 182
161 140 182
161 140 182
161 141 182
161 141 182
162 142 182
162 142 182
162 143 182
162 143 182
227 208 246
227 208 246
227 209 246
227 209 246
228 210 246
228 210 246
228 211 246
228 211 246
229 212 246
229 212 246
229 213 246
229 213 246
230 214 246
230 214 246
230 215 246
230 215 246
231 216 246
231 216 246
231 217 246
231 217 246
232 218 246
232 218 246
232 219 246
232 219 246
233 220 246
233 220 246
233 221 246
233 221 246
234 222 246
234 222 246
234 223 246
234 223 246
171 160 182
171 160 182
171 161 182
171 161 182
172 162 182
172 162 182
172 163 182
172 163 182
173 164 182
173 164 182
173 165 182
173 165 182
174 166 182
174 166 182
174 167 182
174 167 182
175 168 182
175 168 182
175 169 182
175 169 182
176 170 182
176 170 182
176 171 182
176 171 182
177 172 182
177 172 182
177 173 182
177 173 182
178 174 182
178 174 182
178 175 182
178 175 182
243 240 246
243 240 246
243 241 246
243 241 246
244 242 246
244 242 246
244 243 246
244 243 246
245 244 246
245 244 246
245 245 246
245 245 246
246 246 246
246 246 246
246 247 246
246 247 246
247 248 246
247 248 246
247 249 246
247 249 246
248 250 246
248 250 246
248 251 246
248 251 246
249 252 246
249 252 246
249 253 246
249 253 246
250 254 246
250 254 246
250 255 246
250 255 246
123 64 182
123 64 182
123 65 182
124 65 182
124 66 182
124 66 182
124 67 182
125 67 182
125 68 182
125 68 182
125 69 182
126 69 182
126 70 182
126 70 182
126 71 182
127 71 182
127 72 182
127 72 182
127 73 182
128 73 182
128 74 182
128 74 182
128 75 182
129 75 182
129 76 182
129 76 182
129 77 182
130 77 182
130 78 182
130 78 182
130 79 182
131 79 182
195 144 246
195 144 246
195 145 246
196 145 246
196 146 246
196 146 246
196 147 246
197 147 246
197 148 246
197 148 246
197 149 246
198 149 246
198 150 246
198 150 246
198 151 246
199 151 246
199 152 246
199 152 246
199 153 246
200 153 246
200 154 246
200 154 246
200 155 246
201 155 246
201 156 246
201 156 246
201 157 246
202 157 246
202 158 246
202 158 246
202 159 246
203 159 246
139 96 182
139 96 182
139 97 182
140 97 182
140 98 182
140 98 182
140 99 182
141 99 182
141 100 182
141 100 182
141 101 182
142 101 182
142 102 182
142 102 182
142 103 182
143 103 182
143 104 182
143 104 182
143 105 182
144 105 182
144 106 182
144 106 182
144 107 182
145 107 182
145 108 182
145 108 182
145 109 182
146 109 182
146 110 182
146 110 182
146 111 182
147 111 182
211 176 246
211 176 246
211 177 246
212 177 246
212 178 246
212 178 246
212 179 246
213 179 246
213 180 246
213 180 246
213 181 246
214 181 246
214 182 246
214 182 246
214 183 246
215 183 246
215 184 246
215 184 246
215 185 246
216 185 246
216 186 246
216 186 246
216 187 246
217 187 246
217 188 246
217 188 246
217 189 246
218 189 246
218 190 246
218 190 246
218 191 246
219 191 246
155 128 182
155 128 182
155 129 182
156 129 182
156 130 182
156 130 182
156 131 182
157 131 182
157 132 182
157 132 182
157 133 182
158 133 182
158 134 182
158 134 182
158 135 182
159 135 182
159 136 182
159 136 182
159 137 182
160 137 182
160 138 182
160 138 182
160 139 182
161 139 182
161 140 182
161 140 182
161 141 182
162 141 182
162 142 182
162 142 182
162 143 182
163 143 182
227 208 246
227 208 246
227 209 246
228 209 246
228 210 246
228 210 246
228 211 246
229 211 246
229 212 246
229 212 246
229 213 246
230 213 246
230 214 246
230 214 246
230 215 246
231 215 246
231 216 246
231 216 246
231 217 246
232 217 246
232 218 246
232 218 246
232 219 246
233 219 246
233 220 246
233 220 246
233 221 246
234 221 246
234 222 246
234 222 246
234 223 246
235 223 246
171 160 182
171 160 182
171 161 182
172 161 182
172 162 182
172 162 182
172 163 182
173 163 182
173 164 182
173 164 182
173 165 182
174 165 182
174 166 182
174 166 182
174 167 182
175 167 182
175 168 182
175 168 182
175 169 182
176 169 182
176 170 182
176 170 182
176 171 182
177 171 182
177 172 182
177 172 182
177 173 182
178 173 182
178 174 182
178 174 182
178 175 182
179 175 182
243 240 246
243 240 246
243 241 246
244 241 246
244 242 246
244 242 246
244 243 246
245 243 246
245 244 246
245 244 246
245 245 246
246 245 246
246 246 246
246 246 246
246 247 246
247 247 246
247 248 246
247 248 246
247 249 246
248 249 246
248 250 246
248 250 246
248 251 246
249 251 246
249 252 246
249 252 246
249 253 246
250 253 246
250 254 246
250 254 246
250 255 246
251 255 246
123 64 183
123 64 183
124 65 183
124 65 183
124 66 183
124 66 183
125 67 183
125 67 183
125 68 183
125 68 183
126 69 183
126 69 183
126 70 183
126 70 183
127 71 183
127 71 183
127 72 183
127 72 183
128 73 183
128 73 183
128 74 183
128 74 183
129 75 183
129 75 183
129 76 183
129 76 183
130 77 183
130 77 183
130 78 183
130 78 183
131 79 183
131 79 183
195 144 247
195 144 247
196 145 247
196 145 247
196 146 247
196 146 247
197 147 247
197 147 247
197 148 247
197 148 247
198 149 247
198 149 247
198 150 247
198 150 247
199 151 247
199 151 247
199 152 247
199 152 247
200 153 247
200 153 247
200 154 247
200 154 247
201 155 247
201 155 247
201 156 247
201 156 247
202 157 247
202 157 247
202 158 247
202 158 247
203 159 247
203 159 247
139 96 183
139 96 183
140 97 183
140 97 183
140 98 183
140 98 183
141 99 183
141 99 183
141 100 183
141 100 183
142 101 183
142 101 183
142 102 183
142 102 183
143 103 183
143 103 183
143 104 183
143 104 183
144 105 183
144 105 183
144 106 183
144 106 183
145 107 183
145 107 183
145 108 183
145 108 183
146 109 183
146 109 183
146 110 183
146 110 183
147 111 183
147 111 183
211 176 247
211 176 247
212 177 247
212 177 247
212 178 247
212 178 247
213 179 247
213 179 247
213 180 247
213 180 247
214 181 247
214 181 247
214 182 247
214 182 247
215 183 247
215 183 247
215 184 247
215 184 247
216 185 247
216 185 247
216 186 247
216 186 247
217 187 247
217 187 247
217 188 247
217 188 247
218 189 247
218 189 247
218 190 247
218 190 247
219 191 247
219 191 247
155 128 183
155 128 183
156 129 183
156 129 183
156 130 183
156 130 183
157 131 183
157 131 183
157 132 183
157 132 183
158 133 183
158 133 183
158 134 183
158 134 183
159 135 183
159 135 183
159 136 183
159 136 183
160 137 183
160 137 183
160 138 183
160 138 183
161 139 183
161 139 183
161 140 183
161 140 183
162 141 183
162 141 183
162 142 183
162 142 183
163 143 183
163 143 183
227 208 247
227 208 247
228 209 247
228 209 247
228 210 247
228 210 247
229 211 247
229 211 247
229 212 247
229 212 247
230 213 247
230 213 247
230 214 247
230 214 247
231 215 247
231 215 247
231 216 247
231 216 247
232 217 247
232 217 247
232 218 247
232 218 247
233 219 247
233 219 247
233 220 247
233 220 247
234 221 247
234 221 247
234 222 247
234 222 247
235 223 247
235 223 247
171 160 183
171 160 183
172 161 183
172 161 183
172 162 183
172 162 183
173 163 183
173 163 183
173 164 183
173 164 183
174 165 183
174 165 183
174 166 183
174 166 183
175 167 183
175 167 183
175 168 183
175 168 183
176 169 183
176 169 183
176 170 183
176 170 183
177 171 183
177 171 183
177 172 183
177 172 183
178 173 183
178 173 183
178 174 183
178 174 183
179 175 183
179 175 183
243 240 247
243 240 247
244 241 247
244 241 247
244 242 247
244 242 247
245 243 247
245 243 247
245 244 247
245 244 247
246 245 247
246 245 247
246 246 247
246 246 247
247 247 247
247 247 247
247 248 247
247 248 247
248 249 247
248 249 247
248 250 247
248 250 247
249 251 247
249 251 247
249 252 247
249 252 247
250 253 247
250 253 247
250 254 247
250 254 247
251 255 247
251 255 247
123 64 183
124 64 183
124 65 183
124 65 183
124 66 183
125 66 183
125 67 183
125 67 183
125 68 183
126 68 183
126 69 183
126 69 183
126 70 183
127 70 183
127 71 183
127 71 183
127 72 183
128 72 183
128 73 183
128 73 183
128 74 183
129 74 183
129 75 183
129 75 183
129 76 183
130 76 183
130 77 183
130 77 183
130 78 183
131 78 183
131 79 183
131 79 183
195 144 247
196 144 247
196 145 247
196 145 247
196 146 247
197 146 247
197 147 247
197 147 247
197 148 247
198 148 247
198 149 247
198 149 247
198 150 247
199 150 247
199 151 247
199 151 247
199 152 247
200 152 247
200 153 247
200 153 247
200 154 247
201 154 247
201 155 247
201 155 247
201 156 247
202 156 247
202 157 247
202 157 247
202 158 247
203 158 247
203 159 247
203 159 247
139 96 183
140 96 183
140 97 183
140 97 183
140 98 183
141 98 183
141 99 183
141 99 183
141 100 183
142 100 183
142 101 183
142 101 183
142 102 183
143 102 183
143 103 183
143 103 183
143 104 183
144 104 183
144 105 183
144 105 183
144 106 183
145 106 183
145 107 183
145 107 183
145 108 183
146 108 183
146 109 183
146 109 183
146 110 183
147 110 183
147 111 183
147 111 183
211 176 247
212 176 247
212 177 247
212 177 247
212 178 247
213 178 247
213 179 247
213 179 247
213 180 247
214 180 247
214 181 247
214 181 247
214 182 247
215 182 247
215 183 247
215 183 247
215 184 247
216 184 247
216 185 247
216 185 247
216 186 247
217 186 247
217 187 247
217 187 247
217 188 247
218 188 247
218 189 247
218 189 247
218 190 247
219 190 247
219 191 247
219 191 247
155 128 183
156 128 183
156 129 183
156 129 183
156 130 183
157 130 183
157 131 183
157 131 183
157 132 183
158 132 183
158 133 183
158 133 183
158 134 183
159 134 183
159 135 183
159 135 183
159 136 183
160 136 183
160 137 183
160 137 183
160 138 183
161 138 183
161 139 183
161 139 183
161 140 183
162 140 183
162 141 183
162 141 183
162 142 183
163 142 183
163 143 183
163 143 183
227 208 247
228 208 247
228 209 247
228 209 247
228 210 247
229 210 247
229 211 247
229 211 247
229 212 247
230 212 247
230 213 247
230 213 247
230 214 247
231 214 247
231 215 247
231 215 247
231 216 247
232 216 247
232 217 247
232 217 247
232 218 247
233 218 247
233 219 247
233 219 247
233 220 247
234 220 247
234 221 247
234 221 247
234 222 247
235 222 247
235 223 247
235 223 247
171 160 183
172 160 183
172 161 183
172 161 183
172 162 183
173 162 183
173 163 183
173 163 183
173 164 183
174 164 183
174 165 183
174 165 183
174 166 183
175 166 183
175 167 183
175 167 183
175 168 183
176 168 183
176 169 183
176 169 183
176 170 183
177 170 183
177 171 183
177 171 183
177 172 183
178 172 183
178 173 183
178 173 183
178 174 183
179 174 183
179 175 183
179 175 183
243 240 247
244 240 247
244 241 247
244 241 247
244 242 247
245 242 247
245 243 247
245 243 247
245 244 247
246 244 247
246 245 247
246 245 247
246 246 247
247 246 247
247 247 247
247 247 247
247 248 247
248 248 247
248 249 247
248 249 247
248 250 247
249 250 247
249 251 247
249 251 247
249 252 247
250 252 247
250 253 247
250 253 247
250 254 247
251 254 247
251 255 247
251 255 247
124 64 184
124 64 184
124 65 184
124 65 184
125 66 184
125 66 184
125 67 184
125 67 184
126 68 184
126 68 184
126 69 184
126 69 184
127 70 184
127 70 184
127 71 184
127 71 184
128 72 184
128 72 184
128 73 184
128 73 184
129 74 184
129 74 184
129 75 184
129 75 184
130 76 184
130 76 184
130 77 184
130 77 184
131 78 184
131 78 184
131 79 184
131 79 184
196 144 248
196 144 248
196 145 248
196 145 248
197 146 248
197 146 248
197 147 248
197 147 248
198 148 248
198 148 248
198 149 248
198 149 248
199 150 248
199 150 248
199 151 248
199 151 248
200 152 248
200 152 248
200 153 248
200 153 248
201 154 248
201 154 248
201 155 248
201 155 248
202 156 248
202 156 248
202 157 248
202 157 248
203 158 248
203 158 248
203 159 248
203 159 248
140 96 184
140 96 184
140 97 184
140 97 184
141 98 184
141 98 184
141 99 184
141 99 184
142 100 184
142 100 184
142 101 184
142 101 184
143 102 184
143 102 184
143 103 184
143 103 184
144 104 184
144 104 184
144 105 184
144 105 184
145 106 184
145 106 184
145 107 184
145 107 184
146 108 184
146 108 184
146 109 184
146 109 184
147 110 184
147 110 184
147 111 184
147 111 184
212 176 248
212 176 248
212 177 248
212 177 248
213 178 248
213 178 248
213 179 248
213 179 248
214 180 248
214 180 248
214 181 248
214 181 248
215 182 248
215 182 248
215 183 248
215 183 248
216 184 248
216 184 248
216 185 248
216 185 248
217 186 248
217 186 248
217 187 248
217 187 248
218 188 248
218 188 248
218 189 248
218 189 248
219 190 248
219 190 248
219 191 248
219 191 248
156 128 184
156 128 184
156 129 184
156 129 184
157 130 184
157 130 184
157 131 184
157 131 184
158 132 184
158 132 184
158 133 184
158 133 184
159 134 184
159 134 184
159 135 184
159 135 184
160 136 184
160 136 184
160 137 184
160 137 184
161 138 184
161 138 184
161 139 184
161 139 184
162 140 184
162 140 184
162 141 184
162 141 184
163 142 184
163 142 184
163 143 184
163 143 184
228 208 248
228 208 248
228 209 248
228 209 248
229 210 248
229 210 248
229 211 248
229 211 248
230 212 248
230 212 248
230 213 248
230 213 248
231 214 248
231 214 248
231 215 248
231 215 248
232 216 248
232 216 248
232 217 248
232 217 248
233 218 248
233 218 248
233 219 248
233 219 248
234 220 248
234 220 248
234 221 248
234 221 248
235 222 248
235 222 248
235 223 248
235 223 248
172 160 184
172 160 184
172 161 184
172 161 184
173 162 184
173 162 184
173 163 184
173 163 184
174 164 184
174 164 184
174 165 184
174 165 184
175 166 184
175 166 184
175 167 184
175 167 184
176 168 184
176 168 184
176 169 184
176 169 184
177 170 184
177 170 184
177 171 184
177 171 184
178 172 184
178 172 184
178 173 184
178 173 184
179 174 184
179 174 184
179 175 184
179 175 184
244 240 248
244 240 248
244 241 248
244 241 248
245 242 248
245 242 248
245 243 248
245 243 248
246 244 248
246 244 248
246 245 248
246 245 248
247 246 248
247 246 248
247 247 248
247 247 248
248 248 248
248 248 248
248 249 248
248 249 248
249 250 248
249 250 248
249 251 248
249 251 248
250 252 248
250 252 248
250 253 248
250 253 248
251 254 248
251 254 248
251 255 248
251 255 248
124 64 184
124 64 184
124 65 184
125 65 184
125 66 184
125 66 184
125 67 184
126 67 184
126 68 184
126 68 184
126 69 184
127 69 184
127 70 184
127 70 184
127 71 184
128 71 184
128 72 184
128 72 184
128 73 184
129 73 184
129 74 184
129 74 184
129 75 184
130 75 184
130 76 184
130 76 184
130 77 184
131 77 184
131 78 184
131 78 184
131 79 184
132 79 184
196 144 248
196 144 248
196 145 248
197 145 248
197 146 248
197 146 248
197 147 248
198 147 248
198 148 248
198 148 248
198 149 248
199 149 248
199 150 248
199 150 248
199 151 248
200 151 248
200 152 248
200 152 248
200 153 248
201 153 248
201 154 248
201 154 248
201 155 248
202 155 248
202 156 248
202 156 248
202 157 248
203 157 248
203 158 248
203 158 248
203 159 248
204 159 248
140 96 184
140 96 184
140 97 184
141 97 184
141 98 184
141 98 184
141 99 184
142 99 184
142 100 184
142 100 184
142 101 184
143 101 184
143 102 184
143 102 184
143 103 184
144 103 184
144 104 184
144 104 184
144 105 184
145 105 184
145 106 184
145 106 184
145 107 184
146 107 184
146 108 184
146 108 184
146 109 184
147 109 184
147 110 184
147 110 184
147 111 184
148 111 184
212 176 248
212 176 248
212 177 248
213 177 248
213 178 248
213 178 248
213 179 248
214 179 248
214 180 248
214 180 248
214 181 248
215 181 248
215 182 248
215 182 248
215 183 248
216 183 248
216 184 248
216 184 248
216 185 248
217 185 248
217 186 248
217 186 248
217 187 248
218 187 248
218 188 248
218 188 248
218 189 248
219 189 248
219 190 248
219 190 248
219 191 248
220 191 248
156 128 184
156 128 184
156 129 184
157 129 184
157 130 184
157 130 184
157 131 184
158 131 184
158 132 184
158 132 184
158 133 184
159 133 184
159 134 184
159 134 184
159 135 184
160 135 184
160 136 184
160 136 184
160 137 184
161 137 184
161 138 184
161 138 184
161 139 184
162 139 184
162 140 184
162 140 184
162 141 184
163 141 184
163 142 184
163 142 184
163 143 184
164 143 184
228 208 248
228 208 248
228 209 248
229 209 248
229 210 248
229 210 248
229 211 248
230 211 248
230 212 248
230 212 248
230 213 248
231 213 248
231 214 248
231 214 248
231 215 248
232 215 248
232 216 248
232 216 248
232 217 248
233 217 248
233 218 248
233 218 248
233 219 248
234 219 248
234 220 248
234 220 248
234 221 248
235 221 248
235 222 248
235 222 248
235 223 248
236 223 248
172 160 184
172 160 184
172 161 184
173 161 184
173 162 184
173 162 184
173 163 184
174 163 184
174 164 184
174 164 184
174 165 184
175 165 184
175 166 184
175 166 184
175 167 184
176 167 184
176 168 184
176 168 184
176 169 184
177 169 184
177 170 184
177 170 184
177 171 184
178 171 184
178 172 184
178 172 184
178 173 184
179 173 184
179 174 184
179 174 184
179 175 184
180 175 184
244 240 248
244 240 248
244 241 248
245 241 248
245 242 248
245 242 248
245 243 248
246 243 248
246 244 248
246 244 248
246 245 248
247 245 248
247 246 248
247 246 248
247 247 248
248 247 248
248 248 248
248 248 248
248 249 248
249 249 248
249 250 248
249 250 248
249 251 248
250 251 248
250 252 248
250 252 248
250 253 248
251 253 248
251 254 248
251 254 248
251 255 248
252 255 248
124 64 185
124 64 185
125 65 185
125 65 185
125 66 185
125 66 185
126 67 185
126 67 185
126 68 185
126 68 185
127 69 185
127 69 185
127 70 185
127 70 185
128 71 185
128 71 185
128 72 185
128 72 185
129 73 185
129 73 185
129 74 185
129 74 185
130 75 185
130 75 185
130 76 185
130 76 185
131 77 185
131 77 185
131 78 185
131 78 185
132 79 185
132 79 185
196 144 249
196 144 249
197 145 249
197 145 249
197 146 249
197 146 249
198 147 249
198 147 249
198 148 249
198 148 249
199 149 249
199 149 249
199 150 249
199 150 249
200 151 249
200 151 249
200 152 249
200 152 249
201 153 249
201 153 249
201 154 249
201 154 249
202 155 249
202 155 249
202 156 249
202 156 249
203 157 249
203 157 249
203 158 249
203 158 249
204 159 249
204 159 249
140 96 185
140 96 185
141 97 185
141 97 185
141 98 185
141 98 185
142 99 185
142 99 185
142 100 185
142 100 185
143 101 185
143 101 185
143 102 185
143 102 185
144 103 185
144 103 185
144 104 185
144 104 185
145 105 185
145 105 185
145 106 185
145 106 185
146 107 185
146 107 185
146 108 185
146 108 185
147 109 185
147 109 185
147 110 185
147 110 185
148 111 185
148 111 185
212 176 249
212 176 249
213 177 249
213 177 249
213 178 249
213 178 249
214 179 249
214 179 249
214 180 249
214 180 249
215 181 249
215 181 249
215 182 249
215 182 249
216 183 249
216 183 249
216 184 249
216 184 249
217 185 249
217 185 249
217 186 249
217 186 249
218 187 249
218 187 249
218 188 249
218 188 249
219 189 249
219 189 249
219 190 249
219 190 249
220 191 249
220 191 249
156 128 185
156 128 185
157 129 185
157 129 185
157 130 185
157 130 185
158 131 185
158 131 185
158 132 185
158 132 185
159 133 185
159 133 185
159 134 185
159 134 185
160 135 185
160 135 185
160 136 185
160 136 185
161 137 185
161 137 185
161 138 185
161 138 185
162 139 185
162 139 185
162 140 185
162 140 185
163 141 185
163 141 185
163 142 185
163 142 185
164 143 185
164 143 185
228 208 249
228 208 249
229 209 249
229 209 249
229 210 249
229 210 249
230 211 249
230 211 249
230 212 249
230 212 249
231 213 249
231 213 249
231 214 249
231 214 249
232 215 249
232 215 249
232 216 249
232 216 249
233 217 249
233 217 249
233 218 249
233 218 249
234 219 249
234 219 249
234 220 249
234 220 249
235 221 249
235 221 249
235 222 249
235 222 249
236 223 249
236 223 249
172 160 185
172 160 185
173 161 185
173 161 185
173 162 185
173 162 185
174 163 185
174 163 185
174 164 185
174 164 185
175 165 185
175 165 185
175 166 185
175 166 185
176 167 185
176 167 185
176 168 185
176 168 185
177 169 185
177 169 185
177 170 185
177 170 185
178 171 185
178 171 185
178 172 185
178 172 185
179 173 185
179 173 185
179 174 185
179 174 185
180 175 185
180 175 185
244 240 249
244 240 249
245 241 249
245 241 249
245 242 249
245 242 249
246 243 249
246 243 249
246 244 249
246 244 249
247 245 249
247 245 249
247 246 249
247 246 249
248 247 249
248 247 249
248 248 249
248 248 249
249 249 249
249 249 249
249 250 249
249 250 249
250 251 249
250 251 249
250 252 249
250 252 249
251 253 249
251 253 249
251 254 249
251 254 249
252 255 249
252 255 249
124 64 185
125 64 185
125 65 185
125 65 185
125 66 185
126 66 185
126 67 185
126 67 185
126 68 185
127 68 185
127 69 185
127 69 185
127 70 185
128 70 185
128 71 185
128 71 185
128 72 185
129 72 185
129 73 185
129 73 185
129 74 185
130 74 185
130 75 185
130 75 185
130 76 185
131 76 185
131 77 185
131 77 185
131 78 185
132 78 185
132 79 185
132 79 185
196 144 249
197 144 249
197 145 249
197 145 249
197 146 249
198 146 249
198 147 249
198 147 249
198 148 249
199 148 249
199 149 249
199 149 249
199 150 249
200 150 249
200 151 249
200 151 249
200 152 249
201 152 249
201 153 249
201 153 249
201 154 249
202 154 249
202 155 249
202 155 249
202 156 249
203 156 249
203 157 249
203 157 249
203 158 249
204 158 249
204 159 249
204 159 249
140 96 185
141 96 185
141 97 185
141 97 185
141 98 185
142 98 185
142 99 185
142 99 185
142 100 185
143 100 185
143 101 185
143 101 185
143 102 185
144 102 185
144 103 185
144 103 185
144 104 185
145 104 185
145 105 185
145 105 185
145 106 185
146 106 185
146 107 185
146 107 185
146 108 185
147 108 185
147 109 185
147 109 185
147 110 185
148 110 185
148 111 185
148 111 185
212 176 249
213 176 249
213 177 249
213 177 249
213 178 249
214 178 249
214 179 249
214 179 249
214 180 249
215 180 249
215 181 249
215 181 249
215 182 249
216 182 249
216 183 249
216 183 249
216 184 249
217 184 249
217 185 249
217 185 249
217 186 249
218 186 249
218 187 249
218 187 249
218 188 249
219 188 249
219 189 249
219 189 249
219 190 249
220 190 249
220 191 249
220 191 249
156 128 185
157 128 185
157 129 185
157 129 185
157 130 185
158 130 185
158 131 185
158 131 185
158 132 185
159 132 185
159 133 185
159 133 185
159 134 185
160 134 185
160 135 185
160 135 185
160 136 185
161 136 185
161 137 185
161 137 185
161 138 185
162 138 185
162 139 185
162 139 185
162 140 185
163 140 185
163 141 185
163 141 185
163 142 185
164 142 185
164 143 185
164 143 185
228 208 249
229 208 249
229 209 249
229 209 249
229 210 249
230 210 249
230 211 249
230 211 249
230 212 249
231 212 249
231 213 249
231 213 249
231 214 249
232 214 249
232 215 249
232 215 249
232 216 249
233 216 249
233 217 249
233 217 249
233 218 249
234 218 249
234 219 249
234 219 249
234 220 249
235 220 249
235 221 249
235 221 249
235 222 249
236 222 249
236 223 249
236 223 249
172 160 185
173 160 185
173 161 185
173 161 185
173 162 185
174 162 185
174 163 185
174 163 185
174 164 185
175 164 185
175 165 185
175 165 185
175 166 185
176 166 185
176 167 185
176 167 185
176 168 185
177 168 185
177 169 185
177 169 185
177 170 185
178 170 185
178 171 185
178 171 185
178 172 185
179 172 185
179 173 185
179 173 185
179 174 185
180 174 185
180 175 185
180 175 185
244 240 249
245 240 249
245 241 249
245 241 249
245 242 249
246 242 249
246 243 249
246 243 249
246 244 249
247 244 249
247 245 249
247 245 249
247 246 249
248 246 249
248 247 249
248 247 249
248 248 249
249 248 249
249 249 249
249 249 249
249 250 249
250 250 249
250 251 249
250 251 249
250 252 249
251 252 249
251 253 249
251 253 249
251 254 249
252 254 249
252 255 249
252 255 249
125 64 186
125 64 186
125 65 186
125 65 186
126 66 186
126 66 186
126 67 186
126 67 186
127 68 186
127 68 186
127 69 186
127 69 186
128 70 186
128 70 186
128 71 186
128 71 186
129 72 186
129 72 186
129 73 186
129 73 186
130 74 186
130 74 186
130 75 186
130 75 186
131 76 186
131 76 186
131 77 186
131 77 186
132 78 186
132 78 186
132 79 186
132 79 186
197 144 250
197 144 250
197 145 250
197 145 250
198 146 250
198 146 250
198 147 250
198 147 250
199 148 250
199 148 250
199 149 250
199 149 250
200 150 250
200 150 250
200 151 250
200 151 250
201 152 250
201 152 250
201 153 250
201 153 250
202 154 250
202 154 250
202 155 250
202 155 250
203 156 250
203 156 250
203 157 250
203 157 250
204 158 250
204 158 250
204 159 250
204 159 250
141 96 186
141 96 186
141 97 186
141 97 186
142 98 186
142 98 186
142 99 186
142 99 186
143 100 186
143 100 186
143 101 186
143 101 186
144 102 186
144 102 186
144 103 186
144 103 186
145 104 186
145 104 186
145 105 186
145 105 186
146 106 186
146 106 186
146 107 186
146 107 186
147 108 186
147 108 186
147 109 186
147 109 186
148 110 186
148 110 186
148 111 186
148 111 186
213 176 250
213 176 250
213 177 250
213 177 250
214 178 250
214 178 250
214 179 250
214 179 250
215 180 250
215 180 250
215 181 250
215 181 250
216 182 250
216 182 250
216 183 250
216 183 250
217 184 250
217 184 250
217 185 250
217 185 250
218 186 250
218 186 250
218 187 250
218 187 250
219 188 250
219 188 250
219 189 250
219 189 250
220 190 250
220 190 250
220 191 250
220 191 250
157 128 186
157 128 186
157 129 186
157 129 186
158 130 186
158 130 186
158 131 186
158 131 186
159 132 186
159 132 186
159 133 186
159 133 186
160 134 186
160 134 186
160 135 186
160 135 186
161 136 186
161 136 186
161 137 186
161 137 186
162 138 186
162 138 186
162 139 186
162 139 186
163 140 186
163 140 186
163 141 186
163 141 186
164 142 186
164 142 186
164 143 186
164 143 186
229 208 250
229 208 250
229 209 250
229 209 250
230 210 250
230 210 250
230 211 250
230 211 250
231 212 250
231 212 250
231 213 250
231 213 250
232 214 250
232 214 250
232 215 250
232 215 250
233 216 250
233 216 250
233 217 250
233 217 250
234 218 250
234 218 250
234 219 250
234 219 250
235 220 250
235 220 250
235 221 250
235 221 250
236 222 250
236 222 250
236 223 250
236 223 250
173 160 186
173 160 186
173 161 186
173 161 186
174 162 186
174 162 186
174 163 186
174 163 186
175 164 186
175 164 186
175 165 186
175 165 186
176 166 186
176 166 186
176 167 186
176 167 186
177 168 186
177 168 186
177 169 186
177 169 186
178 170 186
178 170 186
178 171 186
178 171 186
179 172 186
179 172 186
179 173 186
179 173 186
180 174 186
180 174 186
180 175 186
180 175 186
245 240 250
245 240 250
245 241 250
245 241 250
246 242 250
246 242 250
246 243 250
246 243 250
247 244 250
247 244 250
247 245 250
247 245 250
248 246 250
248 246 250
248 247 250
248 247 250
249 248 250
249 248 250
249 249 250
249 249 250
250 250 250
250 250 250
250 251 250
250 251 250
251 252 250
251 252 250
251 253 250
251 253 250
252 254 250
252 254 250
252 255 250
252 255 250
125 64 186
125 64 186
125 65 186
126 65 186
126 66 186
126 66 186
126 67 186
127 67 186
127 68 186
127 68 186
127 69 186
128 69 186
128 70 186
128 70 186
128 71 186
129 71 186
129 72 186
129 72 186
129 73 186
130 73 186
130 74 186
130 74 186
130 75 186
131 75 186
131 76 186
131 76 186
131 77 186
132 77 186
132 78 186
132 78 186
132 79 186
133 79 186
197 144 250
197 144 250
197 145 250
198 145 250
198 146 250
198 146 250
198 147 250
199 147 250
199 148 250
199 148 250
199 149 250
200 149 250
200 150 250
200 150 250
200 151 250
201 151 250
201 152 250
201 152 250
201 153 250
202 153 250
202 154 250
202 154 250
202 155 250
203 155 250
203 156 250
203 156 250
203 157 250
204 157 250
204 158 250
204 158 250
204 159 250
205 159 250
141 96 186
141 96 186
141 97 186
142 97 186
142 98 186
142 98 186
142 99 186
143 99 186
143 100 186
143 100 186
143 101 186
144 101 186
144 102 186
144 102 186
144 103 186
145 103 186
145 104 186
145 104 186
145 105 186
146 105 186
146 106 186
146 106 186
146 107 186
147 107 186
147 108 186
147 108 186
147 109 186
148 109 186
148 110 186
148 110 186
148 111 186
149 111 186
213 176 250
213 176 250
213 177 250
214 177 250
214 178 250
214 178 250
214 179 250
215 179 250
215 180 250
215 180 250
215 181 250
216 181 250
216 182 250
216 182 250
216 183 250
217 183 250
217 184 250
217 184 250
217 185 250
218 185 250
218 186 250
218 186 250
218 187 250
219 187 250
219 188 250
219 188 250
219 189 250
220 189 250
220 190 250
220 190 250
220 191 250
221 191 250
157 128 186
157 128 186
157 129 186
158 129 186
158 130 186
158 130 186
158 131 186
159 131 186
159 132 186
159 132 186
159 133 186
160 133 186
160 134 186
160 134 186
160 135 186
161 135 186
161 136 186
161 136 186
161 137 186
162 137 186
162 138 186
162 138 186
162 139 186
163 139 186
163 140 186
163 140 186
163 141 186
164 141 186
164 142 186
164 142 186
164 143 186
165 143 186
229 208 250
229 208 250
229 209 250
230 209 250
230 210 250
230 210 250
230 211 250
231 211 250
231 212 250
231 212 250
231 213 250
232 213 250
232 214 250
232 214 250
232 215 250
233 215 250
233 216 250
233 216 250
233 217 250
234 217 250
234 218 250
234 218 250
234 219 250
235 219 250
235 220 250
235 220 250
235 221 250
236 221 250
236 222 250
236 222 250
236 223 250
237 223 250
173 160 186
173 160 186
173 161 186
174 161 186
174 162 186
174 162 186
174 163 186
175 163 186
175 164 186
175 164 186
175 165 186
176 165 186
176 166 186
176 166 186
176 167 186
177 167 186
177 168 186
177 168 186
177 169 186
178 169 186
178 170 186
178 170 186
178 171 186
179 171 186
179 172 186
179 172 186
179 173 186
180 173 186
180 174 186
180 174 186
180 175 186
181 175 186
245 240 250
245 240 250
245 241 250
246 241 250
246 242 250
246 242 250
246 243 250
247 243 250
247 244 250
247 244 250
247 245 250
248 245 250
248 246 250
248 246 250
248 247 250
249 247 250
249 248 250
249 248 250
249 249 250
250 249 250
250 250 250
250 250 250
250 251 250
251 251 250
251 252 250
251 252 250
251 253 250
252 253 250
252 254 250
252 254 250
252 255 250
253 255 250
125 64 187
125 64 187
126 65 187
126 65 187
126 66 187
126 66 187
127 67 187
127 67 187
127 68 187
127 68 187
128 69 187
128 69 187
128 70 187
128 70 187
129 71 187
129 71 187
129 72 187
129 72 187
130 73 187
130 73 187
130 74 187
130 74 187
131 75 187
131 75 187
131 76 187
131 76 187
132 77 187
132 77 187
132 78 187
132 78 187
133 79 187
133 79 187
197 144 251
197 144 251
198 145 251
198 145 251
198 146 251
198 146 251
199 147 251
199 147 251
199 148 251
199 148 251
200 149 251
200 149 251
200 150 251
200 150 251
201 151 251
201 151 251
201 152 251
201 152 251
202 153 251
202 153 251
202 154 251
202 154 251
203 155 251
203 155 251
203 156 251
203 156 251
204 157 251
204 157 251
204 158 251
204 158 251
205 159 251
205 159 251
141 96 187
141 96 187
142 97 187
142 97 187
142 98 187
142 98 187
143 99 187
143 99 187
143 100 187
143 100 187
144 101 187
144 101 187
144 102 187
144 102 187
145 103 187
145 103 187
145 104 187
145 104 187
146 105 187
146 105 187
146 106 187
146 106 187
147 107 187
147 107 187
147 108 187
147 108 187
148 109 187
148 109 187
148 110 187
148 110 187
149 111 187
149 111 187
213 176 251
213 176 251
214 177 251
214 177 251
214 178 251
214 178 251
215 179 251
215 179 251
215 180 251
215 180 251
216 181 251
216 181 251
216 182 251
216 182 251
217 183 251
217 183 251
217 184 251
217 184 251
218 185 251
218 185 251
218 186 251
218 186 251
219 187 251
219 187 251
219 188 251
219 188 251
220 189 251
220 189 251
220 190 251
220 190 251
221 191 251
221 191 251
157 128 187
157 128 187
158 129 187
158 129 187
158 130 187
158 130 187
159 131 187
159 131 187
159 132 187
159 132 187
160 133 187
160 133 187
160 134 187
160 134 187
161 135 187
161 135 187
161 136 187
161 136 187
162 137 187
162 137 187
162 138 187
162 138 187
163 139 187
163 139 187
163 140 187
163 140 187
164 141 187
164 141 187
164 142 187
164 142 187
165 143 187
165 143 187
229 208 251
229 208 251
230 209 251
230 209 251
230 210 251
230 210 251
231 211 251
231 211 251
231 212 251
231 212 251
232 213 251
232 213 251
232 214 251
232 214 251
233 215 251
233 215 251
233 216 251
233 216 251
234 217 251
234 217 251
234 218 251
234 218 251
235 219 251
235 219 251
235 220 251
235 220 251
236 221 251
236 221 251
236 222 251
236 222 251
237 223 251
237 223 251
173 160 187
173 160 187
174 161 187
174 161 187
174 162 187
174 162 187
175 163 187
175 163 187
175 164 187
175 164 187
176 165 187
176 165 187
176 166 187
176 166 187
177 167 187
177 167 187
177 168 187
177 168 187
178 169 187
178 169 187
178 170 187
178 170 187
179 171 187
179 171 187
179 172 187
179 172 187
180 173 187
180 173 187
180 174 187
180 174 187
181 175 187
181 175 187
245 240 251
245 240 251
246 241 251
246 241 251
246 242 251
246 242 251
247 243 251
247 243 251
247 244 251
247 244 251
248 245 251
248 245 251
248 246 251
248 246 251
249 247 251
249 247 251
249 248 251
249 248 251
250 249 251
250 249 251
250 250 251
250 250 251
251 251 251
251 251 251
251 252 251
251 252 251
252 253 251
252 253 251
252 254 251
252 254 251
253 255 251
253 255 251
125 64 187
126 64 187
126 65 187
126 65 187
126 66 187
127 66 187
127 67 187
127 67 187
127 68 187
128 68 187
128 69 187
128 69 187
128 70 187
129 70 187
129 71 187
129 71 187
129 72 187
130 72 187
130 73 187
130 73 187
130 74 187
131 74 187
131 75 187
131 75 187
131 76 187
132 76 187
132 77 187
132 77 187
132 78 187
133 78 187
133 79 187
133 79 187
197 144 251
198 144 251
198 145 251
198 145 251
198 146 251
199 146 251
199 147 251
199 147 251
199 148 251
200 148 251
200 149 251
200 149 251
200 150 251
201 150 251
201 151 251
201 151 251
201 152 251
202 152 251
202 153 251
202 153 251
202 154 251
203 154 251
203 155 251
203 155 251
203 156 251
204 156 251
204 157 251
204 157 251
204 158 251
205 158 251
205 159 251
205 159 251
141 96 187
142 96 187
142 97 187
142 97 187
142 98 187
143 98 187
143 99 187
143 99 187
143 100 187
144 100 187
144 101 187
144 101 187
144 102 187
145 102 187
145 103 187
145 103 187
145 104 187
146 104 187
146 105 187
146 105 187
146 106 187
147 106 187
147 107 187
147 107 187
147 108 187
148 108 187
148 109 187
148 109 187
148 110 187
149 110 187
149 111 187
149 111 187
213 176 251
214 176 251
214 177 251
214 177 251
214 178 251
215 178 251
215 179 251
215 179 251
215 180 251
216 180 251
216 181 251
216 181 251
216 182 251
217 182 251
217 183 251
217 183 251
217 184 251
218 184 251
218 185 251
218 185 251
218 186 251
219 186 251
219 187 251
219 187 251
219 188 251
220 188 251
220 189 251
220 189 251
220 190 251
221 190 251
221 191 251
221 191 251
157 128 187
158 128 187
158 129 187
158 129 187
158 130 187
159 130 187
159 131 187
159 131 187
159 132 187
160 132 187
160 133 187
160 133 187
160 134 187
161 134 187
161 135 187
161 135 187
161 136 187
162 136 187
162 137 187
162 137 187
162 138 187
163 138 187
163 139 187
163 139 187
163 140 187
164 140 187
164 141 187
164 141 187
164 142 187
165 142 187
165 143 187
165 143 187
229 208 251
230 208 251
230 209 251
230 209 251
230 210 251
231 210 251
231 211 251
231 211 251
231 212 251
232 212 251
232 213 251
232 213 251
232 214 251
233 214 251
233 215 251
233 215 251
233 216 251
234 216 251
234 217 251
234 217 251
234 218 251
235 218 251
235 219 251
235 219 251
235 220 251
236 220 251
236 221 251
236 221 251
236 222 251
237 222 251
237 223 251
237 223 251
173 160 187
174 160 187
174 161 187
174 161 187
174 162 187
175 162 187
175 163 187
175 163 187
175 164 187
176 164 187
176 165 187
176 165 187
176 166 187
177 166 187
177 167 187
177 167 187
177 168 187
178 168 187
178 169 187
178 169 187
178 170 187
179 170 187
179 171 187
179 171 187
179 172 187
180 172 187
180 173 187
180 173 187
180 174 187
181 174 187
181 175 187
181 175 187
245 240 251
246 240 251
246 241 251
246 241 251
246 242 251
247 242 251
247 243 251
247 243 251
247 244 251
248 244 251
248 245 251
248 245 251
248 246 251
249 246 251
249 247 251
249 247 251
249 248 251
250 248 251
250 249 251
250 249 251
250 250 251
251 250 251
251 251 251
251 251 251
251 252 251
252 252 251
252 253 251
252 253 251
252 254 251
253 254 251
253 255 251
253 255 251
126 64 188
126 64 188
126 65 188
126 65 188
127 66 188
127 66 188
127 67 188
127 67 188
128 68 188
128 68 188
128 69 188
128 69 188
129 70 188
129 70 188
129 71 188
129 71 188
130 72 188
130 72 188
130 73 188
130 73 188
131 74 188
131 74 188
131 75 188
131 75 188
132 76 188
132 76 188
132 77 188
132 77 188
133 78 188
133 78 188
133 79 188
133 79 188
198 144 252
198 144 252
198 145 252
198 145 252
199 146 252
199 146 252
199 147 252
199 147 252
200 148 252
200 148 252
200 149 252
200 149 252
201 150 252
201 150 252
201 151 252
201 151 252
202 152 252
202 152 252
202 153 252
202 153 252
203 154 252
203 154 252
203 155 252
203 155 252
204 156 252
204 156 252
204 157 252
204 157 252
205 158 252
205 158 252
205 159 252
205 159 252
142 96 188
142 96 188
142 97 188
142 97 188
143 98 188
143 98 188
143 99 188
143 99 188
144 100 188
144 100 188
144 101 188
144 101 188
145 102 188
145 102 188
145 103 188
145 103 188
146 104 188
146 104 188
146 105 188
146 105 188
147 106 188
147 106 188
147 107 188
147 107 188
148 108 188
148 108 188
148 109 188
148 109 188
149 110 188
149 110 188
149 111 188
149 111 188
214 176 252
214 176 252
214 177 252
214 177 252
215 178 252
215 178 252
215 179 252
215 179 252
216 180 252
216 180 252
216 181 252
216 181 252
217 182 252
217 182 252
217 183 252
217 183 252
218 184 252
218 184 252
218 185 252
218 185 252
219 186 252
219 186 252
219 187 252
219 187 252
220 188 252
220 188 252
220 189 252
220 189 252
221 190 252
221 190 252
221 191 252
221 191 252
158 128 188
158 128 188
158 129 188
158 129 188
159 130 188
159 130 188
159 131 188
159 131 188
160 132 188
160 132 188
160 133 188
160 133 188
161 134 188
161 134 188
161 135 188
161 135 188
162 136 188
162 136 188
162 137 188
162 137 188
163 138 188
163 138 188
163 139 188
163 139 188
164 140 188
164 140 188
164 141 188
164 141 188
165 142 188
165 142 188
165 143 188
165 143 188
230 208 252
230 208 252
230 209 252
230 209 252
231 210 252
231 210 252
231 211 252
231 211 252
232 212 252
232 212 252
232 213 252
232 213 252
233 214 252
233 214 252
233 215 252
233 215 252
234 216 252
234 216 252
234 217 252
234 217 252
235 218 252
235 218 252
235 219 252
235 219 252
236 220 252
236 220 252
236 221 252
236 221 252
237 222 252
237 222 252
237 223 252
237 223 252
174 160 188
174 160 188
174 161 188
174 161 188
175 162 188
175 162 188
175 163 188
175 163 188
176 164 188
176 164 188
176 165 188
176 165 188
177 166 188
177 166 188
177 167 188
177 167 188
178 168 188
178 168 188
178 169 188
178 169 188
179 170 188
179 170 188
179 171 188
179 171 188
180 172 188
180 172 188
180 173 188
180 173 188
181 174 188
181 174 188
181 175 188
181 175 188
246 240 252
246 240 252
246 241 252
246 241 252
247 242 252
247 242 252
247 243 252
247 243 252
248 244 252
248 244 252
248 245 252
248 245 252
249 246 252
249 246 252
249 247 252
249 247 252
250 248 252
250 248 252
250 249 252
250 249 252
251 250 252
251 250 252
251 251 252
251 251 252
252 252 252
252 252 252
252 253 252
252 253 252
253 254 252
253 254 252
253 255 252
253 255 252
126 64 188
126 64 188
126 65 188
127 65 188
127 66 188
127 66 188
127 67 188
128 67 188
128 68 188
128 68 188
128 69 188
129 69 188
129 70 188
129 70 188
129 71 188
130 71 188
130 72 188
130 72 188
130 73 188
131 73 188
131 74 188
131 74 188
131 75 188
132 75 188
132 76 188
132 76 188
132 77 188
133 77 188
133 78 188
133 78 188
133 79 188
134 79 188
198 144 252
198 144 252
198 145 252
199 145 252
199 146 252
199 146 252
199 147 252
200 147 252
200 148 252
200 148 252
200 149 252
201 149 252
201 150 252
201 150 252
201 151 252
202 151 252
202 152 252
202 152 252
202 153 252
203 153 252
203 154 252
203 154 252
203 155 252
204 155 252
204 156 252
204 156 252
204 157 252
205 157 252
205 158 252
205 158 252
205 159 252
206 159 252
142 96 188
142 96 188
142 97 188
143 97 188
143 98 188
143 98 188
143 99 188
144 99 188
144 100 188
144 100 188
144 101 188
145 101 188
145 102 188
145 102 188
145 103 188
146 103 188
146 104 188
146 104 188
146 105 188
147 105 188
147 106 188
147 106 188
147 107 188
148 107 188
148 108 188
148 108 188
148 109 188
149 109 188
149 110 188
149 110 188
149 111 188
150 111 188
214 176 252
214 176 252
214 177 252
215 177 252
215 178 252
215 178 252
215 179 252
216 179 252
216 180 252
216 180 252
216 181 252
217 181 252
217 182 252
217 182 252
217 183 252
218 183 252
218 184 252
218 184 252
218 185 252
219 185 252
219 186 252
219 186 252
219 187 252
220 187 252
220 188 252
220 188 252
220 189 252
221 189 252
221 190 252
221 190 252
221 191 252
222 191 252
158 128 188
158 128 188
158 129 188
159 129 188
159 130 188
159 130 188
159 131 188
160 131 188
160 132 188
160 132 188
160 133 188
161 133 188
161 134 188
161 134 188
161 135 188
162 135 188
162 136 188
162 136 188
162 137 188
163 137 188
163 138 188
163 138 188
163 139 188
164 139 188
164 140 188
164 140 188
164 141 188
165 141 188
165 142 188
165 142 188
165 143 188
166 143 188
230 208 252
230 208 252
230 209 252
231 209 252
231 210 252
231 210 252
231 211 252
232 211 252
232 212 252
232 212 252
232 213 252
233 213 252
233 214 252
233 214 252
233 215 252
234 215 252
234 216 252
234 216 252
234 217 252
235 217 252
235 218 252
235 218 252
235 219 252
236 219 252
236 220 252
236 220 252
236 221 252
237 221 252
237 222 252
237 222 252
237 223 252
238 223 252
174 160 188
174 160 188
174 161 188
175 161 188
175 162 188
175 162 188
175 163 188
176 163 188
176 164 188
176 164 188
176 165 188
177 165 188
177 166 188
177 166 188
177 167 188
178 167 188
178 168 188
178 168 188
178 169 188
179 169 188
179 170 188
179 170 188
179 171 188
180 171 188
180 172 188
180 172 188
180 173 188
181 173 188
181 174 188
181 174 188
181 175 188
182 175 188
246 240 252
246 240 252
246 241 252
247 241 252
247 242 252
247 242 252
247 243 252
248 243 252
248 244 252
248 244 252
248 245 252
249 245 252
249 246 252
249 246 252
249 247 252
250 247 252
250 248 252
250 248 252
250 249 252
251 249 252
251 250 252
251 250 252
251 251 252
252 251 252
252 252 252
252 252 252
252 253 252
253 253 252
253 254 252
253 254 252
253 255 252
254 255 252
126 64 189
126 64 189
127 65 189
127 65 189
127 66 189
127 66 189
128 67 189
128 67 189
128 68 189
128 68 189
129 69 189
129 69 189
129 70 189
129 70 189
130 71 189
130 71 189
130 72 189
130 72 189
131 73 189
131 73 189
131 74 189
131 74 189
132 75 189
132 75 189
132 76 189
132 76 189
133 77 189
133 77 189
133 78 189
133 78 189
134 79 189
134 79 189
198 144 253
198 144 253
199 145 253
199 145 253
199 146 253
199 146 253
200 147 253
200 147 253
200 148 253
200 148 253
201 149 253
201 149 253
201 150 253
201 150 253
202 151 253
202 151 253
202 152 253
202 152 253
203 153 253
203 153 253
203 154 253
203 154 253
204 155 253
204 155 253
204 156 253
204 156 253
205 157 253
205 157 253
205 158 253
205 158 253
206 159 253
206 159 253
142 96 189
142 96 189
143 97 189
143 97 189
143 98 189
143 98 189
144 99 189
144 99 189
144 100 189
144 100 189
145 101 189
145 101 189
145 102 189
145 102 189
146 103 189
146 103 189
146 104 189
146 104 189
147 105 189
147 105 189
147 106 189
147 106 189
148 107 189
148 107 189
148 108 189
148 108 189
149 109 189
149 109 189
149 110 189
149 110 189
150 111 189
150 111 189
214 176 253
214 176 253
215 177 253
215 177 253
215 178 253
215 178 253
216 179 253
216 179 253
216 180 253
216 180 253
217 181 253
217 181 253
217 182 253
217 182 253
218 183 253
218 183 253
218 184 253
218 184 253
219 185 253
219 185 253
219 186 253
219 186 253
220 187 253
220 187 253
220 188 253
220 188 253
221 189 253
221 189 253
221 190 253
221 190 253
222 191 253
222 191 253
158 128 189
158 128 189
159 129 189
159 129 189
159 130 189
159 130 189
160 131 189
160 131 189
160 132 189
160 132 189
161 133 189
161 133 189
161 134 189
161 134 189
162 135 189
162 135 189
162 136 189
162 136 189
163 137 189
163 137 189
163 138 189
163 138 189
164 139 189
164 139 189
164 140 189
164 140 189
165 141 189
165 141 189
165 142 189
165 142 189
166 143 189
166 143 189
230 208 253
230 208 253
231 209 253
231 209 253
231 210 253
231 210 253
232 211 253
232 211 253
232 212 253
232 212 253
233 213 253
233 213 253
233 214 253
233 214 253
234 215 253
234 215 253
234 216 253
234 216 253
235 217 253
235 217 253
235 218 253
235 218 253
236 219 253
236 219 253
236 220 253
236 220 253
237 221 253
237 221 253
237 222 253
237 222 253
238 223 253
238 223 253
174 160 189
174 160 189
175 161 189
175 161 189
175 162 189
175 162 189
176 163 189
176 163 189
176 164 189
176 164 189
177 165 189
177 165 189
177 166 189
177 166 189
178 167 189
178 167 189
178 168 189
178 168 189
179 169 189
179 169 189
179 170 189
179 170 189
180 171 189
180 171 189
180 172 189
180 172 189
181 173 189
181 173 189
181 174 189
181 174 189
182 175 189
182 175 189
246 240 253
246 240 253
247 241 253
247 241 253
247 242 253
247 242 253
248 243 253
248 243 253
248 244 253
248 244 253
249 245 253
249 245 253
249 246 253
249 246 253
250 247 253
250 247 253
250 248 253
250 248 253
251 249 253
251 249 253
251 250 253
251 250 253
252 251 253
252 251 253
252 252 253
252 252 253
253 253 253
253 253 253
253 254 253
253 254 253
254 255 253
254 255 253
126 64 189
127 64 189
127 65 189
127 65 189
127 66 189
128 66 189
128 67 189
128 67 189
128 68 189
129 68 189
129 69 189
129 69 189
129 70 189
130 70 189
130 71 189
130 71 189
130 72 189
131 72 189
131 73 189
131 73 189
131 74 189
132 74 189
132 75 189
132 75 189
132 76 189
133 76 189
133 77 189
133 77 189
133 78 189
134 78 189
134 79 189
134 79 189
198 144 253
199 144 253
199 145 253
199 145 253
199 146 253
200 146 253
200 147 253
200 147 253
200 148 253
201 148 253
201 149 253
201 149 253
201 150 253
202 150 253
202 151 253
202 151 253
202 152 253
203 152 253
203 153 253
203 153 253
203 154 253
204 154 253
204 155 253
204 155 253
204 156 253
205 156 253
205 157 253
205 157 253
205 158 253
206 158 253
206 159 253
206 159 253
142 96 189
143 96 189
143 97 189
143 97 189
143 98 189
144 98 189
144 99 189
144 99 189
144 100 189
145 100 189
145 101 189
145 101 189
145 102 189
146 102 189
146 103 189
146 103 189
146 104 189
147 104 189
147 105 189
147 105 189
147 106 189
148 106 189
148 107 189
148 107 189
148 108 189
149 108 189
149 109 189
149 109 189
149 110 189
150 110 189
150 111 189
150 111 189
214 176 253
215 176 253
215 177 253
215 177 253
215 178 253
216 178 253
216 179 253
216 179 253
216 180 253
217 180 253
217 181 253
217 181 253
217 182 253
218 182 253
218 183 253
218 183 253
218 184 253
219 184 253
219 185 253
219 185 253
219 186 253
220 186 253
220 187 253
220 187 253
220 188 253
221 188 253
221 189 253
221 189 253
221 190 253
222 190 253
222 191 253
222 191 253
158 128 189
159 128 189
159 129 189
159 129 189
159 130 189
160 130 189
160 131 189
160 131 189
160 132 189
161 132 189
161 133 189
161 133 189
161 134 189
162 134 189
162 135 189
162 135 189
162 136 189
163 136 189
163 137 189
163 137 189
163 138 189
164 138 189
164 139 189
164 139 189
164 140 189
165 140 189
165 141 189
165 141 189
165 142 189
166 142 189
166 143 189
166 143 189
230 208 253
231 208 253
231 209 253
231 209 253
231 210 253
232 210 253
232 211 253
232 211 253
232 212 253
233 212 253
233 213 253
233 213 253
233 214 253
234 214 253
234 215 253
234 215 253
234 216 253
235 216 253
235 217 253
235 217 253
235 218 253
236 218 253
236 219 253
236 219 253
236 220 253
237 220 253
237 221 253
237 221 253
237 222 253
238 222 253
238 223 253
238 223 253
174 160 189
175 160 189
175 161 189
175 161 189
175 162 189
176 162 189
176 163 189
176 163 189
176 164 189
177 164 189
177 165 189
177 165 189
177 166 189
178 166 189
178 167 189
178 167 189
178 168 189
179 168 189
179 169 189
179 169 189
179 170 189
180 170 189
180 171 189
180 171 189
180 172 189
181 172 189
181 173 189
181 173 189
181 174 189
182 174 189
182 175 189
182 175 189
246 240 253
247 240 253
247 241 253
247 241 253
247 242 253
248 242 253
248 243 253
248 243 253
248 244 253
249 244 253
249 245 253
249 245 253
249 246 253
250 246 253
250 247 253
250 247 253
250 248 253
251 248 253
251 249 253
251 249 253
251 250 253
252 250 253
252 251 253
252 251 253
252 252 253
253 252 253
253 253 253
253 253 253
253 254 253
254 254 253
254 255 253
254 255 253
127 64 190
127 64 190
127 65 190
127 65 190
128 66 190
128 66 190
128 67 190
128 67 190
129 68 190
129 68 190
129 69 190
129 69 190
130 70 190
130 70 190
130 71 190
130 71 190
131 72 190
131 72 190
131 73 190
131 73 190
132 74 190
132 74 190
132 75 190
132 75 190
133 76 190
133 76 190
133 77 190
133 77 190
134 78 190
134 78 190
134 79 190
134 79 190
199 144 254
199 144 254
199 145 254
199 145 254
200 146 254
200 146 254
200 147 254
200 147 254
201 148 254
201 148 254
201 149 254
201 149 254
202 150 254
202 150 254
202 151 254
202 151 254
203 152 254
203 152 254
203 153 254
203 153 254
204 154 254
204 154 254
204 155 254
204 155 254
205 156 254
205 156 254
205 157 254
205 157 254
206 158 254
206 158 254
206 159 254
206 159 254
143 96 190
143 96 190
143 97 190
143 97 190
144 98 190
144 98 190
144 99 190
144 99 190
145 100 190
145 100 190
145 101 190
145 101 190
146 102 190
146 102 190
146 103 190
146 103 190
147 104 190
147 104 190
147 105 190
147 105 190
148 106 190
148 106 190
148 107 190
148 107 190
149 108 190
149 108 190
149 109 190
149 109 190
150 110 190
150 110 190
150 111 190
150 111 190
215 176 254
215 176 254
215 177 254
215 177 254
216 178 254
216 178 254
216 179 254
216 179 254
217 180 254
217 180 254
217 181 254
217 181 254
218 182 254
218 182 254
218 183 254
218 183 254
219 184 254
219 184 254
219 185 254
219 185 254
220 186 254
220 186 254
220 187 254
220 187 254
221 188 254
221 188 254
221 189 254
221 189 254
222 190 254
222 190 254
222 191 254
222 191 254
159 128 190
159 128 190
159 129 190
159 129 190
160 130 190
160 130 190
160 131 190
160 131 190
161 132 190
161 132 190
161 133 190
161 133 190
162 134 190
162 134 190
162 135 190
162 135 190
163 136 190
163 136 190
163 137 190
163 137 190
164 138 190
164 138 190
164 139 190
164 139 190
165 140 190
165 140 190
165 141 190
165 141 190
166 142 190
166 142 190
166 143 190
166 143 190
231 208 254
231 208 254
231 209 254
231 209 254
232 210 254
232 210 254
232 211 254
232 211 254
233 212 254
233 212 254
233 213 254
233 213 254
234 214 254
234 214 254
234 215 254
234 215 254
235 216 254
235 216 254
235 217 254
235 217 254
236 218 254
236 218 254
236 219 254
236 219 254
237 220 254
237 220 254
237 221 254
237 221 254
238 222 254
238 222 254
238 223 254
238 223 254
175 160 190
175 160 190
175 161 190
175 161 190
176 162 190
176 162 190
176 163 190
176 163 190
177 164 190
177 164 190
177 165 190
177 165 190
178 166 190
178 166 190
178 167 190
178 167 190
179 168 190
179 168 190
179 169 190
179 169 190
180 170 190
180 170 190
180 171 190
180 171 190
181 172 190
181 172 190
181 173 190
181 173 190
182 174 190
182 174 190
182 175 190
182 175 190
247 240 254
247 240 254
247 241 254
247 241 254
248 242 254
248 242 254
248 243 254
248 243 254
249 244 254
249 244 254
249 245 254
249 245 254
250 246 254
250 246 254
250 247 254
250 247 254
251 248 254
251 248 254
251 249 254
251 249 254
252 250 254
252 250 254
252 251 254
252 251 254
253 252 254
253 252 254
253 253 254
253 253 254
254 254 254
254 254 254
254 255 254
254 255 254
127 64 190
127 64 190
127 65 190
128 65 190
128 66 190
128 66 190
128 67 190
129 67 190
129 68 190
129 68 190
129 69 190
130 69 190
130 70 190
130 70 190
130 71 190
131 71 190
131 72 190
131 72 190
131 73 190
132 73 190
132 74 190
132 74 190
132 75 190
133 75 190
133 76 190
133 76 190
133 77 190
134 77 190
134 78 190
134 78 190
134 79 190
135 79 190
199 144 254
199 144 254
199 145 254
200 145 254
200 146 254
200 146 254
200 147 254
201 147 254
201 148 254
201 148 254
201 149 254
202 149 254
202 150 254
202 150 254
202 151 254
203 151 254
203 152 254
203 152 254
203 153 254
204 153 254
204 154 254
204 154 254
204 155 254
205 155 254
205 156 254
205 156 254
205 157 254
206 157 254
206 158 254
206 158 254
206 159 254
207 159 254
143 96 190
143 96 190
143 97 190
144 97 190
144 98 190
144 98 190
144 99 190
145 99 190
145 100 190
145 100 190
145 101 190
146 101 190
146 102 190
146 102 190
146 103 190
147 103 190
147 104 190
147 104 190
147 105 190
148 105 190
148 106 190
148 106 190
148 107 190
149 107 190
149 108 190
149 108 190
149 109 190
150 109 190
150 110 190
150 110 190
150 111 190
151 111 190
215 176 254
215 176 254
215 177 254
216 177 254
216 178 254
216 178 254
216 179 254
217 179 254
217 180 254
217 180 254
217 181 254
218 181 254
218 182 254
218 182 254
218 183 254
219 183 254
219 184 254
219 184 254
219 185 254
220 185 254
220 186 254
220 186 254
220 187 254
221 187 254
221 188 254
221 188 254
221 189 254
222 189 254
222 190 254
222 190 254
222 191 254
223 191 254
159 128 190
159 128 190
159 129 190
160 129 190
160 130 190
160 130 190
160 131 190
161 131 190
161 132 190
161 132 190
161 133 190
162 133 190
162 134 190
162 134 190
162 135 190
163 135 190
163 136 190
163 136 190
163 137 190
164 137 190
164 138 190
164 138 190
164 139 190
165 139 190
165 140 190
165 140 190
165 141 190
166 141 190
166 142 190
166 142 190
166 143 190
167 143 190
231 208 254
231 208 254
231 209 254
232 209 254
232 210 254
232 210 254
232 211 254
233 211 254
233 212 254
233 212 254
233 213 254
234 213 254
234 214 254
234 214 254
234 215 254
235 215 254
235 216 254
235 216 254
235 217 254
236 217 254
236 218 254
236 218 254
236 219 254
237 219 254
237 220 254
237 220 254
237 221 254
238 221 254
238 222 254
238 222 254
238 223 254
239 223 254
175 160 190
175 160 190
175 161 190
176 161 190
176 162 190
176 162 190
176 163 190
177 163 190
177 164 190
177 164 190
177 165 190
178 165 190
178 166 190
178 166 190
178 167 190
179 167 190
179 168 190
179 168 190
179 169 190
180 169 190
180 170 190
180 170 190
180 171 190
181 171 190
181 172 190
181 172 190
181 173 190
182 173 190
182 174 190
182 174 190
182 175 190
183 175 190
247 240 254
247 240 254
247 241 254
248 241 254
248 242 254
248 242 254
248 243 254
249 243 254
249 244 254
249 244 254
249 245 254
250 245 254
250 246 254
250 246 254
250 247 254
251 247 254
251 248 254
251 248 254
251 249 254
252 249 254
252 250 254
252 250 254
252 251 254
253 251 254
253 252 254
253 252 254
253 253 254
254 253 254
254 254 254
254 254 254
254 255 254
255 255 254
127 64 191
127 64 191
128 65 191
128 65 191
128 66 191
128 66 191
129 67 191
129 67 191
129 68 191
129 68 191
130 69 191
130 69 191
130 70 191
130 70 191
131 71 191
131 71 191
131 72 191
131 72 191
132 73 191
132 73 191
132 74 191
132 74 191
133 75 191
133 75 191
133 76 191
133 76 191
134 77 191
134 77 191
134 78 191
134 78 191
135 79 191
135 79 191
199 144 255
199 144 255
200 145 255
200 145 255
200 146 255
200 146 255
201 147 255
201 147 255
201 148 255
201 148 255
202 149 255
202 149 255
202 150 255
202 150 255
203 151 255
203 151 255
203 152 255
203 152 255
204 153 255
204 153 255
204 154 255
204 154 255
205 155 255
205 155 255
205 156 255
205 156 255
206 157 255
206 157 255
206 158 255
206 158 255
207 159 255
207 159 255
143 96 191
143 96 191
144 97 191
144 97 191
144 98 191
144 98 191
145 99 191
145 99 191
145 100 191
145 100 191
146 101 191
146 101 191
146 102 191
146 102 191
147 103 191
147 103 191
147 104 191
147 104 191
148 105 191
148 105 191
148 106 191
148 106 191
149 107 191
149 107 191
149 108 191
149 108 191
150 109 191
150 109 191
150 110 191
150 110 191
151 111 191
151 111 191
215 176 255
215 176 255
216 177 255
216 177 255
216 178 255
216 178 255
217 179 255
217 179 255
217 180 255
217 180 255
218 181 255
218 181 255
218 182 255
218 182 255
219 183 255
219 183 255
219 184 255
219 184 255
220 185 255
220 185 255
220 186 255
220 186 255
221 187 255
221 187 255
221 188 255
221 188 255
222 189 255
222 189 255
222 190 255
222 190 255
223 191 255
223 191 255
159 128 191
159 128 191
160 129 191
160 129 191
160 130 191
160 130 191
161 131 191
161 131 191
161 132 191
161 132 191
162 133 191
162 133 191
162 134 191
162 134 191
163 135 191
163 135 191
163 136 191
163 136 191
164 137 191
164 137 191
164 138 191
164 138 191
165 139 191
165 139 191
165 140 191
165 140 191
166 141 191
166 141 191
166 142 191
166 142 191
167 143 191
167 143 191
231 208 255
231 208 255
232 209 255
232 209 255
232 210 255
232 210 255
233 211 255
233 211 255
233 212 255
233 212 255
234 213 255
234 213 255
234 214 255
234 214 255
235 215 255
235 215 255
235 216 255
235 216 255
236 217 255
236 217 255
236 218 255
236 218 255
237 219 255
237 219 255
237 220 255
237 220 255
238 221 255
238 221 255
238 222 255
238 222 255
239 223 255
239 223 255
175 160 191
175 160 191
176 161 191
176 161 191
176 162 191
176 162 191
177 163 191
177 163 191
177 164 191
177 164 191
178 165 191
178 165 191
178 166 191
178 166 191
179 167 191
179 167 191
179 168 191
179 168 191
180 169 191
180 169 191
180 170 191
180 170 191
181 171 191
181 171 191
181 172 191
181 172 191
182 173 191
182 173 191
182 174 191
182 174 191
183 175 191
183 175 191
247 240 255
247 240 255
248 241 255
248 241 255
248 242 255
248 242 255
249 243 255
249 243 255
249 244 255
249 244 255
250 245 255
250 245 255
250 246 255
250 246 255
251 247 255
251 247 255
251 248 255
251 248 255
252 249 255
252 249 255
252 250 255
252 250 255
253 251 255
253 251 255
253 252 255
253 252 255
254 253 255
254 253 255
254 254 255
254 254 255
255 255 255
255 255 255
127 64 191
128 64 191
128 65 191
128 65 191
128 66 191
129 66 191
129 67 191
129 67 191
129 68 191
130 68 191
130 69 191
130 69 191
130 70 191
131 70 191
131 71 191
131 71 191
131 72 191
132 72 191
132 73 191
132 73 191
132 74 191
133 74 191
133 75 191
133 75 191
133 76 191
134 76 191
134 77 191
134 77 191
134 78 191
135 78 191
135 79 191
135 79 191
199 144 255
200 144 255
200 145 255
200 145 255
200 146 255
201 146 255
201 147 255
201 147 255
201 148 255
202 148 255
202 149 255
202 149 255
202 150 255
203 150 255
203 151 255
203 151 255
203 152 255
204 152 255
204 153 255
204 153 255
204 154 255
205 154 255
205 155 255
205 155 255
205 156 255
206 156 255
206 157 255
206 157 255
206 158 255
207 158 255
207 159 255
207 159 255
143 96 191
144 96 191
144 97 191
144 97 191
144 98 191
145 98 191
145 99 191
145 99 191
145 100 191
146 100 191
146 101 191
146 101 191
146 102 191
147 102 191
147 103 191
147 103 191
147 104 191
148 104 191
148 105 191
148 105 191
148 106 191
149 106 191
149 107 191
149 107 191
149 108 191
150 108 191
150 109 191
150 109 191
150 110 191
151 110 191
151 111 191
151 111 191
215 176 255
216 176 255
216 177 255
216 177 255
216 178 255
217 178 255
217 179 255
217 179 255
217 180 255
218 180 255
218 181 255
218 181 255
218 182 255
219 182 255
219 183 255
219 183 255
219 184 255
220 184 255
220 185 255
220 185 255
220 186 255
221 186 255
221 187 255
221 187 255
221 188 255
222 188 255
222 189 255
222 189 255
222 190 255
223 190 255
223 191 255
223 191 255
159 128 191
160 128 191
160 129 191
160 129 191
160 130 191
161 130 191
161 131 191
161 131 191
161 132 191
162 132 191
162 133 191
162 133 191
162 134 191
163 134 191
163 135 191
163 135 191
163 136 191
164 136 191
164 137 191
164 137 191
164 138 191
165 138 191
165 139 191
165 139 191
165 140 191
166 140 191
166 141 191
166 141 191
166 142 191
167 142 191
167 143 191
167 143 191
231 208 255
232 208 255
232 209 255
232 209 255
232 210 255
233 210 255
233 211 255
233 211 255
233 212 255
234 212 255
234 213 255
234 213 255
234 214 255
235 214 255
235 215 255
235 215 255
235 216 255
236 216 255
236 217 255
236 217 255
236 218 255
237 218 255
237 219 255
237 219 255
237 220 255
238 220 255
238 221 255
238 221 255
238 222 255
239 222 255
239 223 255
239 223 255
175 160 191
176 160 191
176 161 191
176 161 191
176 162 191
177 162 191
177 163 191
177 163 191
177 164 191
178 164 191
178 165 191
178 165 191
178 166 191
179 166 191
179 167 191
179 167 191
179 168 191
180 168 191
180 169 191
180 169 191
180 170 191
181 170 191
181 171 191
181 171 191
181 172 191
182 172 191
182 173 191
182 173 191
182 174 191
183 174 191
183 175 191
183 175 191
247 240 255
248 240 255
248 241 255
248 241 255
248 242 255
249 242 255
249 243 255
249 243 255
249 244 255
250 244 255
250 245 255
250 245 255
250 246 255
251 246 255
251 247 255
251 247 255
251 248 255
252 248 255
252 249 255
252 249 255
252 250 255
253 250 255
253 251 255
253 251 255
253 252 255
254 252 255
254 253 255
254 253 255
254 254 255
255 254 255
255 255 255
255 255 255
